ncols 256
nrows 256
xllcorner 100.0
yllcorner 30.0
cellsize 30
NODATA_value -9999
1737 1761 1791 1821 1843 1859 1865 1868 1877 1891 1920 1948 1959 1964 1972 1977 1978 1971 1955 1949 1967 1995 2030 2057 2064 2067 2069 2065 2051 2025 1979 1935 1914 1904 1903 1894 1862 1817 1760 1702 1657 1624 1623 1634 1637 1630 1602 1567 1543 1526 1515 1500 1477 1457 1451 1455 1460 1463 1460 1453 1442 1428 1414 1399 1384 1371 1363 1359 1356 1349 1332 1310 1293 1281 1279 1282 1282 1278 1265 1252 1246 1244 1240 1229 1207 1185 1171 1164 1160 1155 1151 1152 1159 1168 1175 1177 1174 1169 1157 1146 1141 1139 1141 1143 1142 1139 1133 1126 1119 1115 1116 1117 1109 1099 1088 1076 1063 1046 1018 988 966 950 943 938 925 910 891 877 874 877 889 906 918 930 938 947 962 982 1007 1029 1042 1050 1051 1053 1061 1069 1074 1077 1081 1089 1104 1118 1123 1125 1130 1139 1150 1159 1161 1159 1154 1150 1142 1128 1106 1078 1042 1010 990 976 971 969 962 954 945 933 919 902 882 859 839 820 801 787 779 773 767 760 753 750 755 762 764 766 772 782 793 803 807 811 820 830 837 846 861 882 914 946 970 994 1022 1052 1080 1101 1107 1109 1117 1126 1130 1128 1122 1116 1119 1127 1135 1144 1161 1185 1208 1231 1249 1262 1274 1286 1299 1305 1300 1286 1264 1243 1232 1228 1231 1240 1250 1258 1258 1254 1252 1255 1262 1268 1265 1257 1244 1233
1720 1743 1773 1802 1825 1842 1850 1855 1864 1878 1902 1925 1935 1940 1948 1956 1957 1952 1941 1940 1960 1989 2022 2047 2056 2059 2063 2060 2046 2021 1977 1935 1915 1906 1907 1899 1869 1825 1768 1712 1667 1634 1629 1638 1640 1634 1610 1579 1557 1541 1530 1515 1493 1474 1467 1469 1474 1478 1475 1468 1457 1443 1427 1411 1396 1383 1377 1374 1371 1363 1344 1321 1303 1290 1288 1290 1290 1286 1273 1260 1254 1251 1247 1235 1213 1191 1176 1169 1164 1159 1155 1156 1163 1171 1177 1179 1176 1171 1161 1151 1146 1144 1146 1147 1146 1143 1136 1128 1121 1116 1117 1117 1110 1099 1088 1076 1064 1046 1019 991 969 953 945 938 925 910 892 879 876 878 889 904 916 928 937 948 963 983 1006 1026 1039 1047 1050 1052 1061 1070 1075 1079 1084 1090 1103 1116 1121 1122 1128 1137 1147 1156 1160 1159 1154 1150 1142 1127 1105 1078 1043 1011 991 977 972 968 961 952 942 931 916 900 880 858 838 819 801 786 778 773 767 760 754 751 756 763 765 766 772 781 791 801 807 811 821 831 838 847 862 883 913 944 968 991 1018 1047 1075 1097 1105 1109 1117 1127 1131 1130 1123 1118 1120 1127 1135 1144 1161 1183 1206 1229 1248 1262 1274 1285 1296 1301 1295 1282 1261 1241 1231 1227 1230 1240 1250 1258 1258 1255 1253 1255 1263 1268 1265 1257 1245 1234
1714 1737 1766 1795 1820 1840 1856 1868 1879 1889 1893 1895 1898 1902 1912 1922 1924 1924 1929 1945 1970 1997 2023 2040 2047 2052 2055 2052 2040 2016 1973 1934 1915 1908 1911 1907 1879 1837 1782 1727 1682 1646 1626 1620 1616 1614 1604 1589 1571 1555 1546 1534 1514 1496 1484 1481 1486 1490 1488 1482 1472 1459 1440 1420 1403 1392 1392 1394 1389 1377 1351 1323 1304 1292 1289 1291 1290 1285 1274 1262 1256 1253 1249 1238 1218 1197 1182 1173 1167 1162 1159 1160 1165 1172 1176 1177 1174 1171 1167 1164 1161 1160 1160 1160 1158 1154 1144 1132 1125 1120 1119 1117 1109 1099 1089 1077 1063 1046 1024 1000 979 962 948 936 922 909 895 886 883 884 889 897 907 919 934 951 968 985 1001 1015 1028 1038 1045 1052 1061 1071 1080 1088 1092 1096 1102 1107 1110 1112 1117 1126 1136 1146 1153 1156 1153 1147 1138 1123 1102 1077 1046 1018 999 984 973 965 956 946 935 921 906 891 874 856 836 817 798 782 775 770 766 763 758 756 761 767 768 769 770 775 784 794 803 812 822 833 842 852 868 887 911 936 958 981 1004 1030 1056 1080 1096 1107 1118 1127 1134 1135 1131 1127 1126 1129 1136 1144 1159 1178 1199 1220 1242 1259 1272 1282 1286 1284 1278 1267 1251 1236 1227 1223 1228 1239 1248 1256 1257 1255 1254 1256 1263 1267 1264 1257 1247 1238
1708 1730 1759 1790 1818 1844 1868 1887 1901 1906 1891 1871 1865 1867 1877 1888 1891 1896 1917 1948 1979 2006 2024 2033 2040 2046 2050 2047 2034 2011 1970 1932 1915 1909 1917 1916 1890 1849 1796 1743 1700 1660 1624 1599 1588 1585 1590 1589 1576 1561 1554 1547 1532 1517 1503 1496 1499 1504 1504 1500 1493 1480 1458 1435 1418 1407 1412 1417 1408 1389 1355 1321 1301 1288 1286 1287 1284 1278 1268 1257 1252 1249 1245 1238 1224 1208 1194 1184 1178 1173 1170 1170 1172 1174 1176 1175 1172 1170 1173 1177 1177 1176 1175 1174 1171 1165 1152 1138 1129 1124 1121 1118 1109 1099 1089 1077 1061 1043 1024 1005 986 967 948 931 917 906 897 891 889 889 887 887 894 907 927 949 968 983 993 1002 1015 1029 1041 1052 1063 1074 1086 1096 1100 1100 1098 1095 1096 1098 1104 1112 1120 1129 1139 1146 1144 1138 1128 1114 1097 1076 1050 1026 1008 992 977 963 952 941 928 913 897 883 869 854 835 815 795 779 771 767 767 767 764 763 768 774 775 775 772 772 779 788 800 813 823 834 845 857 872 889 907 926 947 968 988 1010 1034 1059 1082 1101 1114 1124 1133 1138 1139 1137 1135 1136 1141 1149 1161 1175 1191 1209 1232 1252 1266 1273 1271 1263 1257 1249 1238 1229 1221 1218 1224 1235 1242 1247 1249 1248 1247 1249 1255 1260 1257 1252 1243 1236
1690 1712 1742 1776 1809 1841 1870 1892 1907 1911 1889 1861 1850 1847 1854 1864 1868 1874 1900 1937 1970 1998 2016 2025 2033 2041 2046 2044 2031 2008 1968 1931 1915 1911 1920 1922 1898 1859 1808 1756 1713 1672 1629 1596 1578 1571 1576 1577 1565 1552 1548 1547 1539 1531 1520 1514 1518 1524 1526 1524 1520 1510 1489 1465 1447 1437 1440 1441 1425 1398 1358 1320 1299 1287 1284 1284 1279 1271 1259 1248 1243 1240 1240 1239 1233 1226 1217 1209 1202 1197 1192 1188 1185 1181 1179 1176 1172 1171 1176 1183 1185 1185 1185 1183 1179 1171 1156 1141 1132 1126 1123 1119 1111 1100 1089 1075 1056 1035 1015 997 978 959 940 923 910 901 894 889 888 887 883 881 886 897 918 940 959 974 982 992 1008 1026 1041 1055 1066 1077 1090 1099 1100 1097 1091 1086 1086 1088 1093 1100 1105 1112 1122 1128 1126 1121 1112 1101 1089 1074 1053 1032 1015 1000 983 968 956 944 929 913 898 883 871 856 836 816 795 779 771 768 769 771 771 772 778 784 786 784 780 778 782 790 802 814 825 835 846 857 872 887 903 920 940 961 979 999 1022 1046 1071 1091 1104 1115 1126 1135 1141 1145 1145 1147 1152 1160 1168 1178 1188 1201 1220 1239 1252 1259 1255 1247 1243 1238 1231 1223 1216 1213 1219 1227 1231 1233 1233 1231 1230 1232 1239 1243 1242 1237 1230 1224
1667 1690 1721 1758 1796 1831 1863 1886 1901 1905 1884 1855 1839 1832 1835 1843 1847 1853 1878 1914 1948 1979 2001 2015 2025 2035 2040 2037 2024 2003 1966 1932 1918 1915 1926 1929 1907 1869 1819 1767 1724 1683 1641 1606 1582 1568 1563 1558 1545 1532 1532 1536 1536 1535 1533 1532 1538 1544 1546 1546 1545 1539 1523 1504 1486 1474 1470 1462 1437 1404 1361 1325 1305 1293 1286 1281 1274 1264 1253 1243 1237 1236 1239 1245 1248 1249 1245 1239 1232 1226 1219 1211 1201 1193 1186 1181 1176 1174 1180 1188 1192 1192 1190 1186 1180 1172 1157 1142 1133 1126 1123 1119 1110 1099 1087 1070 1048 1024 1002 983 964 946 928 912 902 894 889 886 885 884 880 877 881 891 907 927 944 959 970 982 1002 1023 1042 1058 1069 1080 1090 1096 1094 1089 1083 1078 1079 1081 1084 1088 1091 1095 1103 1107 1105 1101 1095 1088 1082 1072 1056 1038 1023 1009 993 978 965 953 938 922 906 892 877 860 840 819 799 785 777 774 774 777 778 781 789 796 797 796 791 788 791 797 807 819 829 839 849 860 873 888 902 918 937 958 976 995 1017 1040 1062 1080 1092 1103 1117 1130 1141 1150 1154 1157 1163 1170 1177 1182 1186 1193 1206 1221 1233 1240 1238 1233 1231 1229 1224 1218 1211 1207 1212 1217 1218 1216 1213 1210 1210 1211 1216 1221 1220 1217 1211 1206
1642 1664 1697 1737 1778 1816 1847 1868 1881 1886 1870 1845 1828 1817 1815 1819 1823 1829 1848 1879 1913 1948 1979 2002 2017 2027 2027 2018 2004 1986 1960 1939 1929 1927 1937 1941 1920 1883 1831 1777 1733 1695 1662 1634 1608 1584 1557 1533 1515 1503 1502 1508 1514 1522 1534 1545 1554 1560 1558 1555 1556 1557 1556 1550 1535 1518 1499 1473 1439 1404 1371 1346 1330 1315 1296 1278 1266 1257 1252 1249 1245 1244 1251 1263 1273 1279 1276 1268 1261 1254 1245 1233 1220 1206 1196 1188 1182 1180 1187 1196 1200 1199 1191 1179 1170 1162 1151 1140 1131 1124 1118 1111 1101 1091 1078 1060 1036 1010 986 966 947 930 913 899 890 885 884 885 885 884 882 882 885 891 899 910 924 940 953 970 993 1018 1042 1061 1074 1083 1087 1085 1080 1075 1073 1075 1078 1079 1079 1080 1081 1082 1085 1087 1084 1081 1080 1080 1078 1073 1062 1048 1035 1022 1009 996 984 971 957 942 927 911 889 865 842 823 809 800 794 789 786 784 786 790 799 806 808 807 803 801 802 807 818 831 841 851 861 872 884 897 908 922 940 960 981 1002 1023 1043 1059 1072 1082 1093 1109 1126 1141 1153 1160 1164 1170 1176 1181 1183 1183 1184 1189 1197 1207 1215 1218 1219 1221 1220 1217 1213 1207 1203 1204 1205 1203 1199 1194 1191 1190 1190 1191 1191 1189 1188 1188 1188
1618 1640 1673 1714 1756 1793 1822 1840 1852 1857 1846 1827 1810 1796 1791 1793 1796 1800 1815 1841 1874 1912 1952 1984 2003 2015 2010 1995 1981 1967 1953 1943 1937 1936 1946 1950 1930 1894 1840 1783 1740 1704 1681 1662 1636 1604 1557 1514 1491 1479 1477 1483 1492 1506 1530 1553 1566 1571 1565 1559 1561 1567 1581 1589 1577 1556 1521 1479 1439 1406 1385 1373 1361 1344 1313 1282 1266 1259 1261 1265 1263 1262 1271 1287 1301 1309 1304 1293 1285 1277 1268 1255 1238 1222 1209 1199 1193 1191 1198 1207 1211 1208 1192 1172 1160 1150 1143 1136 1128 1119 1110 1101 1090 1080 1067 1049 1024 997 972 952 934 918 902 889 881 877 880 884 885 885 886 888 891 894 893 896 908 923 940 960 985 1011 1039 1062 1075 1083 1080 1072 1065 1060 1065 1074 1078 1078 1076 1074 1073 1073 1073 1072 1069 1066 1069 1074 1076 1074 1067 1056 1045 1034 1024 1014 1002 990 977 963 949 931 903 872 848 830 822 819 814 809 800 795 796 801 810 817 819 818 816 814 815 820 832 846 856 865 875 886 898 909 918 928 946 966 988 1011 1032 1050 1060 1066 1075 1086 1103 1123 1140 1154 1161 1164 1170 1177 1181 1181 1178 1175 1174 1176 1184 1192 1201 1208 1211 1212 1210 1207 1202 1197 1195 1193 1189 1184 1180 1176 1175 1174 1170 1165 1163 1163 1168 1173
1597 1618 1651 1692 1732 1768 1795 1811 1821 1825 1816 1797 1780 1766 1760 1761 1764 1769 1782 1807 1842 1881 1924 1960 1983 1997 1993 1979 1967 1956 1946 1940 1936 1936 1947 1952 1933 1897 1843 1786 1742 1707 1687 1670 1645 1611 1559 1510 1486 1474 1472 1478 1488 1504 1532 1559 1573 1579 1573 1566 1568 1576 1595 1607 1596 1574 1535 1489 1448 1415 1399 1392 1383 1365 1331 1298 1282 1275 1280 1286 1284 1282 1292 1308 1323 1331 1326 1313 1305 1297 1287 1274 1257 1240 1226 1215 1208 1205 1212 1220 1223 1218 1198 1175 1160 1148 1140 1133 1124 1113 1104 1093 1083 1072 1059 1041 1016 990 965 945 928 912 897 885 878 875 879 884 885 886 887 889 892 894 890 890 901 915 932 953 977 1004 1033 1057 1070 1078 1074 1064 1056 1052 1059 1069 1074 1074 1072 1069 1068 1067 1067 1065 1061 1059 1063 1070 1073 1073 1067 1058 1049 1039 1031 1023 1013 1002 990 977 963 946 916 883 859 842 835 834 831 825 815 809 810 815 824 831 833 832 831 829 829 833 845 859 868 877 887 897 907 917 924 934 950 969 991 1014 1034 1050 1058 1063 1071 1081 1098 1118 1136 1150 1156 1160 1166 1172 1176 1176 1172 1168 1164 1165 1171 1179 1188 1196 1200 1201 1200 1197 1192 1188 1186 1184 1180 1175 1170 1167 1166 1165 1159 1153 1151 1151 1157 1164
1578 1599 1630 1669 1707 1742 1768 1785 1794 1797 1785 1766 1748 1734 1729 1731 1735 1740 1752 1776 1810 1851 1896 1935 1961 1977 1974 1962 1953 1944 1939 1937 1935 1935 1944 1947 1928 1894 1844 1790 1747 1712 1690 1671 1645 1612 1563 1518 1495 1482 1477 1480 1490 1506 1534 1560 1575 1583 1581 1578 1582 1590 1606 1615 1604 1582 1546 1503 1463 1431 1414 1406 1397 1382 1351 1320 1305 1299 1303 1308 1306 1304 1312 1327 1341 1350 1344 1332 1323 1316 1306 1292 1275 1258 1245 1235 1228 1225 1229 1234 1235 1228 1206 1181 1164 1150 1140 1131 1120 1109 1099 1088 1077 1066 1054 1037 1012 986 961 940 923 908 894 882 875 873 878 884 885 885 886 888 890 892 889 889 899 913 930 950 974 1000 1028 1051 1065 1072 1069 1061 1053 1049 1055 1064 1068 1069 1068 1066 1065 1065 1063 1060 1056 1054 1058 1064 1068 1069 1065 1058 1050 1042 1035 1028 1019 1009 999 988 975 958 930 899 876 859 852 849 846 840 833 828 830 835 842 847 849 848 847 846 847 850 861 873 881 888 896 904 913 922 929 939 954 972 993 1015 1035 1050 1058 1063 1070 1080 1095 1113 1130 1143 1151 1155 1161 1168 1172 1171 1167 1162 1157 1157 1162 1169 1177 1184 1188 1189 1188 1186 1182 1178 1177 1177 1173 1169 1164 1160 1160 1159 1155 1150 1148 1148 1152 1157
1562 1582 1611 1646 1680 1712 1740 1760 1770 1771 1756 1733 1715 1703 1703 1709 1714 1717 1724 1740 1772 1812 1861 1905 1934 1951 1948 1935 1927 1923 1928 1937 1938 1937 1936 1929 1909 1880 1843 1802 1762 1725 1696 1670 1642 1613 1577 1544 1524 1508 1492 1484 1490 1506 1530 1552 1567 1579 1592 1604 1612 1617 1618 1612 1598 1579 1555 1523 1487 1454 1431 1416 1407 1396 1374 1352 1339 1333 1336 1339 1336 1332 1336 1345 1356 1363 1357 1345 1337 1329 1320 1307 1291 1277 1270 1266 1260 1254 1251 1248 1244 1233 1211 1185 1166 1150 1140 1130 1119 1108 1097 1085 1074 1064 1053 1037 1014 986 956 930 912 898 885 875 869 868 875 884 886 885 884 884 887 890 893 897 908 921 938 957 979 1002 1027 1048 1061 1070 1070 1065 1059 1055 1055 1059 1062 1064 1066 1068 1069 1068 1063 1056 1051 1048 1049 1053 1055 1056 1056 1053 1047 1040 1032 1023 1015 1008 1004 998 986 971 949 924 904 887 875 867 862 859 859 861 863 865 865 864 864 864 866 868 870 873 880 889 895 900 903 906 913 922 932 945 960 978 1000 1022 1041 1056 1066 1073 1080 1088 1097 1109 1122 1135 1145 1153 1160 1166 1171 1172 1168 1163 1155 1152 1157 1163 1168 1172 1175 1177 1177 1176 1172 1170 1173 1176 1173 1168 1162 1158 1158 1158 1158 1158 1158 1158 1156 1154
1556 1575 1601 1631 1658 1685 1713 1736 1745 1744 1726 1702 1686 1677 1681 1692 1698 1700 1700 1708 1734 1773 1824 1871 1902 1921 1916 1902 1896 1896 1912 1931 1936 1933 1922 1906 1887 1864 1840 1813 1777 1738 1701 1668 1640 1616 1593 1574 1557 1537 1509 1489 1493 1507 1526 1545 1559 1576 1604 1631 1644 1646 1632 1611 1593 1579 1566 1547 1517 1485 1455 1434 1424 1416 1403 1390 1380 1374 1375 1377 1373 1367 1364 1366 1372 1375 1368 1356 1347 1340 1331 1321 1308 1299 1300 1302 1297 1288 1276 1264 1252 1237 1212 1185 1164 1147 1136 1127 1117 1107 1096 1084 1073 1063 1054 1040 1016 987 951 921 902 889 877 868 863 863 873 884 887 886 884 883 887 893 902 911 922 935 951 968 986 1004 1024 1042 1055 1065 1069 1068 1065 1061 1057 1056 1058 1061 1067 1073 1075 1074 1065 1055 1049 1045 1043 1043 1043 1043 1045 1045 1042 1035 1026 1016 1010 1006 1007 1006 997 984 967 949 935 921 905 892 886 885 892 900 901 898 890 882 879 881 886 892 896 901 906 910 915 918 916 914 918 926 940 957 972 988 1011 1033 1050 1064 1076 1085 1092 1097 1100 1104 1113 1124 1136 1146 1154 1161 1166 1168 1166 1161 1152 1147 1150 1155 1158 1160 1163 1166 1168 1168 1166 1165 1171 1177 1175 1169 1163 1158 1157 1159 1164 1170 1174 1175 1168 1159
1563 1581 1603 1627 1647 1666 1690 1710 1718 1717 1698 1675 1661 1656 1663 1676 1683 1685 1682 1686 1707 1740 1789 1836 1869 1889 1885 1872 1868 1871 1891 1914 1920 1918 1907 1891 1874 1856 1839 1816 1781 1742 1704 1671 1644 1622 1605 1589 1573 1552 1520 1497 1499 1513 1531 1548 1563 1582 1615 1648 1664 1665 1648 1624 1605 1592 1584 1571 1545 1516 1486 1465 1455 1449 1439 1429 1421 1415 1415 1416 1411 1404 1398 1394 1394 1392 1380 1366 1357 1350 1343 1336 1328 1323 1329 1334 1328 1318 1301 1282 1263 1241 1211 1181 1158 1139 1128 1121 1112 1104 1094 1083 1072 1062 1053 1039 1015 985 948 916 898 885 874 866 861 862 874 886 889 888 885 886 893 903 914 926 937 949 963 976 988 1000 1016 1032 1044 1054 1060 1062 1062 1061 1057 1055 1057 1061 1068 1076 1080 1079 1070 1059 1053 1049 1045 1042 1039 1037 1038 1038 1036 1031 1022 1014 1010 1009 1013 1015 1007 995 982 969 960 951 938 926 920 920 927 934 932 925 912 901 898 899 906 915 923 930 935 939 943 944 940 935 938 945 958 974 988 1003 1024 1045 1059 1070 1081 1090 1096 1100 1099 1099 1103 1111 1120 1130 1138 1145 1151 1154 1154 1150 1142 1136 1139 1144 1146 1148 1154 1159 1162 1163 1162 1162 1170 1176 1173 1168 1160 1155 1155 1158 1165 1175 1184 1189 1183 1174
1577 1594 1612 1629 1641 1652 1668 1683 1689 1688 1674 1657 1647 1645 1653 1666 1673 1675 1671 1672 1688 1717 1760 1805 1838 1859 1860 1851 1849 1853 1871 1890 1897 1897 1891 1882 1871 1855 1836 1811 1776 1738 1704 1674 1650 1630 1612 1595 1579 1558 1528 1506 1508 1522 1541 1560 1576 1594 1625 1656 1672 1677 1665 1645 1627 1614 1606 1595 1572 1546 1520 1501 1492 1486 1476 1465 1457 1452 1453 1455 1450 1442 1433 1424 1418 1410 1395 1379 1370 1362 1356 1351 1348 1347 1355 1361 1355 1342 1322 1297 1271 1242 1208 1175 1150 1131 1120 1114 1108 1102 1094 1084 1073 1063 1053 1037 1012 982 945 914 896 884 874 867 863 865 876 888 891 890 888 890 900 913 927 940 951 963 974 983 990 997 1006 1018 1030 1041 1048 1052 1055 1056 1056 1057 1060 1063 1070 1077 1082 1082 1075 1066 1060 1056 1052 1048 1042 1036 1034 1032 1031 1027 1020 1014 1013 1014 1020 1022 1014 1004 994 987 984 980 971 962 957 957 962 966 960 949 933 920 917 919 927 939 949 958 966 970 972 973 968 963 964 969 981 995 1007 1019 1037 1053 1064 1073 1081 1088 1093 1096 1095 1093 1094 1097 1102 1110 1117 1124 1131 1136 1137 1135 1128 1124 1127 1132 1136 1141 1148 1155 1160 1162 1161 1162 1168 1173 1170 1164 1157 1151 1151 1155 1164 1176 1189 1199 1198 1193
1598 1613 1623 1630 1635 1639 1645 1650 1654 1656 1656 1655 1652 1650 1655 1663 1670 1673 1669 1669 1682 1706 1743 1782 1814 1838 1846 1846 1848 1850 1854 1858 1862 1866 1877 1885 1880 1863 1831 1791 1752 1717 1694 1677 1657 1637 1614 1591 1573 1554 1529 1513 1517 1532 1556 1581 1598 1613 1631 1648 1663 1673 1678 1673 1660 1645 1633 1617 1596 1573 1552 1536 1528 1521 1507 1492 1482 1479 1484 1489 1484 1476 1465 1453 1442 1431 1415 1401 1391 1382 1373 1367 1365 1367 1375 1379 1372 1358 1334 1302 1270 1237 1201 1168 1143 1123 1114 1111 1107 1103 1099 1091 1081 1069 1055 1034 1008 978 942 912 895 883 877 874 871 873 883 892 895 893 890 892 903 919 936 952 964 976 987 994 997 998 998 1002 1012 1023 1030 1035 1040 1045 1054 1063 1068 1070 1072 1074 1078 1080 1077 1072 1067 1064 1063 1061 1053 1044 1035 1027 1025 1023 1018 1015 1016 1018 1023 1024 1017 1008 1004 1003 1005 1006 1002 995 991 991 994 993 984 970 952 938 934 937 947 962 975 986 994 997 999 999 997 994 994 997 1006 1018 1028 1037 1046 1054 1061 1067 1073 1078 1082 1085 1087 1088 1087 1086 1086 1087 1093 1101 1109 1116 1118 1119 1116 1114 1119 1125 1133 1143 1153 1161 1164 1164 1164 1164 1167 1167 1163 1157 1149 1144 1145 1148 1156 1169 1185 1200 1211 1217
1613 1626 1629 1627 1628 1628 1625 1623 1624 1629 1644 1657 1659 1658 1658 1662 1668 1671 1669 1669 1681 1703 1734 1769 1800 1827 1842 1849 1854 1854 1844 1835 1834 1843 1869 1893 1894 1875 1829 1774 1732 1700 1688 1682 1666 1644 1616 1588 1568 1550 1532 1522 1526 1543 1573 1603 1621 1633 1637 1641 1654 1669 1690 1701 1692 1675 1658 1638 1616 1596 1578 1565 1558 1550 1530 1511 1501 1498 1507 1516 1512 1503 1491 1478 1464 1451 1437 1424 1415 1404 1391 1382 1380 1383 1390 1392 1383 1368 1339 1303 1268 1232 1196 1165 1140 1119 1112 1111 1109 1106 1104 1099 1088 1076 1057 1032 1005 974 940 911 894 884 881 881 879 880 888 897 898 897 892 892 904 921 941 959 972 984 995 1002 1003 1001 993 990 999 1010 1017 1022 1028 1036 1053 1070 1077 1078 1074 1071 1074 1078 1079 1077 1074 1072 1074 1074 1067 1055 1040 1027 1024 1022 1020 1019 1021 1024 1028 1028 1020 1014 1014 1019 1024 1028 1027 1022 1019 1019 1020 1016 1005 990 970 956 952 955 967 984 999 1010 1017 1020 1020 1021 1020 1020 1019 1020 1027 1036 1044 1049 1050 1050 1053 1057 1061 1064 1067 1070 1077 1082 1081 1077 1071 1068 1072 1080 1090 1098 1101 1103 1103 1105 1110 1118 1130 1145 1157 1165 1167 1165 1165 1165 1164 1161 1156 1150 1142 1138 1139 1142 1149 1161 1178 1197 1219 1235
1611 1623 1624 1620 1620 1619 1614 1610 1611 1617 1634 1651 1654 1653 1653 1655 1661 1665 1663 1664 1677 1698 1729 1763 1794 1821 1839 1848 1855 1855 1843 1830 1830 1841 1871 1900 1903 1885 1836 1778 1735 1705 1696 1693 1677 1656 1626 1596 1576 1558 1541 1533 1538 1554 1586 1617 1637 1648 1648 1649 1661 1679 1704 1720 1713 1696 1677 1656 1635 1615 1598 1586 1580 1571 1550 1529 1519 1517 1527 1537 1533 1524 1512 1498 1484 1469 1455 1443 1433 1422 1407 1396 1394 1397 1402 1403 1393 1377 1347 1309 1272 1235 1199 1168 1142 1121 1114 1114 1111 1109 1107 1102 1091 1078 1058 1032 1004 974 940 911 894 884 882 883 881 882 890 897 899 897 892 891 903 921 942 961 974 986 997 1005 1006 1002 993 989 997 1009 1016 1021 1027 1036 1056 1074 1082 1083 1078 1074 1077 1081 1083 1083 1079 1077 1081 1082 1075 1063 1046 1032 1029 1028 1027 1027 1030 1034 1038 1038 1031 1026 1028 1035 1041 1046 1046 1043 1040 1040 1041 1037 1025 1010 990 976 972 975 988 1005 1019 1031 1037 1039 1038 1038 1037 1036 1034 1033 1038 1045 1051 1054 1051 1047 1048 1050 1052 1054 1056 1059 1066 1071 1070 1065 1058 1053 1058 1065 1075 1084 1088 1089 1091 1094 1099 1108 1122 1138 1151 1161 1162 1161 1161 1162 1161 1157 1153 1147 1141 1137 1138 1142 1149 1161 1178 1198 1223 1241
1600 1612 1614 1611 1611 1610 1606 1603 1604 1609 1623 1637 1640 1640 1642 1647 1653 1658 1657 1660 1673 1694 1722 1754 1785 1813 1832 1843 1851 1853 1846 1840 1842 1853 1879 1903 1907 1890 1844 1790 1749 1720 1712 1710 1695 1673 1641 1609 1588 1570 1555 1547 1552 1568 1600 1632 1651 1663 1662 1663 1676 1694 1720 1736 1729 1713 1693 1670 1649 1629 1612 1600 1594 1587 1571 1554 1545 1542 1549 1555 1550 1541 1531 1519 1504 1490 1475 1462 1451 1439 1424 1413 1410 1412 1414 1412 1401 1385 1355 1318 1281 1243 1205 1173 1146 1125 1117 1117 1114 1111 1109 1103 1093 1079 1059 1034 1006 975 941 912 895 885 881 881 879 880 887 895 896 895 890 892 904 921 940 957 970 982 994 1002 1004 1001 993 989 998 1010 1020 1027 1033 1042 1060 1077 1084 1085 1082 1079 1082 1086 1088 1088 1084 1083 1086 1088 1081 1070 1053 1040 1037 1038 1038 1039 1044 1048 1052 1053 1047 1042 1043 1049 1056 1061 1062 1060 1058 1058 1058 1054 1043 1028 1010 997 994 997 1009 1024 1038 1048 1054 1054 1053 1051 1050 1048 1045 1043 1045 1050 1054 1055 1050 1044 1043 1044 1046 1047 1047 1049 1054 1058 1056 1051 1045 1042 1047 1054 1062 1068 1072 1074 1076 1080 1086 1095 1110 1128 1142 1152 1155 1154 1155 1157 1157 1155 1152 1147 1141 1138 1140 1144 1151 1163 1180 1200 1223 1241
1573 1585 1593 1596 1597 1597 1597 1599 1601 1603 1606 1609 1610 1613 1624 1638 1647 1652 1655 1661 1675 1695 1716 1740 1768 1796 1817 1831 1842 1851 1862 1874 1882 1889 1899 1905 1903 1889 1854 1810 1773 1745 1741 1743 1729 1704 1665 1625 1602 1586 1575 1571 1575 1589 1621 1653 1673 1683 1679 1677 1689 1707 1732 1747 1740 1723 1698 1671 1647 1627 1609 1597 1591 1589 1590 1590 1585 1579 1571 1562 1554 1547 1545 1541 1529 1514 1498 1483 1471 1459 1445 1435 1433 1430 1423 1412 1398 1383 1360 1330 1294 1255 1215 1179 1152 1130 1123 1121 1117 1112 1109 1102 1091 1078 1060 1037 1010 981 947 918 901 889 880 875 873 874 880 886 887 887 889 894 906 919 931 941 952 965 980 990 994 993 989 988 998 1012 1026 1039 1049 1057 1066 1075 1080 1083 1084 1086 1089 1092 1094 1092 1089 1088 1092 1095 1090 1080 1065 1053 1051 1053 1057 1063 1068 1072 1075 1074 1069 1063 1059 1059 1063 1068 1070 1070 1070 1069 1067 1061 1052 1041 1030 1023 1022 1023 1030 1040 1051 1059 1062 1061 1057 1056 1057 1058 1054 1049 1048 1049 1051 1050 1043 1035 1032 1033 1036 1040 1040 1040 1040 1040 1037 1035 1034 1037 1042 1047 1048 1048 1049 1052 1057 1063 1070 1080 1097 1117 1131 1142 1145 1146 1149 1152 1154 1155 1154 1151 1145 1141 1144 1148 1155 1167 1183 1200 1218 1230
1541 1554 1567 1576 1579 1580 1585 1591 1595 1595 1588 1581 1582 1591 1612 1635 1646 1653 1659 1668 1684 1702 1715 1731 1757 1785 1807 1825 1841 1859 1889 1919 1933 1937 1930 1918 1911 1899 1873 1839 1806 1781 1781 1786 1771 1744 1696 1649 1624 1609 1602 1601 1602 1612 1641 1672 1691 1699 1692 1686 1695 1712 1735 1750 1743 1726 1695 1662 1636 1614 1595 1582 1577 1581 1600 1617 1619 1611 1588 1565 1552 1548 1555 1560 1551 1536 1518 1502 1489 1477 1464 1455 1451 1445 1428 1406 1390 1376 1361 1339 1304 1264 1222 1184 1156 1135 1127 1125 1118 1110 1104 1096 1085 1072 1056 1036 1014 988 955 926 908 895 881 872 869 871 876 881 882 883 890 899 907 914 917 920 929 943 960 975 982 985 984 987 998 1014 1034 1054 1067 1076 1078 1079 1083 1087 1092 1097 1100 1101 1100 1099 1095 1094 1099 1104 1102 1096 1084 1073 1071 1074 1082 1091 1096 1098 1099 1097 1092 1085 1075 1067 1067 1069 1072 1073 1074 1073 1069 1064 1058 1052 1050 1050 1051 1051 1053 1057 1063 1067 1066 1062 1057 1055 1059 1062 1057 1050 1045 1043 1043 1040 1030 1020 1017 1018 1024 1030 1030 1029 1025 1022 1019 1020 1026 1034 1041 1044 1038 1030 1030 1034 1041 1049 1057 1068 1087 1107 1122 1132 1136 1138 1142 1146 1151 1155 1157 1158 1153 1150 1152 1157 1164 1173 1186 1199 1211 1218
1518 1530 1544 1554 1558 1561 1567 1575 1581 1582 1575 1569 1575 1589 1615 1642 1654 1662 1669 1680 1696 1713 1725 1738 1762 1789 1813 1835 1855 1880 1919 1956 1973 1978 1966 1950 1941 1928 1905 1875 1843 1820 1822 1827 1812 1783 1732 1682 1657 1642 1634 1630 1625 1629 1653 1681 1698 1704 1694 1685 1692 1707 1730 1744 1738 1721 1689 1652 1624 1601 1580 1567 1564 1570 1595 1621 1627 1620 1595 1569 1556 1553 1563 1571 1563 1549 1531 1514 1501 1487 1474 1463 1458 1449 1428 1403 1385 1371 1358 1338 1304 1265 1222 1185 1158 1137 1129 1125 1115 1104 1095 1085 1073 1060 1047 1031 1013 991 961 933 915 901 887 877 875 878 884 889 889 891 896 902 906 907 903 902 911 926 945 963 974 981 985 990 1001 1018 1041 1065 1081 1092 1095 1095 1099 1104 1110 1114 1114 1112 1110 1107 1103 1103 1110 1118 1120 1117 1108 1099 1096 1099 1107 1115 1118 1118 1117 1114 1110 1103 1090 1078 1073 1071 1071 1072 1073 1073 1071 1069 1068 1069 1072 1076 1077 1077 1076 1076 1077 1077 1072 1065 1059 1056 1059 1061 1054 1044 1037 1033 1030 1026 1015 1004 1001 1003 1010 1016 1017 1014 1011 1008 1008 1011 1021 1031 1039 1041 1033 1023 1024 1028 1036 1045 1052 1063 1081 1101 1114 1123 1127 1130 1134 1140 1147 1154 1161 1165 1163 1161 1165 1170 1175 1182 1192 1201 1208 1212
1500 1511 1523 1532 1537 1541 1549 1560 1567 1571 1569 1570 1582 1601 1629 1656 1668 1676 1685 1696 1712 1729 1741 1754 1777 1803 1827 1850 1876 1905 1948 1988 2007 2013 2002 1985 1975 1962 1938 1910 1881 1858 1858 1860 1844 1815 1767 1721 1696 1681 1673 1665 1654 1650 1664 1685 1698 1703 1693 1684 1689 1702 1721 1734 1728 1711 1678 1640 1610 1585 1567 1557 1555 1561 1584 1607 1616 1614 1597 1576 1565 1562 1570 1577 1569 1555 1537 1518 1502 1488 1473 1462 1455 1445 1425 1401 1383 1368 1355 1334 1301 1262 1221 1184 1159 1139 1129 1122 1108 1094 1084 1073 1061 1048 1037 1025 1011 994 968 942 924 910 897 889 888 892 898 902 903 904 906 907 904 900 892 890 899 914 934 955 970 981 988 996 1008 1025 1048 1072 1091 1106 1113 1117 1122 1128 1133 1136 1133 1128 1124 1120 1116 1115 1122 1132 1137 1139 1134 1127 1125 1125 1130 1133 1133 1131 1130 1128 1124 1118 1105 1091 1082 1076 1071 1069 1069 1070 1072 1075 1080 1086 1093 1098 1099 1099 1098 1096 1093 1089 1080 1070 1063 1058 1058 1056 1047 1035 1025 1019 1014 1009 999 990 988 990 997 1003 1003 1001 998 996 998 1004 1015 1026 1034 1037 1030 1022 1023 1028 1036 1045 1052 1061 1077 1093 1104 1112 1116 1120 1125 1132 1141 1152 1162 1171 1173 1175 1180 1185 1190 1195 1200 1205 1209 1210
1489 1499 1506 1511 1515 1521 1534 1549 1559 1567 1576 1590 1609 1630 1655 1675 1687 1695 1705 1718 1734 1751 1765 1780 1801 1825 1846 1870 1897 1930 1975 2015 2035 2042 2030 2012 2001 1988 1966 1940 1914 1890 1881 1873 1854 1828 1793 1761 1740 1726 1720 1713 1698 1685 1682 1687 1693 1698 1697 1696 1703 1711 1721 1725 1718 1701 1665 1623 1591 1569 1562 1563 1566 1568 1570 1576 1583 1589 1595 1596 1590 1583 1582 1579 1570 1555 1530 1504 1487 1472 1459 1449 1440 1432 1420 1405 1388 1372 1356 1333 1300 1263 1221 1185 1161 1142 1126 1111 1095 1080 1070 1062 1050 1038 1028 1020 1010 997 976 953 935 922 913 911 912 916 920 922 922 921 919 915 907 898 887 884 893 909 929 950 967 983 996 1009 1023 1038 1055 1074 1094 1114 1130 1142 1150 1156 1162 1163 1159 1152 1146 1142 1138 1136 1137 1142 1148 1154 1158 1158 1157 1154 1148 1141 1136 1133 1134 1136 1133 1129 1121 1109 1098 1087 1075 1067 1066 1068 1074 1083 1094 1103 1109 1111 1112 1113 1116 1118 1113 1105 1093 1082 1072 1065 1058 1049 1036 1022 1009 1000 994 989 985 984 984 986 991 995 994 992 986 982 985 993 1005 1016 1024 1028 1026 1023 1025 1030 1040 1050 1057 1064 1070 1076 1084 1091 1099 1106 1113 1121 1133 1147 1161 1174 1184 1191 1198 1204 1210 1214 1217 1218 1216 1213
1484 1492 1494 1494 1498 1506 1523 1543 1557 1569 1589 1614 1638 1661 1681 1695 1705 1715 1726 1739 1755 1772 1787 1802 1822 1843 1861 1882 1910 1944 1989 2029 2050 2057 2044 2025 2014 2003 1984 1960 1936 1913 1895 1877 1856 1834 1813 1795 1779 1766 1763 1758 1740 1720 1701 1690 1690 1694 1701 1710 1716 1720 1721 1717 1708 1691 1654 1609 1576 1557 1562 1576 1583 1580 1562 1547 1551 1566 1595 1617 1616 1607 1595 1582 1570 1553 1521 1488 1468 1453 1441 1433 1424 1417 1415 1409 1394 1376 1357 1332 1299 1263 1222 1187 1165 1146 1125 1104 1086 1071 1065 1058 1047 1035 1027 1021 1013 1001 984 963 946 933 929 931 934 937 938 938 937 936 930 921 910 900 888 885 895 910 929 950 969 987 1006 1023 1039 1052 1062 1076 1096 1119 1143 1163 1174 1181 1187 1189 1184 1176 1170 1165 1162 1158 1154 1153 1158 1167 1178 1184 1184 1177 1161 1144 1135 1132 1135 1140 1139 1137 1133 1126 1115 1101 1083 1069 1067 1070 1080 1094 1108 1118 1122 1120 1120 1122 1131 1137 1132 1121 1108 1095 1084 1074 1060 1044 1028 1012 996 984 976 972 975 981 983 985 987 989 989 986 977 970 974 983 995 1006 1013 1018 1021 1023 1027 1032 1042 1054 1060 1063 1060 1057 1061 1069 1080 1092 1100 1109 1123 1141 1157 1173 1188 1201 1210 1218 1224 1228 1230 1230 1223 1217
1478 1485 1486 1485 1489 1499 1519 1542 1558 1574 1599 1628 1655 1679 1698 1711 1721 1731 1742 1755 1770 1786 1799 1813 1831 1849 1865 1883 1909 1942 1986 2026 2047 2056 2044 2025 2016 2007 1990 1969 1947 1926 1907 1889 1868 1849 1833 1819 1804 1792 1791 1785 1766 1741 1716 1698 1693 1694 1700 1709 1714 1716 1714 1708 1700 1684 1646 1601 1569 1552 1561 1580 1588 1585 1562 1543 1547 1564 1600 1628 1629 1620 1604 1588 1575 1557 1522 1486 1463 1447 1435 1426 1416 1408 1408 1405 1389 1371 1351 1325 1294 1259 1219 1186 1167 1151 1131 1110 1092 1079 1073 1067 1055 1043 1035 1029 1021 1009 992 971 953 940 937 940 942 945 945 944 943 941 935 925 914 903 891 888 899 914 934 955 974 993 1013 1032 1048 1061 1070 1082 1103 1127 1154 1177 1189 1198 1204 1206 1202 1195 1189 1185 1181 1177 1171 1168 1173 1181 1192 1200 1198 1189 1169 1148 1138 1135 1139 1145 1145 1143 1141 1136 1125 1111 1091 1077 1074 1078 1089 1104 1119 1129 1132 1130 1129 1132 1142 1149 1143 1132 1117 1103 1091 1079 1063 1044 1026 1008 991 977 968 963 968 975 977 979 981 982 983 981 971 965 969 979 991 1002 1009 1014 1018 1021 1024 1029 1039 1050 1055 1057 1051 1045 1048 1055 1068 1080 1090 1099 1114 1133 1150 1167 1185 1200 1210 1218 1224 1229 1232 1231 1224 1216
1472 1479 1480 1480 1485 1496 1518 1543 1562 1580 1605 1635 1662 1688 1709 1724 1735 1745 1755 1767 1781 1795 1807 1819 1834 1849 1861 1877 1902 1932 1974 2013 2035 2045 2037 2023 2017 2010 1996 1977 1958 1939 1920 1901 1882 1864 1851 1839 1826 1814 1808 1799 1777 1752 1728 1710 1702 1697 1696 1698 1700 1701 1699 1694 1687 1673 1639 1598 1568 1551 1558 1576 1585 1584 1565 1549 1554 1572 1607 1634 1635 1626 1611 1595 1581 1562 1526 1490 1466 1448 1434 1424 1413 1404 1401 1396 1380 1361 1341 1317 1287 1254 1217 1187 1171 1158 1140 1122 1106 1093 1087 1081 1068 1055 1046 1038 1028 1016 998 977 957 943 939 941 943 945 945 944 943 941 935 925 914 904 894 892 902 919 940 962 982 1002 1022 1040 1056 1069 1080 1094 1115 1140 1165 1186 1199 1208 1216 1219 1215 1209 1204 1201 1198 1194 1189 1187 1191 1198 1207 1212 1208 1198 1178 1157 1146 1141 1143 1147 1147 1146 1145 1140 1131 1118 1100 1088 1086 1090 1100 1114 1128 1139 1142 1141 1141 1143 1150 1155 1148 1137 1124 1110 1098 1084 1067 1047 1028 1009 990 974 964 958 960 965 967 969 972 976 977 976 969 964 970 979 990 1000 1006 1012 1017 1021 1023 1027 1034 1042 1046 1047 1042 1038 1041 1048 1059 1070 1080 1090 1105 1123 1140 1158 1177 1194 1204 1213 1219 1223 1226 1225 1219 1213
1470 1477 1479 1481 1487 1500 1524 1551 1572 1591 1611 1634 1660 1686 1713 1735 1748 1757 1763 1770 1782 1794 1805 1816 1829 1841 1851 1863 1885 1913 1950 1984 2005 2019 2023 2023 2023 2020 2008 1993 1976 1957 1932 1906 1884 1867 1861 1857 1846 1831 1811 1786 1762 1741 1732 1727 1719 1707 1687 1670 1666 1666 1666 1664 1659 1649 1628 1601 1577 1560 1558 1565 1573 1576 1569 1564 1572 1588 1615 1635 1635 1626 1614 1599 1584 1563 1531 1498 1474 1454 1439 1426 1414 1402 1392 1380 1362 1343 1327 1307 1281 1253 1221 1195 1182 1172 1158 1143 1128 1115 1107 1099 1086 1070 1056 1042 1030 1016 997 975 956 940 934 934 934 935 936 937 936 934 927 917 908 900 893 893 905 923 949 976 998 1018 1035 1052 1067 1082 1098 1117 1139 1160 1176 1188 1199 1209 1219 1224 1222 1218 1216 1216 1213 1211 1210 1213 1217 1221 1225 1225 1218 1208 1190 1171 1159 1151 1144 1139 1138 1137 1139 1138 1132 1123 1114 1108 1109 1112 1118 1127 1138 1149 1157 1160 1161 1160 1158 1152 1144 1135 1129 1122 1111 1096 1078 1058 1037 1016 993 975 963 954 951 951 951 954 961 968 971 972 970 969 976 984 990 994 1000 1006 1016 1024 1028 1029 1029 1028 1029 1032 1035 1040 1045 1051 1056 1062 1070 1080 1093 1109 1125 1144 1166 1186 1198 1206 1208 1208 1210 1211 1210 1208
1473 1480 1483 1487 1495 1509 1535 1564 1588 1607 1621 1636 1656 1681 1713 1740 1754 1762 1765 1768 1776 1786 1796 1806 1817 1827 1832 1842 1861 1886 1918 1948 1968 1984 2001 2015 2023 2024 2017 2004 1991 1971 1939 1904 1877 1859 1858 1860 1852 1834 1800 1764 1740 1727 1735 1744 1738 1718 1680 1645 1634 1633 1635 1637 1633 1627 1620 1610 1594 1579 1569 1567 1573 1580 1584 1589 1599 1612 1630 1643 1640 1633 1622 1608 1588 1564 1534 1505 1480 1459 1442 1428 1413 1398 1381 1362 1341 1324 1311 1299 1280 1258 1233 1212 1202 1194 1183 1170 1156 1142 1132 1121 1106 1089 1069 1049 1032 1014 994 972 952 935 926 923 920 919 921 923 922 920 913 905 899 895 892 896 909 928 959 991 1015 1035 1051 1066 1080 1097 1118 1141 1163 1179 1184 1186 1195 1207 1218 1226 1227 1226 1228 1231 1229 1228 1232 1238 1242 1244 1242 1237 1228 1217 1201 1184 1170 1157 1140 1127 1123 1124 1129 1134 1133 1131 1132 1134 1136 1138 1139 1143 1150 1159 1169 1177 1179 1176 1163 1149 1140 1134 1136 1137 1126 1111 1093 1071 1049 1026 1000 977 964 954 946 940 938 940 950 961 966 969 970 973 980 987 987 986 990 998 1012 1025 1031 1031 1023 1015 1013 1017 1029 1043 1051 1056 1056 1057 1063 1073 1083 1096 1111 1130 1155 1178 1191 1198 1196 1193 1194 1196 1199 1201
1480 1486 1490 1495 1504 1520 1548 1578 1603 1623 1635 1646 1662 1683 1712 1739 1753 1760 1761 1761 1767 1775 1782 1790 1799 1807 1810 1817 1834 1857 1887 1915 1934 1952 1973 1994 2007 2013 2011 2002 1991 1973 1938 1899 1868 1846 1843 1846 1839 1821 1787 1752 1733 1728 1744 1758 1751 1728 1684 1642 1627 1624 1627 1629 1626 1622 1622 1620 1613 1604 1596 1594 1600 1609 1616 1623 1632 1642 1657 1667 1664 1656 1644 1626 1600 1571 1537 1506 1481 1457 1439 1423 1406 1389 1369 1347 1326 1308 1299 1293 1283 1269 1251 1234 1226 1220 1210 1198 1183 1168 1156 1144 1128 1110 1086 1062 1040 1019 995 971 950 932 922 915 909 905 905 906 905 903 898 893 891 892 894 900 913 933 966 1000 1026 1047 1064 1078 1093 1110 1131 1154 1173 1187 1187 1186 1195 1207 1221 1231 1235 1238 1243 1247 1246 1245 1250 1256 1259 1258 1254 1246 1236 1224 1207 1188 1171 1153 1132 1115 1111 1113 1121 1131 1137 1142 1150 1156 1160 1161 1160 1159 1162 1167 1175 1183 1185 1181 1167 1152 1144 1142 1147 1150 1140 1124 1104 1082 1058 1033 1005 981 967 956 945 937 933 934 944 956 962 966 968 971 977 982 980 977 981 988 1004 1019 1027 1028 1019 1009 1006 1010 1024 1040 1049 1055 1054 1054 1060 1069 1079 1090 1104 1122 1147 1170 1184 1191 1188 1184 1185 1187 1192 1195
1490 1496 1499 1505 1515 1532 1560 1590 1616 1636 1648 1657 1669 1684 1707 1729 1742 1749 1751 1753 1757 1762 1766 1772 1779 1785 1787 1792 1807 1829 1858 1886 1906 1923 1944 1965 1983 1994 1997 1992 1982 1966 1934 1894 1859 1833 1824 1824 1817 1801 1774 1749 1739 1740 1754 1765 1756 1733 1694 1657 1642 1636 1634 1632 1628 1626 1628 1631 1631 1631 1632 1636 1645 1654 1661 1666 1673 1681 1693 1702 1698 1689 1673 1648 1616 1580 1544 1512 1485 1461 1440 1421 1402 1383 1362 1340 1318 1300 1292 1290 1286 1282 1271 1259 1253 1248 1239 1226 1210 1194 1181 1167 1150 1131 1105 1077 1051 1025 997 971 948 930 918 909 899 892 890 890 889 887 884 882 885 890 895 902 916 937 969 1005 1032 1055 1072 1086 1101 1118 1138 1159 1175 1186 1187 1187 1197 1210 1225 1238 1245 1250 1257 1261 1260 1259 1263 1269 1270 1267 1260 1250 1238 1226 1208 1187 1166 1145 1122 1106 1101 1104 1114 1129 1141 1153 1165 1174 1178 1180 1178 1175 1174 1174 1179 1183 1185 1182 1171 1159 1155 1154 1160 1162 1151 1134 1113 1087 1061 1035 1008 985 971 960 948 939 933 933 940 950 956 960 963 965 970 973 972 971 975 982 997 1012 1021 1024 1017 1009 1006 1008 1021 1037 1047 1053 1052 1052 1059 1068 1077 1087 1099 1116 1139 1161 1175 1183 1181 1178 1179 1182 1187 1191
1504 1509 1512 1517 1528 1545 1569 1596 1621 1642 1656 1664 1673 1683 1694 1706 1715 1724 1734 1743 1748 1750 1751 1752 1757 1763 1764 1768 1782 1803 1834 1865 1885 1901 1915 1930 1949 1964 1973 1972 1965 1952 1927 1894 1859 1827 1808 1799 1790 1779 1770 1765 1765 1765 1763 1754 1739 1723 1709 1696 1687 1677 1658 1640 1634 1631 1632 1636 1641 1651 1670 1691 1704 1713 1720 1725 1730 1735 1741 1745 1740 1728 1702 1666 1627 1589 1558 1532 1506 1479 1453 1429 1407 1387 1368 1347 1325 1304 1290 1283 1284 1287 1287 1284 1280 1275 1267 1254 1238 1220 1205 1190 1172 1151 1123 1093 1063 1033 1000 969 945 926 913 903 891 882 880 881 880 878 875 874 881 889 895 902 916 936 968 1003 1031 1054 1070 1082 1097 1113 1134 1153 1168 1179 1186 1194 1206 1220 1235 1249 1259 1265 1268 1268 1266 1266 1270 1275 1275 1270 1257 1242 1229 1216 1201 1182 1160 1137 1115 1100 1097 1099 1109 1126 1143 1159 1175 1185 1189 1191 1192 1190 1186 1183 1181 1180 1180 1179 1176 1173 1173 1172 1173 1170 1157 1139 1112 1082 1054 1028 1007 991 978 967 955 945 939 935 936 939 943 948 950 952 956 960 967 974 980 986 995 1005 1013 1019 1019 1016 1015 1016 1025 1037 1047 1053 1052 1050 1056 1065 1074 1083 1094 1109 1130 1150 1163 1172 1174 1173 1176 1179 1186 1192
1515 1520 1522 1527 1537 1553 1574 1597 1620 1642 1657 1666 1674 1679 1681 1683 1689 1699 1717 1733 1739 1741 1738 1736 1740 1744 1745 1749 1762 1784 1817 1851 1872 1886 1893 1902 1920 1938 1950 1954 1949 1938 1922 1896 1862 1828 1801 1783 1773 1767 1774 1786 1794 1793 1772 1744 1724 1715 1726 1740 1737 1723 1688 1656 1646 1643 1642 1645 1652 1669 1705 1741 1759 1769 1776 1781 1785 1788 1790 1788 1782 1768 1732 1686 1642 1604 1580 1561 1536 1507 1475 1446 1422 1402 1384 1365 1343 1319 1295 1282 1284 1291 1300 1304 1301 1296 1289 1277 1260 1240 1223 1206 1187 1166 1137 1105 1073 1040 1002 967 941 922 910 900 887 877 875 877 877 875 871 870 878 888 893 900 913 933 964 997 1026 1049 1063 1074 1088 1105 1125 1145 1158 1171 1185 1200 1215 1229 1244 1259 1270 1276 1275 1270 1267 1267 1271 1276 1276 1269 1252 1231 1217 1205 1194 1177 1154 1131 1111 1099 1096 1098 1107 1124 1143 1162 1179 1190 1194 1197 1200 1200 1196 1190 1182 1177 1176 1177 1181 1186 1189 1188 1184 1174 1160 1141 1109 1074 1044 1020 1005 995 984 973 962 952 944 939 932 929 931 936 939 941 944 950 965 980 988 992 995 1000 1007 1015 1021 1025 1024 1024 1030 1038 1047 1053 1050 1048 1054 1062 1070 1079 1089 1103 1122 1140 1153 1162 1167 1170 1173 1177 1186 1194
1519 1524 1525 1529 1539 1555 1574 1595 1618 1639 1654 1663 1670 1674 1672 1672 1677 1687 1707 1724 1731 1731 1728 1725 1728 1733 1734 1738 1751 1772 1806 1840 1862 1876 1881 1889 1907 1925 1939 1944 1940 1932 1918 1896 1864 1830 1802 1783 1773 1770 1782 1799 1810 1809 1784 1751 1731 1725 1744 1765 1765 1751 1713 1677 1667 1665 1664 1667 1675 1694 1735 1776 1795 1806 1813 1819 1824 1826 1827 1824 1818 1803 1765 1715 1670 1630 1608 1591 1565 1534 1501 1470 1444 1423 1405 1386 1362 1336 1310 1294 1295 1303 1314 1319 1316 1310 1302 1290 1272 1251 1233 1215 1195 1173 1143 1110 1078 1043 1003 967 941 921 909 899 885 874 873 876 876 873 869 868 876 886 891 897 911 931 961 994 1023 1046 1059 1069 1083 1100 1121 1141 1154 1167 1184 1201 1216 1230 1246 1260 1271 1278 1276 1270 1267 1267 1271 1276 1276 1269 1250 1229 1214 1203 1192 1177 1154 1131 1111 1100 1098 1099 1108 1125 1144 1164 1181 1192 1196 1199 1203 1204 1200 1193 1184 1178 1176 1178 1184 1191 1194 1193 1187 1177 1162 1142 1109 1073 1042 1018 1005 997 987 975 964 954 947 940 932 927 929 933 936 938 941 947 964 981 990 993 995 998 1005 1013 1021 1026 1026 1026 1030 1037 1046 1052 1049 1045 1051 1060 1067 1076 1086 1100 1118 1135 1148 1157 1163 1167 1170 1175 1184 1193
1519 1523 1525 1529 1539 1554 1573 1595 1617 1637 1650 1658 1665 1668 1668 1668 1673 1682 1700 1716 1722 1723 1721 1719 1723 1727 1727 1730 1742 1763 1796 1829 1850 1864 1870 1878 1896 1916 1933 1941 1939 1931 1916 1892 1861 1830 1803 1786 1777 1775 1785 1801 1812 1814 1796 1770 1752 1747 1763 1781 1782 1769 1735 1701 1693 1692 1692 1695 1703 1722 1761 1800 1819 1831 1840 1848 1853 1856 1857 1854 1848 1834 1798 1750 1705 1665 1637 1616 1589 1558 1526 1496 1470 1447 1427 1406 1382 1355 1328 1312 1312 1318 1326 1329 1325 1318 1310 1298 1279 1257 1239 1221 1201 1178 1148 1114 1081 1046 1007 971 945 925 910 898 883 873 871 874 874 871 867 867 875 885 891 898 911 931 961 994 1022 1045 1059 1069 1083 1100 1121 1140 1153 1166 1183 1201 1216 1229 1243 1257 1267 1274 1273 1269 1266 1266 1271 1276 1276 1269 1251 1229 1215 1204 1194 1179 1157 1135 1115 1104 1102 1104 1113 1129 1148 1167 1183 1193 1198 1200 1203 1202 1198 1192 1184 1179 1178 1179 1184 1190 1192 1191 1185 1175 1160 1141 1111 1077 1047 1023 1009 999 988 977 966 956 949 942 935 931 933 937 940 942 945 951 966 982 989 993 995 998 1005 1013 1020 1024 1024 1023 1026 1032 1040 1046 1044 1042 1048 1057 1066 1075 1086 1099 1117 1134 1146 1155 1161 1165 1168 1172 1181 1189
1513 1517 1521 1526 1536 1551 1572 1597 1619 1637 1647 1651 1657 1662 1665 1669 1675 1683 1697 1710 1716 1719 1722 1726 1731 1734 1730 1728 1738 1755 1783 1812 1833 1847 1854 1862 1880 1901 1928 1947 1949 1939 1916 1883 1853 1824 1801 1785 1778 1775 1777 1786 1794 1802 1806 1803 1793 1785 1788 1795 1794 1785 1759 1734 1729 1729 1729 1731 1738 1751 1778 1805 1822 1835 1851 1864 1871 1874 1875 1872 1866 1855 1830 1794 1754 1712 1670 1632 1600 1572 1549 1528 1503 1478 1453 1428 1401 1374 1349 1334 1332 1334 1333 1328 1321 1314 1307 1296 1277 1257 1242 1226 1205 1182 1153 1121 1088 1054 1019 988 962 940 917 897 881 871 870 873 873 870 867 867 875 885 894 905 919 939 967 999 1027 1050 1064 1075 1089 1105 1123 1140 1153 1167 1185 1204 1220 1232 1239 1246 1254 1262 1266 1267 1266 1266 1272 1278 1277 1270 1251 1229 1215 1205 1198 1187 1168 1147 1129 1118 1116 1118 1127 1142 1158 1173 1186 1193 1197 1198 1194 1188 1184 1180 1179 1179 1179 1179 1179 1179 1179 1177 1171 1161 1147 1130 1110 1086 1061 1037 1018 1004 991 980 970 961 954 949 946 945 948 952 956 959 962 966 975 984 990 994 997 1001 1008 1015 1020 1023 1022 1020 1018 1019 1024 1030 1033 1036 1043 1053 1066 1080 1093 1106 1121 1136 1147 1156 1162 1165 1167 1170 1175 1180
1505 1510 1515 1521 1531 1545 1569 1595 1617 1634 1640 1642 1648 1656 1664 1671 1678 1685 1696 1706 1713 1720 1729 1738 1745 1747 1739 1731 1736 1749 1771 1796 1815 1829 1836 1844 1860 1883 1918 1947 1952 1942 1910 1871 1842 1818 1799 1786 1781 1776 1771 1771 1778 1791 1816 1836 1833 1824 1816 1811 1810 1807 1791 1775 1773 1774 1773 1772 1774 1779 1790 1804 1817 1832 1852 1870 1879 1883 1883 1880 1874 1866 1855 1834 1803 1763 1707 1655 1619 1593 1580 1568 1543 1514 1484 1454 1425 1397 1374 1358 1352 1348 1335 1321 1311 1304 1298 1289 1272 1253 1241 1229 1208 1185 1157 1127 1094 1062 1032 1005 981 956 926 898 881 872 872 875 875 873 870 870 876 885 897 911 926 945 972 1002 1029 1053 1068 1079 1093 1109 1124 1139 1153 1168 1188 1209 1225 1235 1236 1235 1241 1249 1258 1264 1264 1265 1271 1278 1277 1269 1249 1227 1212 1203 1200 1195 1180 1163 1147 1137 1135 1137 1145 1156 1167 1176 1182 1185 1188 1187 1178 1168 1165 1167 1172 1178 1180 1179 1173 1166 1162 1157 1150 1140 1127 1114 1104 1093 1073 1052 1029 1010 997 986 976 969 963 959 960 964 967 971 976 979 982 985 987 991 995 999 1003 1008 1014 1019 1022 1023 1022 1019 1012 1006 1008 1013 1020 1027 1036 1046 1063 1083 1099 1115 1128 1140 1150 1159 1164 1166 1167 1168 1170 1172
1501 1505 1510 1516 1524 1537 1560 1587 1608 1624 1629 1631 1640 1649 1660 1669 1675 1682 1693 1704 1714 1724 1736 1748 1755 1758 1747 1735 1735 1743 1761 1782 1800 1814 1821 1828 1842 1863 1899 1930 1937 1927 1896 1859 1834 1816 1801 1791 1787 1783 1777 1775 1781 1796 1828 1855 1856 1849 1841 1837 1840 1842 1832 1820 1819 1821 1818 1812 1807 1803 1805 1813 1823 1836 1856 1875 1884 1887 1888 1885 1880 1874 1869 1858 1837 1804 1751 1697 1661 1635 1624 1612 1585 1552 1518 1485 1455 1426 1400 1380 1368 1356 1336 1316 1305 1297 1292 1284 1268 1251 1241 1230 1209 1185 1158 1128 1096 1064 1036 1011 987 961 929 901 884 876 878 881 881 879 875 873 876 883 894 908 923 942 968 998 1025 1049 1065 1076 1090 1105 1121 1136 1151 1168 1190 1212 1228 1238 1237 1234 1238 1245 1254 1261 1261 1262 1269 1275 1274 1265 1244 1221 1206 1197 1197 1196 1186 1174 1162 1154 1152 1154 1159 1165 1168 1169 1168 1168 1170 1169 1160 1151 1152 1158 1169 1177 1180 1178 1169 1159 1151 1142 1133 1123 1110 1099 1094 1089 1076 1058 1038 1019 1006 995 986 980 975 972 975 979 982 986 990 993 996 999 1000 1001 1005 1009 1013 1017 1021 1025 1027 1027 1026 1023 1013 1004 1003 1005 1010 1018 1026 1037 1056 1079 1099 1117 1132 1144 1154 1163 1167 1167 1167 1166 1166 1166
1498 1502 1506 1510 1517 1528 1550 1575 1595 1610 1616 1619 1630 1642 1654 1664 1670 1676 1687 1700 1712 1725 1740 1753 1761 1764 1754 1741 1738 1741 1752 1769 1786 1800 1809 1816 1829 1847 1877 1903 1908 1901 1875 1844 1826 1813 1804 1799 1796 1793 1789 1789 1796 1811 1841 1866 1870 1867 1866 1869 1878 1885 1877 1867 1867 1870 1866 1856 1843 1831 1826 1829 1836 1846 1865 1883 1891 1893 1892 1889 1883 1878 1874 1869 1858 1835 1793 1746 1711 1685 1673 1659 1628 1592 1553 1515 1483 1452 1424 1399 1380 1361 1337 1314 1300 1292 1288 1282 1268 1253 1242 1230 1208 1183 1154 1123 1091 1060 1033 1008 984 959 931 905 891 884 884 886 885 883 879 875 875 880 888 901 915 933 958 987 1015 1039 1056 1068 1082 1098 1113 1129 1146 1165 1188 1211 1228 1238 1238 1236 1239 1245 1252 1257 1257 1258 1263 1267 1265 1256 1235 1213 1198 1190 1191 1192 1187 1180 1172 1166 1165 1167 1169 1169 1164 1157 1150 1146 1147 1147 1140 1136 1142 1152 1165 1175 1178 1176 1166 1154 1142 1130 1119 1108 1096 1086 1084 1082 1073 1061 1045 1028 1015 1004 997 991 987 985 987 990 993 996 999 1002 1005 1008 1009 1012 1015 1019 1022 1025 1028 1031 1033 1033 1033 1030 1020 1009 1004 1003 1006 1012 1020 1030 1050 1074 1097 1118 1135 1147 1157 1165 1169 1170 1168 1165 1163 1163
1499 1502 1502 1503 1508 1518 1539 1563 1582 1596 1601 1605 1617 1631 1644 1654 1660 1665 1675 1687 1701 1716 1734 1749 1757 1762 1761 1756 1752 1749 1749 1755 1769 1785 1801 1817 1831 1844 1854 1861 1862 1857 1843 1826 1814 1807 1806 1809 1810 1809 1810 1815 1825 1838 1856 1870 1873 1877 1888 1905 1922 1932 1923 1910 1911 1915 1915 1905 1886 1868 1858 1857 1861 1868 1885 1902 1908 1908 1903 1895 1889 1882 1872 1863 1858 1848 1826 1797 1767 1740 1725 1708 1675 1633 1582 1533 1497 1466 1438 1413 1388 1365 1338 1314 1299 1290 1291 1291 1279 1262 1248 1230 1206 1179 1144 1107 1074 1044 1018 994 971 949 929 912 901 893 887 883 880 878 874 871 870 871 878 889 903 920 941 967 994 1020 1040 1055 1070 1085 1099 1115 1133 1153 1179 1203 1220 1233 1239 1242 1246 1250 1252 1253 1253 1252 1252 1250 1246 1237 1222 1204 1191 1181 1179 1180 1178 1175 1172 1170 1170 1171 1172 1167 1156 1143 1130 1122 1122 1123 1122 1125 1135 1148 1162 1172 1174 1173 1164 1151 1138 1124 1110 1098 1088 1079 1075 1073 1068 1060 1046 1031 1019 1009 1003 999 995 993 993 993 994 996 999 1002 1005 1008 1012 1017 1021 1025 1027 1029 1031 1034 1038 1041 1042 1039 1029 1017 1010 1007 1007 1012 1020 1030 1048 1071 1096 1119 1134 1145 1154 1162 1170 1174 1172 1168 1164 1163
1502 1503 1501 1499 1502 1512 1531 1554 1572 1585 1590 1594 1606 1620 1633 1644 1649 1654 1661 1672 1686 1702 1722 1738 1747 1754 1761 1765 1762 1755 1745 1741 1753 1771 1795 1818 1835 1842 1835 1824 1821 1819 1816 1810 1804 1800 1808 1818 1821 1822 1828 1838 1851 1863 1870 1874 1878 1888 1912 1942 1965 1978 1967 1952 1953 1959 1962 1955 1933 1910 1897 1893 1893 1897 1912 1927 1931 1929 1918 1906 1898 1889 1871 1856 1853 1852 1849 1838 1812 1786 1769 1749 1714 1669 1606 1547 1507 1476 1450 1424 1397 1370 1342 1318 1302 1293 1298 1302 1291 1273 1252 1229 1204 1174 1133 1090 1056 1027 1001 978 956 937 926 918 910 901 888 877 873 870 868 865 863 863 868 878 891 907 925 948 974 1000 1023 1043 1058 1072 1085 1100 1118 1139 1166 1192 1210 1224 1237 1246 1251 1253 1252 1249 1247 1245 1239 1233 1227 1219 1208 1196 1183 1173 1168 1166 1164 1164 1165 1165 1166 1167 1167 1161 1147 1131 1113 1103 1102 1104 1108 1117 1130 1144 1158 1167 1169 1167 1160 1148 1135 1120 1105 1094 1085 1077 1072 1069 1066 1060 1049 1036 1024 1015 1009 1007 1004 1001 998 995 994 995 998 1001 1003 1006 1013 1020 1024 1028 1030 1032 1034 1036 1043 1050 1052 1050 1040 1028 1020 1015 1015 1019 1026 1035 1050 1073 1097 1120 1134 1142 1149 1159 1171 1178 1177 1171 1166 1163
1505 1506 1503 1500 1502 1511 1529 1551 1568 1580 1584 1588 1599 1613 1626 1636 1641 1645 1652 1662 1676 1692 1712 1728 1736 1743 1753 1759 1756 1749 1736 1730 1741 1759 1784 1810 1827 1834 1823 1808 1805 1805 1805 1803 1799 1797 1807 1819 1823 1826 1834 1847 1862 1876 1883 1887 1894 1909 1939 1975 2003 2018 2009 1994 1996 2004 2009 2002 1980 1954 1937 1930 1925 1924 1936 1948 1949 1944 1931 1917 1910 1900 1880 1864 1861 1863 1867 1861 1838 1812 1796 1777 1742 1695 1629 1565 1524 1493 1466 1440 1411 1382 1352 1326 1307 1296 1301 1306 1294 1274 1252 1227 1200 1170 1126 1081 1047 1018 993 971 949 932 924 919 912 903 889 875 870 868 866 863 861 860 865 874 886 901 918 939 964 990 1014 1034 1049 1063 1075 1089 1107 1129 1156 1182 1201 1216 1230 1241 1247 1249 1246 1243 1241 1238 1232 1223 1217 1210 1200 1189 1176 1165 1159 1157 1155 1155 1156 1158 1159 1160 1160 1154 1140 1122 1104 1092 1091 1093 1098 1108 1122 1136 1149 1158 1160 1159 1152 1141 1128 1115 1102 1091 1085 1079 1076 1074 1072 1069 1059 1046 1035 1027 1022 1020 1017 1014 1009 1005 1003 1003 1005 1007 1008 1011 1018 1025 1030 1033 1036 1037 1039 1043 1051 1059 1062 1060 1051 1039 1031 1026 1025 1028 1034 1043 1057 1078 1102 1124 1137 1143 1150 1159 1171 1180 1178 1172 1166 1163
1506 1508 1506 1504 1506 1514 1530 1549 1565 1577 1581 1585 1597 1609 1621 1630 1635 1639 1646 1657 1670 1685 1704 1719 1727 1734 1742 1747 1744 1738 1726 1721 1731 1748 1772 1795 1812 1820 1813 1803 1801 1803 1805 1805 1802 1801 1808 1818 1822 1826 1836 1852 1870 1886 1895 1902 1913 1932 1968 2008 2038 2056 2052 2042 2047 2055 2057 2047 2023 1996 1979 1969 1960 1954 1960 1967 1965 1957 1941 1925 1918 1908 1891 1878 1877 1880 1885 1881 1860 1835 1818 1797 1762 1716 1651 1588 1546 1514 1486 1458 1427 1396 1364 1336 1315 1302 1304 1306 1292 1271 1247 1220 1193 1163 1122 1080 1047 1018 991 967 946 930 922 917 910 902 889 877 872 870 868 865 862 861 864 873 885 898 914 934 958 983 1007 1026 1041 1055 1068 1083 1101 1123 1149 1174 1192 1207 1221 1232 1238 1240 1237 1233 1231 1229 1223 1216 1210 1202 1193 1183 1170 1159 1152 1148 1146 1145 1147 1148 1149 1150 1150 1144 1129 1112 1094 1083 1082 1084 1090 1101 1115 1128 1140 1147 1148 1147 1141 1130 1119 1107 1097 1090 1086 1083 1082 1082 1083 1081 1072 1060 1050 1042 1038 1037 1034 1031 1025 1019 1016 1015 1016 1017 1017 1019 1025 1031 1035 1039 1042 1045 1047 1051 1058 1065 1068 1068 1061 1051 1043 1038 1037 1039 1044 1051 1064 1083 1106 1128 1141 1149 1155 1162 1172 1179 1176 1169 1164 1160
1504 1506 1509 1512 1515 1521 1532 1546 1560 1572 1580 1588 1600 1613 1622 1628 1632 1636 1645 1658 1670 1683 1699 1711 1718 1724 1730 1732 1729 1725 1716 1714 1724 1740 1757 1774 1788 1799 1805 1808 1811 1814 1821 1826 1827 1826 1823 1821 1822 1828 1845 1868 1888 1905 1913 1919 1933 1956 1997 2041 2071 2091 2098 2101 2109 2116 2106 2085 2061 2039 2028 2022 2010 1999 1997 1994 1985 1971 1947 1926 1917 1910 1902 1898 1900 1903 1910 1908 1888 1862 1837 1809 1774 1732 1674 1617 1576 1542 1512 1481 1449 1417 1383 1354 1331 1315 1310 1306 1289 1265 1236 1206 1178 1151 1122 1092 1062 1032 998 967 944 928 917 911 904 897 890 883 879 876 875 872 869 867 869 876 888 900 912 928 951 975 999 1019 1033 1048 1065 1085 1105 1125 1146 1166 1183 1198 1210 1218 1223 1224 1220 1215 1212 1211 1209 1206 1200 1193 1187 1180 1168 1155 1144 1135 1132 1131 1131 1131 1132 1133 1132 1125 1112 1097 1083 1074 1073 1076 1087 1102 1115 1126 1132 1132 1132 1131 1125 1114 1103 1094 1091 1092 1092 1091 1093 1095 1098 1096 1087 1074 1064 1057 1056 1057 1056 1052 1043 1034 1029 1027 1028 1028 1028 1028 1030 1033 1036 1040 1047 1053 1056 1058 1061 1064 1066 1068 1068 1065 1061 1056 1052 1051 1055 1060 1069 1084 1104 1126 1146 1161 1168 1173 1176 1175 1170 1164 1158 1154
1499 1503 1511 1519 1523 1528 1533 1542 1554 1566 1578 1591 1605 1619 1626 1629 1632 1637 1648 1661 1671 1680 1692 1701 1707 1712 1715 1716 1715 1713 1709 1710 1721 1735 1745 1755 1767 1780 1798 1814 1821 1826 1837 1849 1855 1855 1843 1831 1830 1838 1861 1889 1911 1927 1933 1938 1954 1981 2026 2071 2097 2115 2129 2142 2155 2160 2140 2112 2094 2082 2082 2082 2069 2053 2041 2028 2010 1987 1953 1924 1914 1910 1912 1916 1919 1922 1929 1929 1910 1883 1850 1816 1785 1749 1700 1650 1610 1575 1542 1510 1476 1443 1409 1379 1354 1334 1323 1311 1290 1262 1229 1194 1165 1141 1125 1108 1082 1051 1009 971 947 930 917 908 901 897 895 893 890 888 886 884 879 876 877 883 893 904 913 925 944 967 991 1011 1025 1040 1063 1087 1108 1127 1143 1159 1175 1189 1198 1203 1206 1205 1199 1192 1190 1190 1191 1191 1185 1178 1175 1171 1160 1146 1130 1117 1112 1111 1109 1108 1109 1110 1108 1103 1093 1083 1073 1067 1066 1071 1086 1105 1117 1124 1123 1117 1115 1114 1107 1097 1087 1080 1084 1091 1095 1096 1100 1105 1108 1107 1096 1082 1073 1068 1070 1074 1075 1072 1061 1048 1042 1040 1039 1039 1038 1036 1034 1034 1036 1041 1051 1060 1063 1062 1060 1058 1059 1063 1071 1076 1075 1071 1066 1063 1065 1069 1073 1083 1100 1122 1149 1170 1178 1180 1176 1168 1162 1157 1151 1147
1496 1500 1509 1518 1523 1526 1530 1537 1548 1561 1574 1589 1606 1621 1629 1632 1635 1640 1650 1661 1667 1673 1681 1688 1693 1698 1701 1703 1706 1707 1706 1709 1720 1733 1741 1749 1759 1772 1793 1811 1820 1826 1840 1856 1867 1871 1861 1848 1848 1857 1881 1910 1931 1947 1952 1958 1977 2006 2051 2091 2110 2121 2133 2146 2160 2166 2149 2128 2122 2122 2132 2136 2123 2103 2085 2063 2035 2003 1962 1929 1917 1914 1917 1923 1924 1926 1933 1933 1915 1889 1857 1826 1801 1772 1729 1682 1641 1605 1572 1539 1505 1471 1437 1405 1378 1356 1341 1325 1299 1268 1231 1194 1164 1140 1128 1116 1093 1063 1020 980 956 940 927 917 911 907 906 906 903 900 899 895 889 884 884 889 898 908 915 924 941 962 984 1003 1017 1031 1055 1080 1101 1120 1135 1149 1165 1179 1187 1190 1190 1188 1180 1172 1169 1170 1172 1171 1165 1157 1154 1150 1140 1125 1108 1093 1087 1086 1084 1082 1083 1084 1084 1082 1078 1073 1068 1064 1064 1068 1084 1102 1112 1116 1111 1103 1100 1099 1092 1082 1073 1068 1074 1085 1090 1094 1100 1105 1109 1107 1096 1083 1074 1070 1074 1081 1084 1083 1072 1060 1053 1050 1049 1048 1046 1044 1040 1038 1040 1046 1056 1064 1065 1063 1058 1054 1056 1060 1070 1080 1081 1080 1075 1071 1073 1075 1077 1084 1098 1118 1144 1166 1174 1175 1168 1159 1154 1150 1145 1141
1494 1498 1507 1516 1520 1523 1526 1531 1542 1554 1567 1584 1604 1622 1633 1639 1643 1647 1654 1660 1662 1664 1667 1672 1677 1681 1686 1690 1696 1701 1704 1709 1720 1733 1741 1747 1756 1768 1786 1804 1812 1819 1833 1852 1867 1876 1871 1862 1863 1872 1895 1922 1941 1957 1964 1973 1995 2026 2068 2102 2113 2116 2121 2132 2147 2155 2144 2134 2141 2155 2173 2180 2166 2144 2120 2090 2054 2015 1972 1941 1930 1926 1926 1928 1927 1926 1928 1925 1907 1883 1855 1832 1813 1791 1755 1711 1671 1634 1600 1568 1534 1500 1464 1431 1402 1378 1361 1342 1312 1277 1237 1199 1168 1144 1131 1119 1098 1070 1031 994 971 955 942 934 928 924 922 920 916 913 910 905 897 891 890 894 903 912 917 925 940 958 979 996 1009 1022 1044 1068 1088 1107 1124 1140 1156 1169 1175 1175 1173 1169 1162 1155 1153 1153 1154 1153 1145 1136 1130 1124 1113 1099 1082 1069 1063 1061 1058 1056 1056 1058 1060 1062 1063 1064 1063 1061 1062 1065 1079 1095 1103 1104 1097 1089 1086 1085 1079 1069 1060 1056 1062 1073 1079 1085 1092 1099 1102 1101 1091 1079 1071 1069 1074 1082 1088 1089 1081 1070 1064 1061 1059 1058 1055 1051 1047 1045 1047 1052 1060 1067 1066 1062 1056 1052 1052 1057 1068 1079 1083 1084 1081 1078 1078 1079 1079 1083 1094 1111 1136 1156 1163 1163 1157 1148 1144 1142 1137 1134
1491 1495 1506 1516 1520 1522 1520 1521 1530 1542 1558 1577 1599 1620 1639 1653 1658 1661 1661 1659 1656 1654 1651 1651 1653 1658 1665 1673 1681 1689 1699 1710 1723 1735 1741 1745 1753 1763 1777 1790 1797 1803 1815 1832 1849 1863 1865 1863 1866 1874 1892 1913 1930 1946 1961 1978 2003 2034 2072 2100 2104 2101 2103 2112 2127 2138 2134 2134 2152 2175 2197 2205 2190 2166 2136 2096 2053 2013 1984 1968 1962 1956 1947 1940 1935 1928 1916 1898 1878 1856 1837 1823 1812 1797 1772 1738 1699 1662 1628 1596 1562 1527 1488 1451 1421 1396 1379 1358 1326 1288 1245 1206 1174 1149 1131 1116 1095 1071 1042 1014 993 977 967 961 955 950 942 935 930 925 919 911 901 894 893 898 907 915 920 928 941 957 975 991 1002 1014 1029 1048 1067 1087 1110 1132 1149 1161 1161 1155 1151 1147 1147 1149 1149 1149 1147 1141 1132 1121 1109 1096 1084 1071 1058 1049 1044 1041 1036 1032 1032 1033 1036 1040 1045 1050 1053 1055 1055 1059 1071 1083 1089 1089 1083 1076 1074 1072 1066 1056 1048 1043 1045 1053 1060 1067 1077 1086 1090 1090 1083 1074 1069 1067 1071 1079 1086 1090 1087 1080 1075 1072 1071 1069 1066 1062 1057 1054 1055 1059 1064 1067 1064 1058 1052 1048 1048 1053 1064 1076 1082 1084 1084 1083 1083 1082 1078 1079 1088 1103 1125 1145 1151 1151 1144 1137 1134 1132 1128 1125
1489 1494 1505 1517 1522 1522 1516 1512 1520 1532 1549 1571 1593 1617 1643 1664 1671 1672 1666 1657 1651 1647 1639 1633 1634 1639 1648 1658 1667 1678 1693 1709 1723 1734 1739 1742 1749 1757 1767 1775 1781 1786 1796 1810 1827 1843 1851 1855 1859 1867 1879 1895 1910 1927 1949 1974 2002 2033 2068 2090 2092 2087 2087 2097 2113 2125 2126 2132 2157 2185 2208 2215 2200 2175 2139 2094 2047 2009 1996 1997 1996 1988 1971 1955 1947 1936 1908 1876 1852 1833 1821 1816 1809 1799 1784 1758 1721 1684 1650 1618 1585 1549 1506 1466 1434 1409 1392 1371 1337 1297 1254 1213 1181 1154 1132 1112 1091 1070 1051 1032 1013 997 989 985 980 973 959 946 939 933 924 912 901 894 894 900 908 916 922 929 941 956 972 986 996 1005 1015 1028 1045 1067 1095 1123 1142 1152 1147 1135 1128 1126 1134 1145 1147 1146 1141 1133 1123 1109 1091 1072 1058 1046 1039 1034 1030 1026 1019 1012 1012 1014 1016 1021 1028 1035 1041 1044 1045 1048 1059 1069 1073 1073 1068 1063 1061 1060 1053 1044 1036 1030 1029 1033 1039 1048 1061 1072 1078 1079 1075 1070 1067 1066 1069 1076 1084 1091 1092 1089 1085 1083 1082 1081 1078 1074 1068 1064 1065 1068 1070 1069 1064 1058 1052 1048 1048 1052 1063 1075 1081 1084 1086 1087 1086 1083 1076 1073 1080 1093 1115 1134 1139 1139 1132 1126 1123 1121 1117 1114
1489 1493 1505 1517 1521 1521 1514 1509 1516 1529 1546 1568 1591 1615 1643 1665 1673 1674 1666 1655 1649 1644 1634 1628 1628 1633 1642 1652 1661 1672 1688 1705 1719 1730 1733 1736 1742 1750 1758 1766 1771 1775 1784 1797 1814 1830 1840 1845 1850 1857 1868 1882 1897 1915 1939 1966 1995 2026 2060 2082 2084 2079 2080 2091 2108 2122 2125 2133 2160 2189 2213 2220 2206 2182 2146 2100 2052 2015 2007 2014 2014 2005 1986 1967 1959 1947 1915 1879 1854 1836 1826 1823 1817 1809 1796 1772 1736 1698 1664 1632 1598 1562 1518 1476 1444 1419 1401 1381 1346 1306 1261 1220 1188 1160 1136 1115 1093 1073 1056 1040 1021 1005 997 994 988 980 965 950 942 937 926 913 902 894 894 899 907 914 920 927 938 952 967 980 989 997 1004 1015 1031 1052 1082 1111 1129 1139 1132 1119 1112 1110 1120 1133 1136 1134 1129 1120 1109 1095 1075 1055 1041 1029 1023 1020 1017 1013 1004 998 997 999 1002 1006 1014 1022 1028 1032 1033 1036 1046 1056 1060 1060 1055 1050 1049 1048 1041 1032 1024 1018 1016 1020 1027 1036 1050 1063 1070 1072 1071 1067 1066 1066 1070 1078 1087 1095 1098 1096 1094 1092 1092 1092 1089 1084 1078 1074 1075 1078 1079 1076 1071 1065 1058 1054 1053 1057 1067 1079 1084 1086 1087 1087 1085 1081 1073 1068 1073 1085 1106 1124 1129 1128 1121 1114 1111 1109 1105 1102
1490 1494 1505 1516 1521 1521 1514 1510 1517 1530 1547 1569 1592 1615 1641 1660 1667 1668 1661 1651 1646 1641 1633 1628 1628 1633 1641 1651 1660 1670 1685 1701 1714 1724 1728 1730 1736 1744 1752 1760 1765 1770 1777 1789 1806 1822 1833 1839 1844 1851 1860 1872 1886 1905 1930 1960 1989 2020 2054 2076 2079 2074 2073 2081 2098 2114 2120 2132 2160 2189 2212 2219 2206 2183 2148 2104 2058 2022 2015 2022 2022 2014 1998 1982 1974 1962 1932 1898 1873 1854 1843 1838 1832 1822 1808 1782 1745 1707 1674 1641 1607 1572 1531 1491 1459 1433 1412 1387 1351 1311 1268 1229 1196 1168 1145 1123 1101 1081 1063 1046 1027 1010 1000 993 987 980 965 950 942 937 927 916 904 895 895 900 907 913 918 923 934 947 960 972 981 988 996 1007 1022 1042 1070 1097 1115 1124 1119 1107 1100 1098 1107 1117 1120 1119 1114 1106 1096 1082 1063 1044 1030 1018 1012 1007 1004 1000 993 986 986 988 991 996 1003 1011 1017 1020 1022 1024 1033 1042 1045 1045 1042 1039 1038 1037 1031 1023 1015 1010 1009 1012 1020 1030 1044 1057 1065 1068 1068 1066 1065 1067 1072 1080 1090 1100 1105 1105 1104 1103 1103 1103 1100 1096 1090 1086 1087 1090 1090 1086 1081 1074 1068 1065 1064 1066 1075 1084 1088 1089 1088 1086 1083 1078 1070 1065 1069 1080 1098 1114 1118 1116 1110 1103 1100 1098 1094 1091
1495 1498 1508 1518 1524 1525 1520 1518 1526 1538 1557 1579 1599 1618 1635 1646 1651 1652 1648 1641 1637 1634 1631 1631 1633 1637 1645 1654 1663 1672 1684 1697 1709 1719 1723 1726 1732 1740 1751 1762 1768 1771 1775 1784 1799 1816 1832 1843 1850 1855 1856 1859 1870 1889 1922 1958 1989 2020 2051 2072 2077 2072 2060 2056 2070 2088 2104 2125 2153 2179 2197 2200 2187 2166 2134 2095 2054 2024 2021 2030 2031 2025 2018 2010 2003 1991 1968 1940 1917 1896 1876 1863 1854 1842 1819 1786 1747 1709 1676 1644 1610 1578 1549 1521 1491 1460 1424 1385 1345 1306 1272 1242 1211 1183 1160 1140 1118 1097 1078 1059 1039 1019 999 983 974 967 954 942 935 931 928 921 910 901 899 902 909 914 916 920 930 942 954 964 971 978 990 1004 1019 1037 1060 1081 1096 1107 1108 1102 1098 1094 1097 1102 1103 1103 1101 1097 1088 1076 1060 1044 1030 1019 1009 1001 996 992 987 982 983 985 987 991 997 1004 1009 1012 1013 1014 1016 1019 1022 1024 1027 1029 1030 1029 1027 1022 1016 1012 1011 1016 1024 1034 1045 1055 1062 1067 1067 1066 1066 1068 1073 1081 1091 1101 1111 1118 1119 1118 1118 1117 1115 1113 1108 1104 1106 1107 1104 1098 1093 1088 1086 1086 1085 1086 1090 1094 1095 1094 1090 1085 1080 1075 1071 1070 1073 1080 1091 1100 1101 1100 1096 1092 1090 1088 1085 1082
1501 1503 1512 1523 1529 1533 1532 1532 1540 1553 1571 1591 1607 1620 1625 1627 1630 1632 1630 1627 1625 1624 1628 1632 1635 1639 1646 1655 1663 1672 1681 1691 1702 1712 1717 1720 1725 1732 1745 1759 1766 1769 1770 1775 1789 1807 1827 1843 1852 1855 1847 1841 1849 1869 1907 1949 1982 2012 2041 2062 2071 2069 2048 2032 2044 2064 2089 2116 2143 2163 2174 2172 2159 2141 2115 2084 2054 2034 2039 2051 2053 2050 2051 2050 2043 2030 2012 1990 1969 1944 1916 1894 1880 1863 1831 1790 1749 1711 1678 1647 1614 1586 1570 1553 1526 1490 1438 1383 1337 1299 1274 1253 1224 1196 1174 1155 1134 1113 1092 1071 1050 1027 997 971 960 953 944 934 928 925 927 926 916 905 902 904 910 915 914 916 926 938 949 957 963 971 985 1003 1018 1033 1050 1065 1078 1089 1096 1098 1096 1092 1090 1089 1089 1089 1091 1090 1084 1075 1063 1050 1037 1025 1012 1001 994 989 984 982 983 985 986 988 992 996 999 1001 1002 1002 998 996 998 1004 1013 1021 1023 1023 1024 1024 1020 1017 1017 1022 1031 1040 1047 1054 1061 1065 1066 1065 1067 1070 1074 1080 1088 1098 1113 1125 1129 1129 1129 1128 1129 1129 1126 1124 1125 1126 1120 1112 1108 1106 1109 1113 1113 1111 1110 1109 1108 1104 1096 1087 1081 1076 1075 1077 1078 1079 1082 1084 1083 1081 1080 1078 1077 1075 1073 1071
1504 1507 1516 1528 1537 1544 1545 1546 1555 1567 1584 1599 1610 1616 1615 1612 1614 1616 1616 1615 1614 1615 1621 1627 1630 1633 1639 1648 1656 1665 1673 1682 1692 1701 1706 1708 1711 1717 1730 1744 1751 1754 1754 1759 1773 1791 1812 1829 1838 1840 1830 1820 1826 1845 1882 1925 1957 1987 2017 2041 2056 2060 2042 2026 2038 2060 2085 2110 2131 2146 2152 2149 2138 2123 2104 2085 2069 2062 2077 2095 2098 2096 2098 2097 2086 2070 2050 2028 2006 1981 1949 1921 1903 1882 1846 1801 1760 1722 1689 1659 1628 1601 1588 1575 1547 1508 1451 1389 1340 1300 1276 1256 1228 1200 1179 1161 1140 1119 1099 1078 1057 1033 1000 971 958 952 942 933 927 924 928 927 916 905 900 902 907 911 910 912 923 936 947 954 960 967 981 999 1013 1026 1039 1052 1063 1074 1082 1086 1086 1083 1080 1079 1078 1079 1082 1084 1080 1073 1064 1053 1042 1030 1016 1003 993 987 981 978 980 981 982 981 982 983 983 984 985 985 981 979 983 991 1004 1014 1016 1017 1019 1020 1018 1017 1018 1023 1031 1039 1046 1051 1057 1062 1063 1063 1066 1070 1073 1078 1083 1091 1106 1120 1126 1128 1129 1132 1136 1139 1139 1138 1139 1140 1134 1128 1126 1128 1134 1139 1138 1134 1130 1127 1123 1117 1107 1096 1088 1083 1081 1080 1076 1072 1069 1067 1065 1062 1061 1060 1059 1058 1056 1055
1505 1508 1517 1530 1542 1553 1557 1560 1569 1581 1594 1606 1610 1610 1605 1600 1602 1605 1606 1607 1608 1610 1616 1622 1624 1625 1630 1637 1644 1653 1661 1669 1678 1687 1692 1695 1698 1701 1710 1721 1728 1732 1733 1739 1753 1772 1794 1812 1821 1823 1812 1801 1805 1821 1855 1894 1924 1953 1985 2014 2036 2047 2036 2025 2038 2060 2083 2104 2119 2129 2132 2129 2121 2111 2103 2099 2098 2105 2126 2146 2150 2148 2148 2142 2127 2107 2085 2064 2041 2014 1981 1950 1929 1905 1868 1824 1783 1745 1709 1676 1645 1619 1607 1594 1565 1525 1467 1405 1352 1308 1278 1254 1224 1196 1177 1161 1142 1122 1100 1078 1057 1034 1004 978 966 959 949 940 934 931 933 930 918 906 900 900 905 909 909 913 926 939 949 955 959 966 979 996 1008 1019 1030 1040 1050 1058 1065 1069 1069 1068 1067 1067 1067 1067 1071 1074 1072 1068 1062 1054 1044 1033 1020 1006 995 986 978 975 976 978 976 972 969 968 967 967 969 970 968 969 976 986 998 1007 1009 1009 1012 1014 1013 1012 1014 1019 1026 1033 1039 1044 1049 1054 1057 1059 1063 1068 1072 1075 1079 1084 1097 1110 1117 1121 1126 1133 1141 1147 1149 1149 1151 1152 1149 1147 1149 1152 1158 1162 1160 1154 1149 1143 1136 1129 1118 1106 1097 1090 1086 1080 1071 1062 1055 1050 1046 1043 1040 1038 1037 1036 1035 1034
1503 1505 1512 1523 1536 1549 1560 1569 1579 1590 1602 1609 1609 1605 1598 1594 1595 1599 1605 1610 1613 1616 1620 1623 1623 1623 1621 1622 1628 1635 1642 1648 1656 1666 1679 1689 1692 1692 1690 1690 1695 1700 1704 1713 1729 1749 1776 1800 1810 1811 1799 1786 1788 1801 1825 1854 1881 1909 1946 1982 2009 2026 2024 2022 2038 2060 2079 2095 2107 2114 2117 2116 2111 2109 2120 2138 2152 2166 2182 2193 2194 2191 2185 2172 2152 2131 2114 2098 2076 2049 2016 1985 1960 1936 1906 1870 1831 1789 1740 1694 1660 1635 1625 1613 1583 1543 1492 1435 1382 1331 1282 1240 1207 1180 1167 1157 1140 1119 1093 1066 1044 1025 1007 993 984 977 969 961 955 950 948 941 927 913 903 901 905 910 916 926 941 954 958 959 961 966 980 996 1007 1016 1022 1027 1034 1040 1043 1044 1044 1044 1047 1049 1049 1049 1051 1052 1052 1051 1052 1050 1042 1033 1021 1008 996 986 977 973 974 975 968 959 953 950 951 953 957 959 963 970 980 989 995 997 997 998 999 1000 999 999 1001 1006 1011 1017 1022 1027 1032 1038 1045 1053 1060 1066 1073 1078 1081 1084 1090 1097 1105 1113 1122 1133 1145 1155 1158 1158 1160 1163 1167 1173 1178 1182 1184 1182 1177 1169 1160 1150 1142 1133 1123 1113 1104 1095 1088 1078 1065 1051 1041 1033 1027 1022 1015 1010 1008 1007 1008 1009
1502 1503 1506 1514 1527 1543 1559 1573 1584 1595 1606 1611 1609 1603 1596 1592 1594 1599 1608 1618 1622 1624 1625 1626 1625 1622 1614 1608 1612 1619 1623 1628 1635 1646 1666 1683 1688 1686 1674 1663 1666 1672 1680 1693 1709 1731 1763 1792 1803 1804 1790 1776 1777 1787 1802 1822 1845 1873 1914 1955 1984 2005 2010 2015 2033 2055 2072 2086 2096 2104 2108 2111 2111 2117 2145 2181 2207 2225 2232 2232 2231 2228 2216 2196 2174 2152 2141 2131 2110 2082 2050 2020 1994 1971 1948 1921 1885 1839 1776 1717 1678 1653 1645 1634 1602 1563 1519 1468 1414 1356 1289 1230 1192 1167 1160 1156 1141 1119 1087 1055 1032 1017 1013 1012 1006 999 992 986 979 973 966 955 939 923 911 906 909 915 927 943 959 970 969 964 964 969 982 998 1007 1013 1015 1016 1020 1023 1022 1018 1017 1018 1023 1028 1029 1028 1027 1026 1027 1029 1035 1039 1034 1026 1017 1007 995 984 975 970 971 971 960 946 939 936 938 944 949 954 963 975 987 996 995 990 988 988 988 987 986 985 987 990 994 998 1002 1007 1011 1017 1030 1044 1053 1061 1071 1079 1083 1085 1085 1088 1096 1107 1121 1137 1152 1164 1167 1167 1169 1173 1185 1197 1205 1208 1204 1196 1188 1178 1165 1152 1141 1131 1123 1115 1105 1096 1086 1073 1057 1041 1027 1017 1010 1003 992 983 979 979 981 984
1506 1506 1509 1516 1529 1544 1562 1577 1588 1598 1608 1613 1610 1603 1597 1594 1596 1601 1611 1621 1625 1627 1627 1625 1623 1619 1608 1601 1603 1609 1612 1616 1622 1633 1654 1673 1679 1676 1662 1650 1653 1660 1670 1684 1701 1723 1757 1787 1798 1799 1785 1770 1771 1779 1791 1808 1829 1857 1897 1938 1968 1988 1996 2002 2022 2044 2062 2076 2088 2098 2107 2114 2119 2130 2166 2210 2241 2262 2268 2266 2266 2263 2250 2230 2206 2185 2175 2166 2144 2115 2083 2052 2026 2002 1982 1958 1922 1876 1809 1745 1705 1679 1670 1657 1624 1583 1539 1489 1434 1373 1300 1235 1196 1172 1166 1163 1149 1127 1094 1060 1037 1023 1023 1026 1021 1014 1007 1001 995 988 979 966 949 933 920 914 916 922 935 952 968 979 976 969 967 972 985 999 1007 1011 1010 1008 1009 1010 1006 1000 998 998 1003 1008 1009 1009 1007 1006 1007 1010 1019 1025 1022 1016 1009 999 989 978 969 965 966 965 953 939 931 929 933 940 945 951 962 976 990 998 996 989 987 986 986 984 981 979 979 981 982 984 987 990 993 1000 1014 1029 1039 1048 1060 1070 1076 1079 1080 1084 1095 1109 1126 1144 1161 1174 1179 1179 1180 1185 1198 1212 1220 1222 1215 1204 1194 1183 1168 1152 1140 1129 1120 1112 1102 1091 1080 1066 1049 1031 1016 1004 996 987 975 964 960 960 962 965
1512 1513 1516 1523 1536 1551 1568 1583 1594 1603 1612 1616 1613 1606 1598 1594 1595 1600 1610 1620 1623 1624 1623 1621 1618 1613 1602 1595 1597 1602 1605 1608 1614 1624 1644 1662 1668 1665 1653 1643 1647 1656 1667 1683 1701 1723 1754 1781 1791 1792 1778 1764 1765 1773 1786 1805 1825 1851 1888 1926 1954 1974 1983 1991 2011 2034 2052 2068 2083 2096 2107 2118 2127 2143 2180 2225 2258 2282 2292 2294 2295 2293 2282 2262 2239 2218 2209 2200 2178 2147 2113 2080 2053 2030 2010 1987 1952 1906 1842 1780 1739 1710 1695 1678 1641 1598 1552 1499 1443 1381 1308 1245 1205 1181 1176 1175 1161 1139 1105 1071 1048 1034 1032 1033 1028 1021 1017 1013 1006 999 990 976 958 941 926 919 920 927 939 955 971 981 979 973 972 975 987 1000 1006 1009 1006 1001 1001 999 993 986 982 981 984 988 989 988 988 988 990 994 1004 1011 1010 1005 999 990 981 971 962 956 957 957 949 937 931 928 931 937 943 949 961 975 989 998 998 993 991 991 990 987 983 980 977 975 974 975 977 979 981 987 999 1013 1024 1033 1044 1055 1062 1068 1074 1083 1097 1113 1132 1152 1170 1185 1191 1192 1194 1198 1210 1222 1229 1230 1223 1211 1199 1186 1170 1153 1139 1127 1117 1107 1096 1085 1073 1057 1039 1021 1006 994 985 976 962 951 945 944 947 949
1521 1522 1526 1535 1549 1565 1582 1596 1606 1614 1621 1622 1617 1609 1597 1589 1590 1594 1603 1611 1614 1615 1613 1610 1606 1601 1595 1591 1593 1598 1602 1607 1613 1622 1639 1653 1658 1656 1646 1640 1646 1656 1673 1693 1712 1733 1755 1773 1781 1782 1770 1758 1758 1768 1789 1815 1837 1860 1889 1918 1943 1964 1975 1987 2008 2032 2051 2069 2086 2102 2113 2123 2136 2153 2184 2221 2251 2276 2294 2303 2308 2307 2297 2279 2259 2241 2236 2231 2209 2176 2137 2099 2072 2049 2031 2009 1975 1933 1879 1825 1783 1747 1715 1681 1640 1594 1545 1491 1433 1373 1307 1249 1211 1188 1185 1187 1173 1150 1115 1081 1058 1042 1031 1023 1016 1011 1016 1020 1015 1007 995 979 962 945 925 913 913 919 930 944 958 970 974 974 974 977 986 996 1001 1002 999 995 992 989 981 973 968 964 963 963 963 963 965 970 974 979 989 997 996 993 987 979 971 961 949 940 940 943 946 946 944 940 935 934 938 945 957 971 983 993 1001 1004 1005 1004 1001 997 993 988 980 973 969 968 973 978 979 982 988 997 1007 1015 1023 1029 1038 1050 1067 1086 1105 1123 1141 1159 1177 1193 1202 1207 1210 1213 1220 1228 1233 1233 1227 1216 1204 1190 1172 1154 1139 1125 1112 1098 1086 1074 1060 1044 1026 1009 998 989 980 970 955 942 935 932 934 938
1528 1529 1535 1546 1561 1578 1595 1609 1619 1626 1630 1628 1622 1613 1597 1585 1585 1589 1596 1603 1606 1607 1606 1602 1597 1593 1590 1590 1593 1597 1603 1609 1615 1623 1636 1647 1649 1647 1641 1638 1645 1657 1677 1702 1723 1742 1757 1767 1772 1773 1763 1752 1753 1765 1794 1827 1850 1871 1891 1912 1934 1954 1969 1984 2007 2031 2051 2070 2091 2108 2119 2129 2144 2163 2186 2212 2236 2259 2281 2297 2304 2305 2296 2282 2267 2256 2258 2257 2236 2202 2158 2116 2088 2067 2052 2032 1999 1960 1915 1868 1823 1776 1726 1675 1628 1581 1530 1474 1417 1360 1301 1250 1213 1191 1191 1194 1180 1156 1119 1083 1060 1042 1023 1006 996 994 1007 1019 1017 1008 994 977 962 945 922 905 904 909 918 930 943 955 965 972 973 974 981 990 994 995 992 987 983 978 969 960 953 947 941 937 935 936 943 951 957 964 975 983 983 980 975 968 961 952 937 926 925 931 945 958 960 955 944 935 938 945 956 968 977 987 1001 1012 1014 1013 1009 1005 1001 996 984 972 965 964 971 978 978 978 977 981 989 997 1001 1005 1015 1033 1062 1092 1116 1135 1151 1166 1184 1200 1212 1220 1224 1226 1229 1231 1234 1233 1228 1219 1206 1190 1172 1153 1137 1122 1105 1089 1076 1063 1048 1031 1015 1001 994 990 981 969 953 937 927 921 923 927
1528 1530 1536 1549 1566 1584 1602 1617 1626 1633 1636 1633 1626 1616 1599 1586 1585 1589 1596 1603 1607 1609 1607 1604 1598 1593 1591 1591 1594 1598 1604 1610 1615 1622 1634 1643 1643 1640 1633 1631 1639 1651 1673 1699 1722 1741 1755 1762 1766 1767 1757 1748 1749 1761 1792 1826 1850 1869 1886 1904 1924 1943 1958 1974 1997 2021 2043 2064 2086 2107 2120 2132 2151 2171 2192 2212 2230 2247 2265 2281 2290 2292 2287 2278 2270 2266 2274 2277 2256 2222 2177 2136 2109 2090 2077 2058 2026 1988 1944 1894 1843 1788 1728 1670 1620 1572 1521 1465 1410 1355 1298 1250 1214 1191 1192 1195 1179 1153 1115 1078 1055 1037 1015 995 983 981 996 1011 1010 1001 987 972 960 946 923 906 905 910 917 927 938 948 959 967 968 969 975 983 987 988 985 980 974 967 957 946 938 930 922 917 915 916 924 934 941 950 962 971 972 970 966 961 956 948 934 922 921 928 946 962 967 964 951 941 944 952 961 971 977 984 997 1008 1011 1010 1007 1003 1001 997 985 971 963 960 966 972 970 967 964 965 973 982 985 991 1005 1027 1062 1098 1124 1144 1160 1174 1191 1206 1219 1227 1231 1233 1234 1234 1235 1233 1228 1218 1204 1187 1167 1148 1132 1116 1098 1081 1067 1054 1040 1025 1011 1000 997 994 985 972 954 935 921 911 910 913
1527 1528 1536 1550 1568 1587 1605 1619 1628 1635 1638 1636 1629 1619 1603 1592 1591 1594 1600 1606 1610 1613 1613 1610 1604 1598 1596 1596 1598 1601 1605 1609 1614 1620 1630 1636 1635 1630 1623 1621 1629 1642 1663 1688 1712 1732 1747 1757 1761 1762 1752 1743 1745 1757 1786 1819 1841 1860 1877 1893 1912 1930 1943 1958 1980 2006 2031 2056 2081 2104 2119 2133 2155 2178 2200 2217 2229 2238 2250 2261 2269 2273 2274 2274 2274 2275 2283 2284 2263 2230 2190 2154 2130 2112 2099 2079 2048 2010 1963 1907 1848 1787 1724 1665 1615 1567 1517 1465 1412 1358 1302 1252 1216 1193 1192 1193 1175 1146 1107 1069 1046 1028 1007 987 975 971 986 1000 998 990 978 966 956 946 927 911 911 916 923 932 940 948 957 963 963 964 969 976 980 982 978 972 965 958 948 938 929 920 910 903 901 902 909 919 927 936 949 959 961 960 958 956 953 947 934 922 921 928 946 964 969 969 960 952 956 964 971 976 978 981 990 998 1001 1000 998 997 997 995 985 973 964 959 962 964 960 954 951 953 961 970 976 985 1003 1029 1065 1101 1128 1150 1167 1181 1197 1210 1221 1228 1232 1234 1236 1236 1236 1233 1225 1213 1198 1181 1161 1142 1126 1110 1093 1078 1064 1051 1038 1026 1015 1006 1003 999 990 977 958 937 919 905 900 901
1525 1527 1537 1552 1572 1591 1604 1613 1620 1628 1635 1636 1630 1621 1611 1606 1606 1608 1608 1608 1611 1615 1620 1621 1616 1610 1607 1607 1608 1610 1609 1607 1610 1615 1619 1620 1616 1611 1606 1607 1615 1627 1645 1668 1690 1712 1735 1751 1757 1757 1748 1740 1742 1753 1778 1807 1828 1846 1863 1880 1898 1914 1922 1932 1953 1981 2018 2055 2085 2109 2124 2138 2161 2187 2213 2234 2242 2245 2242 2242 2248 2256 2270 2285 2293 2295 2287 2269 2244 2216 2191 2170 2152 2134 2113 2087 2054 2016 1964 1901 1836 1773 1716 1666 1618 1572 1528 1483 1433 1379 1319 1265 1228 1203 1196 1190 1170 1140 1097 1058 1035 1018 1000 982 970 965 977 989 987 979 969 959 953 946 933 924 924 929 937 946 952 958 963 965 964 964 964 967 971 972 968 961 953 948 946 942 934 923 909 898 895 895 898 905 913 923 934 942 943 944 950 954 954 949 935 923 922 928 945 962 968 971 970 971 977 983 984 981 979 978 979 981 982 982 984 988 991 991 986 978 970 963 958 953 945 939 940 946 955 965 975 989 1010 1037 1069 1101 1128 1151 1169 1184 1199 1211 1218 1222 1224 1228 1234 1238 1238 1233 1220 1202 1186 1169 1152 1136 1120 1106 1095 1085 1074 1061 1049 1039 1031 1023 1014 1004 993 981 965 945 925 908 898 894
1525 1527 1538 1555 1576 1594 1602 1605 1611 1619 1630 1636 1631 1623 1619 1618 1620 1621 1614 1609 1610 1615 1624 1630 1625 1619 1616 1615 1617 1617 1610 1603 1604 1607 1607 1603 1597 1592 1589 1592 1601 1611 1626 1645 1666 1690 1719 1741 1749 1749 1740 1732 1735 1745 1766 1790 1809 1827 1845 1862 1880 1894 1898 1903 1923 1953 2000 2049 2082 2107 2121 2134 2157 2186 2217 2242 2250 2248 2235 2225 2230 2242 2267 2294 2309 2309 2284 2247 2218 2195 2185 2180 2167 2148 2120 2086 2052 2014 1958 1890 1823 1760 1712 1672 1627 1582 1546 1507 1459 1404 1340 1281 1242 1216 1204 1192 1169 1138 1094 1053 1030 1014 998 983 971 965 974 984 981 974 965 958 953 948 941 937 938 943 952 961 968 971 972 971 970 968 964 962 964 966 961 953 945 941 947 951 944 932 915 900 896 895 894 896 904 913 922 928 929 932 943 954 956 951 937 924 923 929 944 959 966 971 978 986 994 999 994 985 980 976 970 967 966 967 973 980 985 987 988 984 976 968 956 944 933 928 932 943 954 964 978 996 1019 1046 1073 1100 1125 1149 1168 1184 1199 1210 1214 1215 1216 1221 1231 1240 1241 1234 1215 1194 1176 1160 1145 1131 1116 1104 1099 1096 1085 1073 1062 1053 1046 1038 1023 1007 994 982 970 953 933 914 900 892
1525 1527 1538 1556 1576 1594 1601 1602 1607 1617 1628 1635 1630 1622 1619 1621 1623 1622 1614 1607 1608 1613 1623 1629 1625 1618 1615 1614 1615 1614 1606 1597 1598 1600 1598 1593 1586 1580 1578 1581 1589 1599 1612 1630 1650 1673 1703 1726 1734 1733 1725 1717 1718 1728 1747 1770 1788 1806 1823 1840 1858 1871 1874 1878 1897 1927 1976 2027 2061 2086 2100 2113 2137 2166 2199 2225 2234 2232 2218 2206 2211 2224 2253 2284 2302 2302 2273 2233 2204 2183 2178 2178 2168 2150 2121 2086 2053 2015 1959 1891 1823 1761 1717 1680 1636 1592 1558 1521 1473 1419 1352 1292 1253 1226 1213 1200 1176 1144 1099 1057 1034 1018 1003 989 977 971 979 989 986 978 970 962 958 954 948 945 947 952 961 970 976 979 979 977 975 972 967 964 966 967 962 954 946 942 950 956 949 937 918 903 898 896 894 895 902 912 920 925 926 929 942 955 957 952 938 924 923 929 944 959 965 971 980 990 999 1003 996 986 980 975 968 963 962 964 970 978 984 986 988 985 978 969 956 941 930 925 931 942 953 964 979 998 1022 1048 1074 1099 1124 1148 1168 1184 1199 1210 1213 1213 1214 1219 1230 1240 1241 1234 1214 1191 1173 1157 1144 1131 1116 1104 1101 1098 1089 1076 1066 1057 1050 1042 1026 1007 994 983 971 955 935 916 900 892
1526 1528 1537 1553 1573 1592 1600 1603 1609 1617 1628 1632 1627 1620 1617 1617 1620 1620 1614 1608 1610 1614 1621 1625 1620 1613 1610 1610 1611 1610 1601 1592 1592 1594 1592 1586 1579 1573 1572 1576 1584 1592 1605 1621 1640 1661 1689 1710 1716 1716 1707 1699 1701 1709 1727 1748 1765 1782 1800 1817 1834 1848 1853 1860 1880 1908 1952 1996 2029 2054 2069 2084 2108 2137 2170 2196 2206 2206 2195 2187 2193 2208 2236 2266 2283 2285 2261 2226 2199 2180 2173 2172 2162 2145 2117 2084 2052 2016 1961 1894 1827 1767 1723 1687 1643 1600 1565 1527 1480 1425 1359 1299 1260 1232 1217 1203 1180 1149 1108 1070 1048 1031 1015 1000 987 981 988 996 993 985 976 967 962 959 955 953 955 959 967 974 980 983 983 982 980 977 972 970 972 973 967 957 948 944 952 958 951 938 920 905 901 899 896 897 904 913 922 928 929 932 944 955 957 953 939 927 926 931 944 957 963 968 977 987 995 1000 994 985 980 975 970 966 965 966 972 978 983 985 986 983 976 967 956 943 933 928 933 944 955 965 978 996 1019 1045 1072 1097 1122 1146 1166 1183 1198 1208 1212 1212 1214 1219 1230 1240 1240 1233 1214 1191 1173 1157 1143 1129 1114 1102 1100 1097 1088 1075 1064 1055 1049 1040 1025 1008 995 984 972 957 937 917 902 894
1530 1531 1535 1546 1563 1582 1597 1607 1614 1621 1625 1624 1619 1613 1610 1610 1612 1614 1617 1620 1624 1625 1622 1616 1608 1602 1603 1606 1607 1605 1597 1588 1588 1589 1586 1580 1574 1570 1574 1583 1591 1599 1609 1621 1637 1654 1675 1691 1696 1695 1688 1682 1684 1692 1704 1720 1735 1752 1772 1793 1811 1828 1843 1860 1882 1906 1930 1954 1980 2004 2025 2045 2070 2099 2130 2156 2168 2172 2173 2176 2185 2199 2221 2244 2256 2259 2248 2228 2206 2185 2170 2158 2145 2128 2101 2069 2039 2003 1950 1885 1823 1767 1725 1690 1648 1604 1565 1524 1476 1422 1356 1297 1258 1230 1210 1191 1168 1144 1120 1098 1080 1062 1042 1024 1010 1003 1005 1008 1003 994 981 969 964 963 965 969 972 975 975 976 977 979 982 983 981 980 980 983 986 985 974 960 950 945 951 956 949 938 923 912 908 906 901 899 904 913 926 937 939 940 946 952 953 951 942 934 934 938 943 948 953 958 965 974 982 987 986 981 977 975 975 977 977 977 977 977 979 980 978 973 965 958 955 951 944 939 942 950 960 970 977 989 1011 1036 1063 1088 1113 1137 1157 1175 1191 1202 1209 1212 1214 1219 1229 1237 1236 1228 1210 1188 1171 1154 1139 1124 1108 1097 1095 1093 1083 1070 1058 1048 1041 1034 1023 1010 998 987 976 962 943 925 909 900
1537 1536 1535 1540 1553 1570 1590 1606 1616 1621 1619 1615 1611 1609 1607 1607 1608 1612 1624 1636 1640 1638 1625 1610 1600 1595 1599 1604 1605 1602 1594 1586 1585 1586 1583 1578 1574 1573 1583 1597 1606 1613 1618 1626 1636 1648 1661 1670 1673 1672 1667 1663 1667 1674 1683 1693 1707 1723 1746 1771 1791 1813 1838 1865 1890 1909 1913 1917 1935 1958 1982 2007 2033 2061 2092 2118 2133 2145 2158 2172 2185 2198 2213 2225 2228 2227 2226 2218 2201 2177 2152 2128 2111 2092 2064 2032 2003 1970 1918 1859 1805 1756 1721 1688 1647 1603 1561 1517 1468 1414 1350 1291 1253 1224 1199 1177 1156 1141 1136 1132 1119 1100 1077 1056 1042 1033 1031 1029 1022 1012 995 980 975 977 986 996 1000 999 992 983 978 976 979 982 981 981 987 994 997 995 979 960 949 944 949 954 949 940 930 922 919 916 909 904 905 912 927 942 945 946 946 948 949 949 945 942 943 944 942 940 943 947 954 961 968 974 977 977 975 976 982 990 992 990 983 977 975 974 968 960 951 946 951 957 955 952 954 960 969 977 979 985 1004 1028 1054 1079 1104 1127 1148 1167 1183 1196 1206 1211 1214 1218 1227 1233 1229 1219 1200 1180 1163 1147 1129 1113 1099 1088 1086 1085 1075 1062 1049 1038 1031 1025 1019 1010 999 989 980 968 952 937 922 912
1544 1543 1540 1540 1548 1562 1580 1597 1607 1611 1610 1607 1608 1610 1611 1613 1614 1619 1632 1645 1649 1645 1630 1612 1601 1597 1601 1607 1607 1603 1593 1585 1583 1584 1582 1579 1577 1581 1594 1609 1618 1623 1626 1628 1632 1637 1644 1650 1651 1650 1646 1643 1648 1656 1664 1674 1686 1702 1726 1752 1775 1800 1829 1859 1885 1902 1901 1898 1912 1933 1956 1980 2006 2034 2066 2095 2115 2133 2152 2171 2186 2198 2208 2212 2205 2194 2188 2180 2163 2139 2109 2081 2059 2036 2007 1974 1946 1914 1868 1816 1773 1734 1707 1679 1640 1597 1555 1511 1463 1410 1346 1288 1250 1221 1197 1178 1162 1153 1157 1160 1149 1131 1108 1087 1074 1066 1063 1059 1052 1041 1023 1008 1005 1009 1020 1031 1034 1031 1018 1002 990 982 981 982 981 981 988 996 999 996 978 959 948 944 950 956 954 948 940 934 931 927 918 909 906 909 923 937 941 942 942 943 946 947 946 945 946 947 943 939 941 946 951 958 964 970 974 976 976 978 987 997 999 997 988 978 973 969 960 951 942 938 946 956 959 960 964 970 979 986 986 989 1005 1028 1052 1076 1099 1122 1143 1162 1179 1193 1203 1210 1213 1217 1224 1227 1220 1206 1186 1165 1148 1132 1116 1100 1087 1078 1077 1076 1067 1054 1040 1029 1023 1018 1014 1007 997 988 980 972 960 948 936 927
1552 1550 1546 1545 1549 1558 1571 1584 1592 1598 1599 1600 1606 1613 1618 1621 1623 1627 1638 1649 1651 1646 1632 1616 1607 1603 1606 1611 1609 1603 1593 1584 1582 1583 1583 1583 1585 1590 1603 1617 1624 1629 1629 1627 1625 1624 1626 1629 1629 1628 1625 1624 1630 1639 1649 1659 1671 1687 1709 1735 1759 1785 1815 1845 1870 1888 1889 1888 1900 1918 1937 1960 1985 2012 2043 2075 2100 2122 2147 2170 2186 2198 2204 2200 2183 2161 2146 2133 2114 2089 2058 2027 2001 1975 1942 1908 1880 1850 1809 1767 1734 1706 1685 1660 1622 1582 1544 1502 1455 1403 1340 1283 1247 1218 1197 1181 1171 1167 1177 1183 1174 1158 1139 1122 1111 1104 1101 1097 1089 1077 1059 1045 1043 1048 1060 1070 1071 1065 1047 1024 1004 988 982 980 979 979 986 995 998 995 979 960 951 947 953 960 960 957 952 946 943 939 929 917 910 908 919 931 935 936 939 943 947 951 951 950 951 952 949 946 948 952 958 964 970 975 978 979 980 984 993 1003 1005 1003 993 983 975 967 956 945 935 932 940 952 958 963 969 977 986 993 994 998 1013 1032 1053 1075 1096 1117 1138 1158 1176 1190 1200 1206 1209 1213 1217 1216 1205 1188 1167 1146 1130 1116 1101 1087 1076 1068 1067 1065 1056 1043 1031 1022 1016 1012 1007 1000 991 983 977 971 964 956 948 943
1556 1556 1555 1556 1558 1562 1565 1568 1574 1580 1585 1592 1603 1613 1622 1627 1629 1631 1636 1639 1639 1636 1627 1618 1611 1608 1609 1611 1607 1601 1591 1582 1581 1582 1585 1590 1595 1600 1607 1614 1619 1622 1623 1621 1615 1609 1605 1603 1602 1601 1603 1607 1615 1625 1639 1652 1665 1678 1693 1713 1737 1763 1790 1815 1838 1858 1871 1881 1895 1909 1925 1943 1966 1991 2020 2050 2077 2104 2136 2165 2182 2194 2197 2187 2162 2132 2108 2088 2067 2041 2011 1981 1952 1923 1884 1847 1819 1792 1757 1725 1701 1679 1654 1624 1587 1550 1519 1485 1441 1390 1330 1276 1241 1214 1192 1179 1174 1176 1189 1198 1191 1180 1172 1164 1157 1151 1146 1140 1131 1118 1099 1084 1082 1087 1099 1109 1107 1098 1073 1042 1015 993 978 971 969 970 982 995 999 997 986 973 966 962 961 963 963 963 958 952 949 946 937 926 917 912 917 926 930 933 940 949 956 961 962 961 963 964 964 963 966 970 976 983 988 991 990 989 990 993 1001 1008 1010 1008 1002 994 985 974 959 943 933 928 934 944 952 959 966 972 980 990 999 1011 1026 1043 1058 1075 1093 1114 1136 1159 1177 1190 1197 1199 1201 1203 1202 1195 1181 1162 1143 1126 1113 1100 1089 1079 1070 1062 1057 1051 1040 1029 1020 1014 1010 1006 998 987 978 971 966 961 957 954 954 956
1558 1559 1562 1566 1568 1567 1561 1556 1560 1567 1575 1586 1599 1611 1622 1628 1630 1631 1629 1626 1624 1622 1621 1619 1615 1611 1611 1610 1606 1600 1590 1582 1580 1583 1589 1598 1604 1608 1608 1607 1609 1612 1614 1612 1605 1595 1587 1582 1580 1581 1586 1594 1603 1615 1632 1648 1661 1672 1681 1694 1716 1741 1764 1784 1805 1828 1852 1873 1889 1902 1913 1928 1949 1973 1997 2024 2050 2079 2117 2151 2169 2180 2182 2168 2138 2103 2073 2049 2025 1998 1969 1940 1910 1878 1836 1796 1768 1742 1713 1688 1670 1651 1621 1583 1547 1514 1491 1464 1423 1375 1318 1268 1234 1208 1187 1175 1173 1179 1196 1208 1204 1198 1200 1203 1200 1194 1187 1179 1169 1156 1134 1118 1115 1120 1131 1139 1136 1123 1092 1053 1022 995 974 963 959 962 978 996 1002 1002 997 990 985 980 973 968 968 969 965 959 956 953 947 938 928 921 923 929 933 938 950 963 972 978 979 979 980 982 984 986 989 993 1000 1007 1011 1012 1007 1002 1002 1004 1010 1015 1016 1015 1012 1007 998 986 966 947 936 930 932 940 947 956 961 965 973 984 1003 1023 1038 1051 1062 1073 1089 1108 1132 1156 1174 1186 1188 1187 1188 1188 1183 1171 1154 1136 1121 1108 1097 1086 1079 1073 1066 1058 1049 1038 1027 1016 1010 1008 1006 1002 990 976 968 961 956 953 950 950 958 967
1558 1559 1563 1568 1569 1568 1559 1552 1555 1562 1571 1582 1596 1608 1619 1625 1627 1627 1624 1619 1617 1617 1618 1618 1616 1614 1614 1613 1610 1604 1594 1587 1585 1587 1594 1603 1609 1612 1609 1606 1606 1608 1610 1607 1599 1589 1579 1573 1572 1573 1579 1588 1598 1609 1626 1643 1656 1666 1672 1683 1704 1729 1749 1768 1788 1811 1838 1861 1877 1889 1899 1912 1932 1954 1977 2001 2026 2055 2092 2126 2144 2155 2155 2140 2108 2071 2038 2012 1986 1958 1928 1898 1867 1834 1792 1751 1724 1699 1672 1650 1635 1618 1587 1550 1516 1486 1467 1445 1407 1361 1307 1258 1226 1201 1181 1171 1172 1182 1202 1218 1217 1215 1222 1230 1230 1225 1218 1209 1199 1185 1162 1144 1140 1143 1153 1159 1153 1137 1103 1060 1026 997 974 961 957 961 979 998 1005 1007 1005 1001 998 994 986 980 981 982 979 973 969 966 961 953 942 935 937 943 948 954 967 983 993 999 1000 1000 1001 1003 1005 1008 1010 1013 1019 1025 1028 1028 1021 1013 1012 1014 1019 1023 1024 1023 1022 1017 1008 995 975 955 944 938 939 945 952 960 964 968 974 985 1005 1027 1041 1052 1059 1067 1081 1098 1121 1144 1161 1172 1172 1169 1170 1170 1164 1151 1134 1117 1103 1093 1083 1074 1069 1066 1060 1052 1042 1031 1019 1010 1005 1004 1004 1000 989 975 968 963 959 956 954 956 966 977
1555 1557 1562 1567 1569 1567 1558 1550 1553 1559 1567 1579 1591 1604 1616 1624 1626 1626 1623 1618 1617 1617 1619 1620 1619 1618 1618 1617 1615 1610 1601 1594 1592 1594 1601 1610 1615 1616 1612 1606 1605 1605 1606 1604 1595 1585 1577 1572 1571 1572 1577 1585 1595 1606 1622 1637 1649 1658 1666 1677 1698 1722 1742 1760 1780 1802 1829 1852 1867 1879 1887 1898 1917 1938 1961 1986 2010 2036 2068 2096 2112 2121 2121 2105 2073 2035 2002 1974 1946 1916 1884 1851 1819 1785 1742 1702 1676 1652 1628 1608 1595 1581 1556 1525 1494 1467 1447 1424 1388 1345 1296 1252 1222 1199 1182 1176 1180 1192 1213 1228 1231 1232 1241 1251 1252 1248 1244 1236 1226 1212 1188 1167 1161 1163 1171 1176 1167 1149 1111 1066 1031 1001 981 970 967 970 986 1005 1012 1014 1012 1008 1007 1005 1000 996 999 1001 999 994 990 987 981 971 961 954 956 962 967 974 987 1001 1011 1018 1020 1021 1022 1024 1027 1030 1032 1033 1037 1041 1042 1041 1033 1025 1023 1025 1029 1034 1035 1034 1031 1025 1016 1004 985 967 956 950 950 954 961 968 973 977 983 992 1010 1029 1042 1051 1055 1060 1070 1085 1106 1127 1143 1152 1152 1149 1149 1150 1144 1132 1117 1101 1088 1079 1071 1063 1059 1057 1052 1045 1036 1026 1015 1005 1001 999 999 997 988 977 971 968 967 966 965 967 976 985
1549 1551 1558 1566 1568 1567 1557 1548 1550 1556 1563 1574 1586 1599 1617 1630 1634 1634 1630 1626 1625 1624 1624 1625 1625 1624 1622 1621 1619 1616 1610 1605 1603 1605 1614 1623 1626 1625 1614 1603 1600 1600 1601 1598 1590 1582 1579 1580 1580 1580 1581 1584 1593 1603 1615 1626 1636 1647 1659 1675 1696 1718 1737 1756 1775 1797 1824 1849 1865 1876 1881 1887 1903 1925 1954 1984 2008 2027 2042 2054 2064 2072 2072 2058 2029 1994 1965 1939 1910 1877 1839 1799 1763 1726 1681 1641 1615 1594 1575 1561 1551 1542 1532 1516 1491 1464 1435 1402 1365 1327 1290 1257 1232 1212 1201 1201 1211 1224 1235 1241 1243 1247 1256 1263 1263 1261 1262 1262 1253 1237 1209 1184 1174 1173 1182 1187 1177 1156 1116 1070 1036 1011 1002 1001 1000 1001 1009 1019 1025 1026 1019 1011 1009 1011 1014 1019 1025 1029 1030 1028 1025 1020 1011 999 989 981 981 985 990 996 1004 1013 1022 1029 1035 1039 1042 1045 1050 1055 1057 1057 1055 1053 1052 1050 1043 1036 1033 1034 1041 1048 1050 1048 1039 1028 1019 1009 998 987 977 970 967 968 972 979 986 993 999 1007 1020 1033 1043 1049 1049 1049 1056 1069 1088 1109 1122 1130 1128 1124 1124 1125 1122 1113 1101 1089 1078 1070 1063 1056 1053 1051 1046 1040 1032 1023 1013 1003 995 990 989 989 985 979 975 975 978 981 982 982 984 987
1543 1545 1555 1566 1569 1568 1558 1548 1550 1555 1561 1570 1581 1595 1618 1637 1642 1642 1638 1634 1631 1629 1627 1626 1626 1626 1623 1621 1621 1621 1619 1616 1615 1617 1626 1635 1636 1630 1612 1595 1590 1589 1591 1589 1583 1577 1580 1586 1589 1588 1584 1584 1592 1603 1611 1618 1627 1639 1655 1675 1695 1714 1732 1750 1769 1791 1819 1846 1864 1876 1877 1880 1894 1916 1950 1984 2005 2016 2013 2008 2013 2019 2021 2012 1989 1962 1939 1917 1888 1852 1807 1759 1716 1674 1626 1584 1559 1539 1527 1519 1511 1507 1512 1510 1492 1464 1425 1382 1344 1311 1286 1265 1245 1228 1223 1232 1248 1263 1265 1262 1264 1270 1276 1280 1276 1273 1280 1285 1278 1261 1228 1196 1181 1177 1185 1191 1179 1156 1115 1072 1043 1028 1032 1043 1045 1042 1042 1043 1045 1043 1030 1018 1016 1021 1033 1047 1055 1061 1065 1067 1064 1058 1046 1032 1021 1014 1012 1013 1018 1023 1026 1030 1035 1042 1052 1060 1063 1066 1074 1082 1083 1082 1075 1068 1064 1061 1055 1049 1045 1045 1054 1063 1066 1062 1048 1033 1025 1019 1015 1011 1003 995 988 985 985 990 999 1009 1015 1020 1028 1036 1043 1047 1041 1037 1041 1052 1070 1089 1099 1104 1101 1095 1095 1097 1097 1094 1088 1081 1074 1068 1062 1056 1054 1051 1045 1038 1031 1023 1014 1003 991 982 981 982 982 980 979 981 989 996 996 994 989 986
1541 1544 1555 1566 1571 1570 1560 1551 1552 1557 1562 1570 1580 1594 1617 1637 1643 1642 1638 1632 1627 1623 1619 1618 1619 1619 1617 1617 1620 1624 1624 1622 1621 1623 1632 1638 1635 1624 1603 1583 1576 1575 1577 1577 1573 1570 1576 1585 1588 1588 1584 1584 1593 1605 1613 1620 1628 1640 1656 1675 1692 1708 1724 1740 1758 1780 1808 1837 1857 1871 1873 1875 1888 1909 1942 1973 1989 1993 1982 1970 1971 1977 1981 1978 1964 1946 1931 1912 1882 1844 1796 1742 1691 1643 1590 1547 1522 1503 1492 1487 1481 1480 1489 1494 1478 1452 1413 1369 1332 1301 1281 1265 1248 1233 1234 1249 1271 1293 1297 1295 1299 1307 1313 1313 1305 1298 1303 1308 1301 1284 1247 1211 1190 1180 1185 1189 1176 1152 1113 1075 1055 1049 1064 1081 1083 1080 1076 1073 1072 1068 1052 1038 1037 1044 1059 1075 1085 1092 1098 1101 1098 1091 1078 1064 1055 1049 1046 1048 1053 1057 1059 1060 1063 1068 1077 1085 1088 1092 1100 1108 1110 1107 1099 1089 1085 1081 1074 1066 1061 1059 1067 1077 1079 1075 1061 1046 1040 1037 1037 1036 1028 1019 1009 1002 999 1000 1007 1016 1021 1025 1030 1035 1040 1042 1034 1027 1029 1038 1054 1070 1077 1079 1073 1067 1067 1069 1072 1075 1076 1075 1074 1071 1067 1062 1059 1056 1048 1040 1032 1024 1015 1005 992 983 981 983 984 984 985 988 996 1004 1003 998 991 985
1541 1544 1553 1564 1569 1570 1562 1556 1558 1562 1566 1572 1581 1593 1614 1632 1637 1636 1631 1624 1617 1611 1608 1607 1608 1609 1609 1611 1618 1624 1627 1627 1627 1628 1632 1633 1625 1612 1590 1571 1564 1563 1564 1565 1562 1562 1570 1580 1584 1585 1583 1585 1596 1610 1620 1628 1637 1648 1662 1676 1690 1703 1716 1731 1748 1769 1798 1828 1850 1866 1870 1873 1885 1903 1932 1957 1966 1965 1952 1940 1940 1943 1947 1949 1944 1934 1925 1909 1878 1840 1790 1733 1677 1622 1565 1520 1495 1478 1470 1467 1464 1463 1471 1474 1460 1438 1404 1364 1330 1301 1282 1268 1253 1240 1241 1257 1286 1315 1329 1334 1342 1353 1359 1356 1344 1331 1329 1329 1321 1303 1268 1230 1205 1189 1187 1186 1171 1148 1116 1088 1079 1082 1101 1118 1121 1117 1111 1106 1102 1096 1080 1066 1066 1073 1088 1105 1115 1123 1131 1134 1132 1125 1112 1098 1090 1085 1083 1084 1089 1094 1095 1094 1095 1098 1105 1112 1115 1117 1125 1131 1132 1129 1121 1112 1106 1102 1096 1088 1081 1078 1083 1091 1093 1089 1076 1063 1059 1059 1062 1062 1054 1044 1032 1021 1014 1010 1013 1018 1021 1024 1028 1032 1036 1036 1027 1019 1020 1026 1040 1054 1058 1057 1050 1042 1042 1045 1050 1057 1065 1071 1076 1077 1074 1070 1067 1062 1052 1042 1032 1024 1016 1006 996 988 987 989 990 991 992 995 1003 1007 1004 998 991 985
1541 1542 1546 1551 1555 1559 1562 1565 1570 1573 1574 1577 1584 1594 1607 1619 1622 1621 1618 1611 1603 1596 1595 1596 1599 1600 1602 1607 1616 1625 1632 1635 1634 1633 1627 1617 1604 1590 1576 1565 1561 1559 1556 1553 1551 1553 1562 1573 1578 1580 1585 1593 1607 1622 1636 1647 1657 1666 1673 1680 1690 1701 1713 1727 1743 1764 1792 1822 1845 1863 1867 1869 1879 1895 1916 1932 1935 1932 1926 1922 1923 1923 1922 1921 1920 1916 1909 1892 1861 1823 1777 1723 1664 1605 1546 1501 1477 1462 1462 1467 1467 1465 1462 1454 1439 1422 1400 1374 1344 1317 1299 1287 1274 1260 1248 1254 1285 1323 1355 1378 1392 1404 1412 1410 1394 1373 1355 1341 1329 1315 1290 1260 1234 1211 1197 1186 1168 1149 1133 1126 1127 1134 1148 1158 1158 1154 1146 1138 1132 1125 1111 1101 1102 1108 1118 1131 1141 1151 1164 1172 1170 1163 1151 1138 1130 1125 1121 1119 1124 1129 1129 1127 1126 1127 1132 1137 1139 1141 1144 1146 1146 1143 1136 1128 1122 1119 1120 1119 1113 1107 1106 1108 1108 1105 1092 1080 1079 1081 1088 1091 1083 1071 1056 1041 1030 1022 1017 1016 1016 1018 1021 1025 1027 1027 1020 1013 1013 1019 1032 1044 1046 1043 1034 1025 1025 1028 1033 1042 1054 1067 1077 1082 1080 1076 1071 1063 1052 1040 1029 1019 1011 1004 1000 999 1000 1002 1003 1003 1005 1007 1008 1005 1000 993 988 986
1541 1540 1538 1538 1540 1547 1560 1573 1580 1582 1580 1579 1585 1593 1600 1605 1606 1606 1604 1599 1590 1584 1584 1589 1592 1594 1597 1603 1613 1624 1633 1639 1639 1635 1620 1600 1584 1571 1565 1564 1562 1559 1551 1544 1543 1546 1556 1567 1573 1578 1587 1602 1617 1634 1651 1665 1676 1684 1685 1685 1692 1702 1713 1727 1743 1763 1790 1819 1843 1860 1864 1865 1875 1888 1901 1910 1908 1905 1906 1911 1913 1910 1902 1896 1895 1893 1885 1866 1834 1797 1756 1707 1648 1587 1528 1484 1461 1448 1456 1469 1472 1468 1454 1435 1419 1407 1398 1384 1360 1335 1318 1308 1297 1282 1257 1251 1282 1328 1378 1416 1436 1451 1462 1460 1443 1417 1384 1355 1341 1330 1316 1296 1270 1243 1219 1197 1177 1162 1162 1172 1181 1189 1195 1196 1193 1188 1179 1168 1161 1154 1143 1136 1138 1143 1149 1157 1166 1178 1196 1209 1208 1200 1188 1176 1168 1162 1155 1151 1154 1159 1159 1156 1155 1154 1157 1161 1162 1162 1161 1159 1158 1155 1149 1143 1137 1136 1144 1150 1145 1137 1131 1127 1126 1122 1110 1099 1098 1102 1112 1117 1110 1097 1078 1059 1045 1033 1023 1016 1013 1014 1016 1020 1021 1020 1014 1009 1009 1014 1027 1038 1039 1035 1025 1015 1015 1017 1022 1031 1046 1061 1075 1082 1082 1078 1071 1061 1050 1037 1024 1014 1006 1002 1004 1010 1013 1015 1016 1016 1019 1020 1014 1004 996 990 989 990
1539 1538 1535 1532 1535 1542 1558 1573 1581 1583 1580 1578 1584 1591 1596 1599 1599 1599 1598 1593 1584 1578 1579 1584 1587 1589 1592 1598 1609 1620 1630 1636 1636 1631 1614 1592 1574 1562 1559 1560 1560 1556 1548 1540 1539 1543 1554 1566 1572 1578 1590 1606 1623 1641 1658 1674 1685 1693 1692 1690 1697 1706 1717 1730 1746 1766 1792 1820 1843 1860 1863 1863 1871 1883 1894 1899 1896 1891 1893 1898 1899 1895 1884 1874 1872 1869 1860 1839 1806 1770 1731 1683 1625 1565 1507 1463 1440 1429 1439 1455 1459 1455 1440 1420 1405 1395 1391 1382 1361 1338 1325 1317 1309 1295 1269 1262 1294 1344 1400 1445 1468 1484 1497 1496 1480 1453 1415 1383 1368 1358 1347 1330 1304 1275 1248 1224 1202 1188 1194 1208 1219 1227 1231 1229 1226 1220 1211 1199 1192 1185 1175 1168 1171 1175 1179 1186 1195 1207 1226 1240 1239 1231 1219 1206 1198 1192 1183 1178 1181 1186 1185 1182 1180 1179 1181 1184 1185 1185 1182 1179 1177 1174 1169 1163 1157 1156 1166 1174 1169 1160 1153 1148 1146 1142 1130 1118 1117 1121 1132 1138 1130 1115 1095 1075 1059 1045 1032 1022 1018 1017 1018 1021 1020 1018 1013 1007 1006 1010 1022 1033 1034 1030 1019 1009 1009 1011 1016 1025 1040 1056 1071 1079 1079 1076 1069 1059 1048 1036 1023 1013 1006 1003 1008 1016 1020 1022 1024 1025 1027 1028 1021 1010 1001 996 995 997
1539 1538 1534 1532 1535 1542 1557 1572 1579 1581 1579 1578 1583 1590 1594 1597 1597 1597 1594 1588 1580 1572 1573 1577 1580 1582 1586 1594 1605 1616 1625 1631 1631 1626 1610 1588 1571 1559 1555 1556 1556 1554 1547 1542 1542 1546 1555 1566 1572 1578 1591 1607 1625 1643 1662 1678 1690 1697 1697 1695 1702 1711 1722 1736 1751 1770 1793 1819 1841 1857 1863 1866 1874 1884 1891 1892 1886 1880 1882 1886 1886 1880 1868 1858 1854 1849 1839 1818 1784 1747 1704 1653 1594 1537 1484 1446 1425 1414 1421 1435 1439 1436 1423 1406 1392 1384 1379 1370 1351 1331 1321 1318 1313 1303 1283 1282 1318 1370 1426 1471 1496 1513 1524 1523 1507 1481 1446 1416 1401 1391 1381 1365 1339 1309 1280 1254 1232 1218 1223 1239 1250 1258 1261 1259 1256 1250 1240 1228 1220 1213 1203 1198 1201 1205 1210 1216 1225 1237 1255 1268 1265 1258 1247 1236 1228 1221 1213 1208 1211 1215 1214 1210 1208 1207 1208 1210 1211 1210 1207 1202 1200 1197 1192 1187 1182 1180 1187 1192 1187 1178 1170 1165 1164 1160 1149 1139 1138 1142 1151 1155 1145 1130 1110 1088 1071 1057 1044 1034 1029 1026 1025 1025 1023 1020 1013 1007 1005 1008 1020 1030 1031 1026 1015 1005 1005 1008 1013 1023 1039 1055 1069 1076 1076 1074 1068 1060 1049 1038 1026 1017 1011 1008 1012 1020 1024 1028 1029 1030 1033 1035 1029 1019 1011 1005 1006 1009
1543 1542 1539 1537 1541 1548 1561 1573 1579 1582 1583 1584 1589 1594 1596 1597 1596 1595 1589 1581 1571 1563 1559 1560 1561 1565 1576 1590 1602 1612 1621 1625 1625 1621 1607 1589 1575 1564 1558 1556 1556 1555 1555 1555 1556 1558 1560 1562 1567 1574 1587 1603 1619 1637 1659 1678 1691 1699 1698 1698 1705 1717 1731 1746 1761 1777 1794 1811 1830 1849 1867 1882 1893 1900 1895 1885 1875 1868 1872 1879 1878 1871 1861 1851 1845 1838 1826 1805 1772 1731 1675 1611 1551 1499 1464 1443 1428 1415 1412 1415 1418 1418 1409 1396 1386 1376 1363 1344 1324 1309 1307 1312 1312 1308 1304 1318 1359 1410 1462 1502 1526 1542 1544 1535 1519 1497 1472 1452 1439 1429 1421 1406 1379 1348 1313 1281 1258 1244 1252 1268 1280 1288 1289 1284 1280 1274 1261 1245 1235 1228 1223 1223 1226 1231 1237 1246 1256 1267 1279 1286 1282 1276 1273 1269 1262 1256 1249 1247 1250 1253 1251 1247 1245 1244 1243 1242 1242 1240 1233 1226 1221 1217 1217 1216 1212 1207 1205 1201 1194 1185 1178 1174 1172 1170 1165 1161 1162 1165 1169 1168 1157 1141 1122 1101 1083 1069 1060 1055 1050 1044 1039 1034 1030 1025 1017 1009 1007 1009 1020 1030 1032 1027 1016 1006 1005 1009 1018 1032 1048 1062 1072 1076 1076 1074 1072 1066 1057 1046 1036 1028 1023 1020 1020 1023 1027 1031 1033 1034 1037 1040 1037 1031 1023 1018 1021 1027
1545 1544 1541 1541 1547 1556 1567 1576 1582 1585 1588 1591 1594 1596 1596 1594 1593 1590 1582 1570 1560 1552 1545 1541 1541 1546 1563 1584 1596 1605 1612 1615 1615 1611 1601 1588 1578 1570 1563 1560 1559 1560 1565 1570 1572 1571 1564 1559 1562 1570 1582 1597 1612 1629 1653 1674 1687 1695 1696 1697 1708 1723 1741 1758 1774 1788 1797 1806 1821 1841 1871 1899 1912 1915 1900 1878 1864 1857 1863 1872 1871 1863 1853 1842 1833 1821 1808 1786 1754 1711 1643 1568 1508 1463 1446 1443 1433 1418 1406 1400 1401 1404 1400 1392 1384 1374 1351 1324 1303 1292 1299 1312 1316 1318 1330 1358 1402 1451 1496 1530 1553 1567 1560 1543 1528 1513 1500 1490 1479 1470 1463 1449 1423 1390 1349 1312 1288 1275 1284 1303 1315 1323 1321 1314 1310 1303 1285 1265 1251 1243 1241 1244 1249 1254 1262 1273 1286 1297 1305 1306 1300 1296 1301 1304 1298 1290 1285 1284 1287 1289 1286 1283 1283 1282 1279 1276 1275 1272 1262 1249 1241 1236 1238 1241 1239 1231 1220 1207 1198 1192 1185 1181 1180 1179 1181 1184 1187 1189 1189 1183 1171 1155 1137 1117 1098 1083 1078 1078 1073 1065 1055 1045 1038 1032 1022 1014 1011 1013 1024 1034 1037 1034 1023 1013 1012 1017 1029 1046 1061 1072 1078 1078 1076 1075 1076 1073 1064 1054 1045 1038 1034 1030 1026 1025 1030 1036 1037 1038 1041 1045 1046 1042 1036 1031 1037 1045
1537 1537 1535 1537 1546 1557 1570 1580 1585 1588 1591 1592 1592 1591 1587 1584 1582 1580 1570 1559 1550 1542 1534 1529 1529 1534 1552 1573 1584 1591 1597 1599 1599 1596 1588 1579 1574 1570 1566 1564 1563 1566 1572 1578 1579 1576 1566 1558 1562 1570 1581 1595 1608 1624 1646 1667 1680 1688 1690 1695 1710 1730 1750 1770 1785 1798 1805 1811 1823 1842 1872 1902 1915 1916 1897 1871 1855 1846 1852 1860 1857 1848 1835 1821 1807 1790 1773 1751 1720 1678 1610 1535 1479 1441 1431 1434 1426 1411 1397 1390 1393 1398 1397 1392 1387 1378 1355 1327 1308 1299 1310 1327 1334 1339 1356 1388 1431 1478 1519 1551 1573 1586 1578 1561 1551 1541 1534 1528 1519 1510 1504 1490 1464 1430 1388 1350 1327 1315 1326 1346 1359 1368 1365 1357 1353 1346 1325 1300 1282 1269 1266 1269 1273 1277 1286 1300 1315 1329 1337 1337 1330 1327 1333 1336 1329 1319 1313 1311 1313 1314 1311 1309 1311 1313 1311 1308 1306 1302 1289 1273 1260 1252 1253 1256 1253 1246 1232 1218 1211 1206 1202 1198 1197 1197 1200 1205 1210 1213 1212 1206 1193 1177 1159 1138 1117 1101 1097 1096 1090 1081 1068 1056 1047 1039 1028 1019 1015 1017 1028 1040 1045 1043 1034 1024 1024 1029 1041 1057 1069 1078 1080 1079 1076 1075 1076 1074 1065 1054 1045 1039 1036 1032 1028 1028 1034 1042 1045 1046 1049 1053 1055 1052 1045 1041 1046 1055
1525 1525 1526 1531 1543 1557 1571 1581 1585 1589 1591 1591 1588 1584 1576 1570 1568 1566 1559 1549 1542 1534 1527 1521 1521 1525 1542 1560 1570 1575 1578 1578 1577 1575 1570 1565 1564 1565 1565 1566 1567 1569 1574 1578 1578 1574 1564 1557 1561 1570 1581 1594 1605 1619 1639 1659 1672 1680 1685 1694 1713 1737 1759 1779 1794 1806 1812 1817 1828 1843 1869 1894 1905 1905 1889 1866 1849 1838 1840 1844 1838 1827 1810 1790 1770 1749 1729 1705 1676 1638 1579 1515 1466 1432 1423 1425 1417 1404 1391 1386 1391 1398 1401 1400 1396 1390 1369 1343 1326 1320 1333 1354 1363 1370 1387 1416 1457 1501 1538 1566 1586 1599 1596 1587 1582 1578 1575 1570 1562 1552 1542 1525 1499 1466 1427 1392 1371 1361 1373 1395 1409 1418 1415 1407 1402 1395 1374 1346 1322 1305 1296 1295 1298 1301 1312 1328 1347 1363 1372 1372 1366 1361 1364 1364 1354 1342 1333 1330 1330 1330 1328 1328 1332 1337 1338 1337 1335 1331 1318 1299 1282 1269 1265 1265 1261 1255 1244 1234 1229 1226 1222 1219 1217 1217 1220 1225 1231 1235 1235 1229 1216 1201 1182 1161 1139 1121 1113 1110 1102 1092 1079 1066 1056 1046 1034 1025 1021 1023 1034 1046 1052 1054 1048 1042 1042 1046 1057 1070 1079 1085 1085 1081 1079 1077 1076 1072 1062 1051 1042 1037 1034 1032 1029 1031 1039 1049 1054 1056 1060 1064 1064 1059 1052 1047 1052 1060
1509 1510 1515 1526 1542 1557 1567 1573 1577 1581 1588 1591 1587 1579 1565 1553 1550 1549 1548 1546 1540 1533 1524 1517 1515 1519 1532 1548 1555 1557 1554 1548 1546 1545 1544 1546 1550 1554 1559 1563 1565 1567 1569 1570 1567 1563 1556 1552 1558 1567 1579 1592 1602 1614 1632 1650 1662 1671 1682 1699 1723 1748 1768 1783 1797 1809 1816 1822 1831 1842 1859 1873 1880 1882 1878 1867 1853 1839 1829 1821 1812 1797 1773 1746 1721 1696 1671 1646 1617 1587 1552 1513 1474 1443 1428 1422 1412 1399 1388 1385 1391 1402 1412 1417 1417 1413 1394 1370 1356 1352 1369 1392 1405 1413 1425 1449 1486 1526 1553 1571 1588 1604 1618 1627 1630 1628 1628 1625 1617 1604 1579 1549 1520 1490 1461 1437 1420 1412 1426 1449 1465 1474 1469 1459 1453 1447 1427 1400 1373 1349 1333 1325 1325 1329 1342 1363 1384 1401 1410 1409 1401 1394 1390 1382 1368 1353 1342 1335 1333 1333 1334 1338 1345 1352 1360 1365 1365 1361 1350 1332 1313 1295 1280 1270 1265 1260 1257 1255 1253 1252 1248 1244 1241 1240 1241 1245 1251 1256 1255 1247 1234 1219 1201 1181 1158 1138 1125 1116 1107 1096 1086 1076 1065 1055 1042 1033 1029 1030 1038 1047 1054 1060 1064 1067 1069 1073 1078 1085 1091 1095 1093 1088 1085 1081 1077 1069 1058 1047 1039 1035 1033 1031 1031 1035 1046 1057 1066 1072 1076 1078 1073 1064 1055 1049 1052 1057
1497 1499 1508 1524 1541 1557 1563 1564 1566 1572 1583 1591 1587 1576 1556 1539 1535 1536 1542 1545 1542 1534 1523 1514 1512 1514 1525 1537 1543 1543 1533 1522 1518 1518 1522 1528 1535 1542 1550 1557 1560 1562 1561 1558 1555 1551 1547 1547 1554 1564 1577 1590 1600 1610 1627 1644 1655 1666 1682 1704 1731 1756 1772 1783 1795 1806 1814 1821 1829 1837 1844 1849 1852 1855 1863 1864 1853 1835 1814 1795 1782 1765 1735 1701 1673 1647 1620 1593 1567 1545 1532 1517 1489 1459 1437 1423 1411 1399 1390 1388 1396 1410 1426 1437 1441 1438 1421 1400 1387 1386 1407 1434 1449 1458 1466 1485 1520 1555 1573 1582 1594 1612 1642 1668 1675 1674 1674 1672 1665 1648 1610 1566 1534 1509 1491 1478 1466 1460 1476 1501 1519 1529 1522 1509 1504 1498 1481 1456 1427 1398 1374 1360 1357 1360 1376 1400 1422 1440 1447 1444 1436 1426 1414 1398 1381 1364 1349 1340 1336 1335 1339 1345 1353 1362 1377 1388 1388 1385 1376 1361 1341 1319 1294 1276 1268 1266 1271 1276 1278 1276 1271 1266 1263 1262 1260 1262 1268 1273 1270 1261 1248 1234 1218 1199 1176 1154 1136 1122 1110 1100 1093 1086 1076 1064 1052 1043 1040 1040 1044 1050 1057 1066 1080 1092 1096 1099 1100 1102 1105 1107 1104 1098 1094 1088 1080 1069 1057 1045 1038 1035 1034 1034 1035 1042 1053 1066 1078 1087 1091 1092 1082 1068 1057 1050 1050 1054
1494 1496 1507 1524 1541 1556 1561 1561 1563 1569 1581 1589 1586 1574 1553 1535 1529 1531 1538 1544 1540 1532 1520 1510 1507 1509 1518 1529 1534 1534 1523 1510 1506 1506 1511 1518 1525 1533 1543 1550 1554 1557 1556 1553 1549 1547 1544 1545 1552 1563 1576 1590 1600 1610 1626 1642 1653 1663 1681 1704 1730 1754 1769 1778 1789 1800 1808 1814 1821 1828 1831 1832 1833 1836 1844 1848 1836 1816 1791 1769 1754 1735 1703 1668 1641 1616 1590 1566 1543 1526 1522 1515 1492 1465 1442 1427 1415 1405 1396 1395 1404 1420 1438 1453 1458 1458 1443 1424 1414 1415 1438 1467 1485 1496 1504 1522 1556 1590 1604 1608 1616 1632 1664 1692 1699 1697 1698 1696 1689 1672 1630 1584 1553 1530 1517 1509 1501 1498 1517 1545 1565 1577 1570 1557 1552 1546 1530 1504 1474 1443 1416 1398 1393 1394 1410 1434 1456 1473 1479 1475 1467 1457 1442 1423 1404 1385 1368 1357 1351 1349 1351 1357 1364 1373 1389 1401 1402 1398 1390 1376 1356 1332 1305 1285 1277 1276 1283 1291 1293 1292 1286 1281 1278 1276 1273 1275 1281 1287 1284 1275 1263 1250 1235 1216 1193 1171 1151 1135 1122 1111 1105 1098 1088 1076 1064 1055 1052 1053 1056 1062 1069 1079 1095 1110 1115 1117 1117 1117 1120 1121 1117 1110 1104 1097 1087 1075 1061 1050 1043 1041 1040 1040 1043 1050 1061 1075 1087 1096 1100 1100 1088 1073 1062 1054 1053 1056
1497 1499 1508 1524 1541 1555 1560 1560 1561 1566 1577 1584 1580 1570 1551 1535 1531 1532 1538 1541 1538 1530 1518 1508 1504 1505 1512 1521 1525 1524 1515 1505 1501 1501 1506 1513 1521 1529 1538 1545 1549 1552 1552 1549 1546 1544 1543 1546 1554 1565 1578 1591 1601 1611 1626 1641 1651 1661 1676 1697 1721 1744 1759 1768 1779 1789 1798 1805 1812 1817 1819 1818 1817 1818 1824 1826 1812 1791 1766 1744 1727 1708 1678 1646 1620 1597 1574 1553 1534 1519 1514 1507 1485 1461 1441 1428 1418 1409 1403 1405 1416 1432 1450 1464 1472 1474 1462 1447 1440 1442 1463 1491 1509 1523 1534 1554 1588 1620 1635 1639 1645 1656 1681 1704 1708 1706 1705 1704 1697 1682 1644 1602 1573 1553 1544 1540 1535 1535 1555 1583 1605 1618 1613 1600 1594 1590 1576 1551 1520 1488 1458 1439 1432 1431 1443 1464 1484 1501 1509 1507 1499 1488 1471 1450 1429 1409 1390 1376 1368 1364 1365 1369 1375 1383 1398 1409 1410 1406 1397 1381 1362 1339 1314 1294 1288 1287 1295 1303 1305 1304 1300 1294 1291 1289 1285 1286 1293 1298 1296 1288 1277 1265 1252 1235 1213 1190 1170 1153 1139 1127 1119 1110 1099 1088 1077 1070 1068 1069 1073 1079 1087 1097 1113 1127 1132 1134 1133 1133 1134 1134 1129 1122 1115 1107 1097 1085 1071 1059 1052 1049 1049 1049 1051 1058 1069 1082 1094 1103 1106 1106 1095 1079 1068 1061 1061 1064
1509 1509 1514 1524 1538 1550 1555 1554 1556 1559 1566 1569 1565 1558 1549 1544 1542 1541 1542 1541 1536 1530 1521 1514 1510 1508 1509 1510 1510 1510 1508 1506 1504 1504 1508 1516 1524 1532 1538 1543 1547 1550 1548 1544 1542 1542 1547 1555 1564 1575 1587 1599 1608 1617 1628 1640 1649 1656 1665 1678 1698 1719 1735 1746 1757 1768 1783 1796 1806 1810 1809 1805 1802 1800 1803 1799 1784 1762 1740 1719 1703 1685 1663 1639 1618 1598 1578 1560 1544 1529 1511 1489 1464 1442 1428 1420 1411 1405 1408 1420 1434 1449 1461 1470 1477 1482 1478 1471 1468 1471 1481 1497 1513 1530 1549 1575 1607 1637 1658 1669 1674 1679 1688 1696 1698 1698 1697 1694 1688 1677 1652 1622 1597 1580 1577 1580 1579 1579 1592 1613 1634 1648 1642 1628 1623 1621 1615 1598 1569 1537 1507 1487 1478 1473 1475 1485 1501 1518 1534 1542 1536 1523 1500 1472 1449 1427 1406 1390 1381 1374 1374 1378 1382 1390 1402 1411 1411 1406 1394 1377 1359 1339 1319 1305 1300 1300 1309 1318 1320 1319 1316 1313 1310 1307 1300 1296 1300 1305 1303 1296 1286 1276 1268 1257 1238 1218 1197 1178 1163 1149 1135 1120 1107 1097 1091 1088 1088 1089 1095 1103 1112 1122 1135 1147 1152 1153 1149 1146 1146 1145 1141 1134 1126 1118 1111 1102 1089 1076 1066 1061 1061 1061 1061 1065 1074 1085 1097 1106 1109 1109 1100 1088 1080 1075 1077 1082
1523 1522 1522 1525 1533 1542 1544 1543 1544 1546 1548 1548 1546 1544 1548 1552 1553 1551 1547 1542 1538 1534 1529 1525 1522 1518 1510 1502 1497 1496 1500 1506 1506 1506 1510 1518 1528 1536 1540 1542 1545 1548 1546 1542 1540 1543 1553 1566 1578 1588 1598 1608 1616 1624 1632 1640 1648 1653 1654 1659 1672 1689 1704 1716 1726 1739 1760 1781 1794 1800 1797 1790 1785 1782 1780 1773 1755 1733 1713 1695 1678 1662 1648 1633 1617 1600 1584 1569 1557 1541 1509 1471 1444 1423 1413 1408 1402 1398 1410 1430 1446 1460 1467 1470 1476 1484 1487 1489 1493 1498 1498 1502 1516 1536 1562 1591 1618 1642 1667 1684 1689 1688 1683 1679 1682 1686 1686 1684 1679 1672 1659 1641 1621 1605 1608 1617 1619 1620 1625 1638 1658 1672 1664 1649 1644 1645 1648 1640 1615 1584 1557 1537 1527 1518 1508 1505 1514 1529 1553 1570 1566 1551 1521 1488 1463 1441 1418 1401 1389 1382 1380 1383 1388 1394 1404 1411 1410 1405 1391 1374 1358 1343 1331 1322 1319 1319 1329 1338 1340 1338 1337 1335 1332 1327 1316 1307 1307 1308 1305 1298 1288 1280 1278 1275 1262 1245 1226 1207 1191 1175 1154 1134 1118 1109 1107 1109 1110 1112 1119 1129 1138 1148 1160 1170 1174 1174 1168 1161 1159 1158 1154 1148 1139 1132 1128 1122 1109 1096 1084 1077 1076 1075 1073 1072 1078 1087 1097 1105 1108 1108 1104 1097 1093 1092 1098 1106
1532 1531 1528 1525 1528 1530 1528 1525 1526 1528 1530 1532 1533 1536 1545 1553 1555 1553 1548 1544 1543 1542 1540 1537 1534 1529 1518 1505 1495 1489 1492 1498 1499 1499 1504 1513 1524 1535 1540 1541 1545 1548 1546 1542 1542 1547 1559 1574 1586 1596 1606 1615 1622 1628 1635 1642 1649 1653 1650 1648 1655 1665 1676 1687 1696 1708 1731 1755 1772 1781 1779 1772 1766 1761 1758 1749 1730 1708 1687 1669 1652 1636 1624 1613 1600 1587 1575 1563 1553 1539 1505 1464 1435 1415 1405 1402 1396 1393 1407 1429 1445 1458 1463 1466 1472 1482 1489 1497 1507 1516 1518 1522 1537 1558 1583 1608 1625 1641 1660 1675 1678 1675 1666 1664 1672 1683 1690 1690 1686 1681 1672 1657 1637 1623 1627 1639 1645 1647 1651 1662 1681 1695 1687 1672 1667 1670 1677 1674 1653 1626 1600 1581 1570 1558 1542 1532 1533 1543 1566 1584 1581 1566 1534 1499 1474 1453 1430 1411 1398 1390 1387 1390 1394 1400 1409 1416 1415 1409 1397 1382 1371 1361 1353 1347 1345 1345 1355 1363 1364 1361 1358 1356 1353 1348 1333 1319 1313 1310 1303 1295 1286 1279 1281 1283 1277 1266 1251 1233 1217 1200 1178 1155 1138 1127 1126 1129 1131 1134 1142 1152 1162 1173 1184 1193 1197 1198 1190 1182 1179 1176 1171 1165 1155 1147 1144 1138 1126 1113 1101 1093 1092 1091 1087 1083 1085 1090 1098 1104 1107 1107 1104 1102 1103 1108 1118 1128
1538 1537 1531 1525 1522 1519 1512 1506 1506 1509 1514 1520 1525 1532 1541 1549 1550 1549 1547 1546 1548 1551 1550 1548 1545 1539 1526 1509 1495 1484 1485 1489 1490 1490 1495 1506 1519 1532 1538 1541 1545 1549 1548 1547 1548 1553 1565 1578 1590 1600 1611 1620 1627 1632 1636 1641 1648 1651 1647 1642 1643 1647 1654 1662 1670 1681 1702 1726 1744 1757 1760 1755 1750 1744 1738 1728 1708 1685 1662 1643 1625 1608 1598 1589 1579 1570 1560 1550 1542 1530 1500 1463 1435 1414 1402 1397 1391 1388 1399 1417 1431 1443 1448 1451 1458 1470 1483 1498 1515 1530 1537 1545 1562 1582 1602 1617 1625 1631 1643 1653 1655 1651 1646 1650 1666 1686 1699 1704 1701 1696 1685 1668 1647 1632 1636 1648 1655 1660 1667 1679 1698 1712 1705 1691 1688 1692 1702 1704 1687 1663 1639 1619 1607 1595 1578 1565 1561 1563 1578 1590 1585 1571 1544 1512 1489 1467 1444 1425 1411 1401 1399 1402 1406 1412 1421 1426 1425 1419 1408 1396 1390 1385 1381 1377 1375 1375 1383 1390 1388 1383 1378 1374 1371 1365 1351 1336 1325 1316 1305 1295 1286 1280 1284 1290 1290 1285 1275 1259 1244 1226 1202 1178 1160 1148 1145 1147 1149 1152 1160 1171 1181 1192 1205 1215 1219 1219 1213 1205 1201 1197 1191 1183 1172 1164 1159 1154 1142 1128 1116 1108 1107 1106 1101 1096 1095 1096 1099 1104 1105 1106 1106 1109 1116 1125 1139 1149
1537 1536 1531 1525 1518 1510 1497 1488 1487 1492 1504 1518 1528 1535 1538 1538 1537 1537 1541 1547 1553 1557 1557 1553 1549 1544 1530 1511 1493 1479 1478 1482 1482 1482 1488 1500 1515 1529 1537 1541 1545 1550 1554 1558 1561 1565 1569 1575 1584 1595 1611 1624 1631 1635 1634 1634 1639 1643 1642 1637 1635 1635 1641 1650 1657 1666 1677 1692 1710 1727 1740 1746 1742 1735 1726 1711 1690 1665 1638 1613 1593 1577 1570 1566 1559 1551 1543 1535 1528 1519 1499 1472 1447 1424 1408 1398 1391 1385 1384 1389 1399 1410 1414 1417 1424 1439 1467 1499 1524 1544 1557 1570 1589 1607 1614 1613 1611 1610 1618 1628 1629 1627 1628 1641 1665 1691 1712 1723 1722 1715 1696 1671 1647 1631 1629 1636 1644 1652 1663 1679 1700 1715 1714 1707 1706 1713 1728 1736 1723 1701 1674 1652 1638 1628 1620 1613 1606 1599 1592 1585 1576 1566 1552 1533 1513 1492 1468 1447 1432 1423 1423 1429 1433 1438 1443 1445 1442 1436 1425 1415 1411 1411 1411 1411 1409 1408 1411 1414 1410 1402 1392 1382 1377 1374 1369 1361 1350 1336 1320 1307 1297 1291 1294 1302 1306 1306 1301 1289 1274 1255 1229 1201 1182 1168 1162 1161 1162 1165 1171 1181 1191 1203 1217 1228 1233 1235 1234 1231 1228 1222 1213 1201 1190 1180 1175 1168 1156 1142 1127 1116 1114 1115 1113 1110 1107 1104 1104 1104 1105 1107 1113 1123 1135 1147 1159 1166
1532 1531 1529 1523 1515 1504 1488 1475 1474 1480 1498 1520 1533 1539 1534 1525 1522 1524 1533 1545 1553 1558 1557 1553 1549 1543 1529 1509 1490 1475 1472 1476 1477 1477 1484 1496 1512 1527 1536 1540 1544 1551 1559 1567 1572 1574 1570 1568 1575 1587 1607 1625 1633 1635 1629 1624 1627 1632 1635 1634 1630 1628 1634 1645 1653 1658 1659 1665 1681 1701 1724 1738 1736 1728 1715 1697 1675 1648 1617 1587 1566 1550 1546 1545 1540 1532 1525 1517 1511 1505 1494 1476 1454 1430 1409 1395 1387 1379 1366 1359 1366 1376 1379 1381 1389 1407 1449 1495 1525 1548 1567 1584 1604 1620 1615 1601 1593 1590 1597 1608 1609 1609 1616 1636 1665 1696 1723 1738 1739 1731 1704 1670 1644 1627 1619 1622 1629 1640 1656 1676 1698 1716 1722 1722 1724 1732 1752 1765 1755 1734 1704 1678 1664 1657 1659 1661 1654 1639 1612 1586 1573 1567 1566 1561 1544 1522 1497 1475 1459 1450 1453 1462 1467 1470 1471 1469 1465 1458 1447 1437 1434 1436 1439 1441 1440 1437 1437 1435 1429 1419 1403 1389 1383 1382 1387 1388 1376 1360 1341 1326 1315 1308 1310 1317 1323 1326 1323 1314 1300 1281 1251 1221 1200 1186 1176 1173 1173 1176 1180 1187 1198 1210 1226 1239 1244 1247 1252 1254 1252 1245 1233 1218 1206 1196 1190 1182 1170 1155 1137 1123 1120 1122 1124 1124 1121 1116 1112 1110 1110 1113 1124 1140 1154 1167 1176 1180
1527 1527 1525 1519 1511 1499 1483 1469 1468 1474 1494 1518 1531 1537 1530 1520 1516 1518 1528 1542 1551 1556 1555 1550 1546 1540 1526 1506 1486 1471 1469 1473 1474 1474 1481 1493 1509 1524 1533 1538 1542 1549 1558 1567 1573 1575 1568 1563 1570 1583 1604 1623 1631 1632 1625 1618 1621 1626 1629 1628 1624 1622 1628 1639 1646 1650 1649 1652 1666 1686 1711 1727 1725 1716 1702 1683 1660 1633 1600 1569 1547 1531 1527 1528 1522 1515 1507 1499 1493 1487 1479 1464 1443 1419 1397 1382 1374 1365 1350 1340 1346 1356 1360 1361 1369 1389 1433 1483 1514 1538 1558 1576 1597 1613 1606 1589 1581 1578 1586 1597 1600 1600 1610 1632 1663 1695 1724 1741 1744 1736 1707 1671 1646 1629 1620 1622 1631 1643 1661 1683 1707 1727 1735 1738 1741 1751 1773 1788 1780 1759 1729 1702 1689 1683 1689 1693 1687 1671 1638 1607 1593 1589 1592 1590 1574 1552 1526 1502 1487 1477 1481 1490 1495 1498 1498 1495 1490 1483 1470 1460 1458 1459 1463 1465 1463 1460 1458 1454 1448 1437 1420 1403 1396 1396 1403 1407 1395 1378 1358 1342 1331 1324 1325 1332 1338 1341 1339 1330 1316 1297 1267 1236 1214 1199 1189 1185 1185 1188 1192 1198 1209 1221 1237 1251 1256 1260 1266 1270 1268 1261 1247 1232 1219 1210 1203 1195 1183 1168 1149 1134 1132 1133 1137 1138 1134 1129 1125 1122 1122 1125 1137 1154 1170 1183 1190 1193
1523 1522 1519 1513 1504 1493 1478 1467 1465 1472 1491 1513 1526 1532 1525 1515 1512 1514 1525 1539 1549 1554 1552 1546 1542 1536 1525 1507 1488 1472 1467 1469 1470 1470 1477 1490 1505 1520 1529 1533 1537 1544 1553 1561 1566 1569 1564 1561 1568 1580 1600 1618 1626 1627 1622 1617 1619 1624 1625 1624 1619 1616 1621 1631 1638 1641 1640 1643 1658 1677 1700 1716 1714 1704 1688 1668 1644 1617 1585 1556 1534 1518 1512 1510 1504 1496 1488 1481 1474 1468 1460 1445 1424 1402 1381 1367 1360 1351 1338 1330 1336 1346 1350 1353 1361 1380 1422 1467 1498 1521 1541 1559 1580 1596 1591 1576 1568 1567 1575 1586 1590 1591 1603 1627 1659 1691 1719 1735 1739 1732 1706 1672 1648 1632 1626 1630 1640 1653 1674 1700 1725 1746 1754 1755 1759 1770 1793 1809 1801 1782 1753 1727 1715 1710 1715 1719 1713 1698 1666 1636 1623 1619 1622 1620 1604 1582 1556 1532 1516 1506 1508 1516 1520 1523 1522 1518 1513 1505 1493 1483 1480 1481 1485 1488 1485 1481 1477 1471 1464 1453 1438 1423 1416 1415 1420 1421 1410 1392 1373 1356 1345 1338 1338 1344 1349 1352 1349 1340 1325 1306 1278 1249 1228 1213 1204 1201 1202 1204 1207 1213 1224 1236 1251 1263 1268 1272 1277 1280 1278 1271 1259 1246 1234 1223 1216 1207 1195 1180 1161 1147 1145 1147 1151 1153 1150 1144 1139 1135 1135 1138 1150 1167 1182 1195 1203 1206
1516 1515 1509 1500 1491 1482 1472 1467 1467 1472 1487 1505 1516 1521 1516 1507 1504 1507 1521 1539 1550 1554 1549 1541 1536 1532 1527 1517 1501 1484 1471 1464 1462 1463 1470 1483 1497 1510 1517 1521 1525 1531 1537 1543 1548 1553 1556 1560 1568 1580 1597 1612 1619 1622 1622 1623 1627 1630 1627 1621 1616 1613 1616 1622 1627 1632 1634 1639 1653 1670 1693 1708 1706 1694 1675 1650 1625 1599 1572 1548 1528 1510 1498 1489 1481 1473 1465 1458 1451 1445 1436 1422 1404 1386 1370 1360 1354 1347 1339 1336 1342 1351 1357 1364 1373 1389 1418 1451 1477 1498 1513 1529 1549 1567 1565 1554 1550 1550 1558 1568 1572 1575 1592 1621 1654 1684 1706 1716 1719 1714 1694 1666 1644 1629 1630 1640 1653 1669 1697 1731 1761 1782 1782 1776 1778 1790 1813 1829 1821 1803 1777 1755 1744 1739 1740 1741 1734 1721 1694 1668 1656 1653 1656 1656 1642 1621 1594 1569 1552 1540 1537 1538 1540 1540 1538 1534 1528 1521 1511 1503 1501 1502 1508 1513 1510 1504 1493 1481 1470 1461 1454 1449 1444 1440 1438 1432 1420 1404 1387 1372 1361 1352 1349 1351 1354 1355 1350 1338 1323 1305 1284 1261 1243 1230 1225 1226 1227 1229 1230 1234 1243 1255 1266 1274 1278 1281 1284 1284 1280 1274 1267 1259 1249 1238 1225 1213 1200 1187 1171 1159 1157 1160 1167 1173 1170 1164 1155 1148 1147 1150 1162 1178 1193 1206 1213 1216
1510 1508 1499 1487 1478 1471 1468 1468 1470 1474 1484 1496 1504 1507 1502 1495 1492 1496 1514 1535 1548 1553 1545 1534 1528 1527 1529 1527 1515 1497 1477 1462 1458 1458 1466 1477 1488 1498 1502 1504 1509 1514 1518 1522 1528 1536 1546 1557 1567 1578 1592 1605 1612 1618 1624 1630 1635 1637 1630 1621 1617 1615 1616 1619 1623 1628 1632 1640 1651 1666 1687 1702 1699 1686 1663 1635 1608 1582 1560 1541 1522 1503 1484 1469 1458 1449 1442 1435 1428 1422 1414 1403 1390 1377 1369 1364 1360 1355 1352 1352 1355 1361 1368 1376 1385 1398 1415 1434 1453 1469 1480 1491 1510 1529 1531 1526 1526 1528 1537 1547 1551 1557 1579 1612 1645 1673 1687 1691 1693 1690 1675 1653 1632 1620 1626 1643 1658 1678 1714 1758 1795 1818 1812 1798 1800 1812 1835 1849 1842 1825 1803 1784 1775 1770 1767 1764 1757 1745 1724 1703 1692 1689 1694 1697 1687 1669 1642 1617 1599 1585 1575 1569 1565 1562 1557 1551 1544 1538 1530 1525 1523 1524 1532 1539 1536 1527 1510 1489 1475 1465 1467 1471 1468 1462 1453 1441 1429 1417 1403 1391 1380 1371 1364 1360 1360 1359 1350 1335 1319 1304 1289 1274 1259 1248 1248 1252 1255 1255 1254 1255 1264 1274 1281 1286 1289 1291 1291 1287 1280 1273 1271 1268 1259 1247 1231 1215 1204 1194 1181 1171 1169 1173 1184 1193 1191 1184 1172 1162 1160 1164 1175 1191 1205 1217 1224 1226
1505 1503 1494 1482 1473 1468 1467 1469 1470 1473 1481 1489 1494 1495 1488 1480 1478 1482 1501 1524 1538 1545 1538 1526 1520 1520 1525 1527 1518 1502 1481 1465 1460 1461 1467 1475 1482 1487 1488 1489 1493 1499 1503 1508 1515 1525 1539 1552 1562 1573 1586 1599 1608 1616 1624 1632 1636 1637 1630 1622 1620 1620 1622 1625 1629 1633 1637 1643 1651 1662 1680 1694 1690 1677 1653 1623 1595 1569 1548 1530 1511 1491 1471 1454 1441 1431 1423 1416 1409 1403 1397 1391 1385 1380 1379 1378 1374 1370 1367 1365 1364 1365 1368 1374 1382 1392 1404 1416 1428 1439 1445 1454 1472 1491 1495 1494 1498 1504 1516 1528 1534 1541 1564 1597 1629 1655 1668 1670 1671 1670 1657 1636 1616 1605 1613 1632 1649 1671 1713 1764 1807 1835 1832 1818 1820 1834 1857 1872 1865 1848 1828 1812 1805 1801 1799 1796 1789 1778 1758 1738 1728 1726 1734 1740 1735 1722 1699 1674 1656 1641 1626 1614 1605 1597 1588 1580 1572 1565 1558 1553 1549 1550 1558 1565 1561 1551 1530 1505 1486 1475 1477 1482 1479 1472 1462 1451 1443 1436 1425 1415 1405 1395 1386 1379 1376 1371 1359 1343 1327 1312 1300 1288 1275 1265 1267 1272 1274 1274 1271 1272 1280 1290 1296 1300 1302 1304 1302 1296 1285 1275 1272 1270 1261 1249 1233 1218 1210 1203 1193 1185 1183 1188 1199 1209 1208 1201 1188 1177 1176 1179 1190 1206 1219 1230 1236 1238
1501 1499 1491 1481 1474 1469 1468 1470 1470 1472 1477 1482 1483 1481 1473 1465 1462 1467 1486 1509 1525 1533 1528 1518 1513 1512 1519 1523 1516 1503 1484 1469 1464 1465 1468 1473 1475 1476 1476 1477 1482 1488 1494 1501 1511 1522 1535 1547 1557 1567 1580 1593 1603 1612 1622 1630 1634 1634 1628 1621 1622 1625 1628 1632 1636 1640 1643 1647 1651 1658 1673 1685 1681 1669 1645 1615 1587 1560 1537 1517 1498 1478 1457 1439 1425 1415 1407 1401 1395 1389 1385 1383 1383 1385 1389 1390 1387 1384 1380 1376 1370 1365 1364 1367 1374 1381 1388 1393 1399 1405 1408 1416 1434 1453 1460 1463 1471 1482 1497 1511 1518 1526 1547 1578 1608 1633 1644 1646 1648 1648 1637 1618 1598 1587 1596 1616 1635 1658 1703 1759 1808 1844 1845 1835 1840 1854 1877 1891 1884 1869 1851 1839 1835 1833 1832 1830 1825 1815 1794 1775 1766 1764 1775 1787 1788 1780 1759 1735 1717 1700 1683 1666 1651 1638 1625 1614 1606 1598 1590 1584 1579 1579 1584 1588 1584 1573 1552 1527 1505 1489 1487 1489 1485 1478 1469 1462 1458 1455 1448 1439 1429 1420 1411 1403 1397 1389 1375 1357 1341 1326 1314 1303 1291 1282 1284 1289 1290 1289 1286 1286 1294 1304 1311 1316 1319 1321 1317 1307 1293 1279 1272 1267 1258 1247 1233 1222 1217 1214 1207 1200 1199 1203 1215 1225 1224 1217 1205 1196 1195 1199 1209 1222 1235 1245 1251 1252
1494 1494 1490 1484 1479 1474 1472 1472 1472 1472 1472 1472 1470 1466 1458 1452 1450 1454 1470 1491 1507 1518 1517 1510 1506 1506 1512 1517 1512 1501 1484 1469 1465 1465 1466 1466 1465 1465 1468 1474 1481 1489 1498 1509 1521 1531 1539 1545 1553 1562 1573 1584 1594 1604 1615 1625 1628 1628 1622 1618 1620 1625 1630 1635 1640 1644 1647 1651 1653 1657 1668 1676 1672 1660 1640 1613 1586 1557 1528 1503 1482 1462 1439 1419 1404 1394 1392 1390 1385 1379 1374 1372 1377 1384 1388 1388 1386 1383 1382 1378 1369 1361 1359 1362 1367 1371 1367 1361 1360 1363 1369 1381 1400 1419 1433 1443 1456 1470 1486 1501 1509 1516 1531 1554 1581 1605 1614 1615 1618 1620 1614 1600 1583 1572 1581 1603 1623 1648 1693 1750 1804 1846 1855 1850 1857 1871 1888 1897 1889 1878 1869 1866 1866 1867 1868 1867 1863 1853 1833 1814 1805 1805 1822 1840 1846 1841 1823 1799 1779 1761 1738 1714 1694 1676 1662 1651 1642 1633 1624 1617 1612 1608 1607 1605 1598 1588 1575 1557 1534 1514 1503 1498 1491 1484 1476 1471 1471 1471 1466 1458 1448 1440 1435 1430 1423 1413 1395 1374 1357 1343 1330 1317 1305 1297 1299 1303 1302 1300 1296 1295 1303 1314 1327 1338 1343 1343 1336 1321 1304 1286 1270 1258 1248 1238 1231 1226 1225 1225 1221 1217 1217 1221 1233 1243 1242 1236 1228 1223 1224 1227 1232 1240 1251 1261 1265 1266
1489 1489 1489 1488 1483 1478 1475 1474 1472 1470 1466 1461 1456 1451 1445 1441 1440 1444 1457 1475 1491 1503 1506 1502 1499 1500 1506 1511 1507 1497 1481 1467 1463 1462 1461 1459 1456 1456 1464 1476 1485 1495 1507 1521 1534 1544 1546 1546 1551 1559 1567 1575 1584 1594 1607 1617 1620 1619 1614 1610 1613 1619 1625 1631 1635 1639 1644 1649 1651 1653 1660 1665 1660 1650 1633 1610 1583 1554 1520 1489 1468 1447 1423 1401 1385 1377 1379 1383 1380 1374 1366 1363 1370 1378 1381 1380 1376 1374 1376 1375 1364 1353 1352 1356 1358 1357 1344 1328 1321 1322 1332 1348 1368 1388 1407 1424 1440 1456 1472 1486 1496 1502 1511 1527 1552 1576 1584 1584 1587 1591 1591 1583 1567 1557 1568 1591 1613 1639 1683 1740 1797 1843 1858 1859 1868 1881 1893 1897 1890 1882 1884 1890 1896 1899 1902 1903 1900 1892 1872 1853 1845 1846 1868 1892 1901 1898 1880 1855 1835 1815 1787 1757 1734 1714 1699 1688 1678 1668 1659 1651 1645 1639 1631 1622 1612 1604 1599 1588 1565 1541 1522 1510 1502 1494 1486 1483 1485 1486 1481 1473 1464 1457 1457 1456 1449 1437 1417 1394 1377 1363 1348 1334 1322 1314 1314 1317 1315 1311 1306 1305 1311 1324 1343 1359 1366 1365 1355 1336 1317 1296 1273 1254 1243 1235 1233 1234 1236 1237 1236 1235 1235 1239 1251 1262 1261 1257 1252 1251 1253 1255 1256 1259 1269 1279 1283 1283
1486 1487 1488 1487 1482 1476 1472 1470 1467 1464 1458 1451 1446 1441 1435 1432 1431 1435 1447 1465 1482 1495 1498 1496 1494 1494 1501 1506 1503 1493 1477 1463 1459 1458 1457 1454 1451 1452 1462 1477 1487 1497 1510 1525 1539 1549 1549 1546 1551 1558 1564 1571 1579 1588 1600 1610 1612 1609 1603 1599 1601 1606 1612 1618 1622 1626 1631 1636 1638 1640 1646 1651 1647 1637 1622 1600 1574 1545 1510 1479 1458 1438 1414 1392 1376 1369 1373 1378 1375 1369 1361 1358 1365 1373 1376 1374 1370 1368 1371 1370 1358 1346 1343 1345 1345 1341 1323 1302 1293 1291 1301 1318 1337 1356 1376 1394 1410 1426 1443 1458 1468 1476 1484 1499 1525 1549 1558 1558 1562 1567 1569 1563 1549 1540 1552 1577 1600 1628 1673 1732 1791 1840 1857 1860 1871 1885 1897 1901 1896 1891 1897 1910 1919 1926 1932 1935 1935 1928 1910 1891 1883 1886 1909 1936 1946 1944 1925 1900 1880 1859 1829 1798 1773 1752 1736 1724 1714 1703 1693 1684 1676 1668 1658 1646 1634 1625 1621 1612 1588 1562 1541 1526 1516 1508 1500 1497 1499 1501 1496 1488 1480 1474 1475 1476 1471 1459 1438 1416 1399 1385 1370 1356 1344 1335 1334 1336 1333 1328 1321 1319 1324 1336 1357 1375 1381 1381 1369 1350 1331 1309 1285 1265 1253 1246 1245 1249 1251 1253 1253 1252 1253 1257 1269 1279 1279 1275 1272 1272 1275 1278 1278 1281 1291 1301 1305 1306
1485 1485 1487 1486 1481 1474 1468 1463 1459 1455 1450 1444 1438 1433 1427 1423 1423 1426 1439 1456 1473 1487 1492 1492 1490 1491 1496 1500 1496 1487 1473 1460 1457 1456 1454 1451 1448 1449 1460 1475 1486 1497 1511 1526 1539 1549 1549 1547 1551 1557 1563 1569 1576 1584 1595 1603 1603 1600 1593 1589 1590 1594 1598 1601 1604 1608 1613 1617 1619 1621 1628 1633 1629 1620 1605 1584 1559 1532 1500 1472 1452 1432 1408 1386 1371 1364 1368 1374 1372 1366 1358 1356 1362 1370 1372 1369 1366 1364 1366 1364 1351 1338 1332 1331 1328 1321 1304 1284 1273 1269 1275 1289 1306 1324 1341 1358 1374 1389 1406 1421 1433 1442 1455 1474 1501 1527 1536 1538 1542 1548 1548 1540 1527 1520 1531 1555 1580 1609 1655 1714 1775 1826 1848 1855 1867 1884 1900 1908 1907 1905 1914 1929 1942 1953 1961 1966 1968 1964 1948 1931 1924 1926 1947 1971 1980 1979 1964 1942 1923 1901 1870 1836 1811 1790 1775 1764 1753 1741 1727 1716 1706 1697 1685 1672 1659 1649 1643 1632 1607 1580 1558 1543 1533 1524 1517 1513 1516 1518 1514 1507 1500 1494 1494 1494 1488 1477 1458 1437 1421 1408 1394 1380 1368 1359 1357 1356 1352 1346 1340 1338 1343 1354 1371 1387 1393 1393 1383 1366 1347 1326 1301 1281 1269 1262 1262 1265 1267 1270 1270 1269 1270 1273 1284 1293 1293 1290 1288 1289 1293 1297 1299 1303 1314 1324 1329 1329
1483 1484 1487 1488 1482 1473 1463 1453 1447 1444 1443 1441 1437 1432 1423 1416 1416 1419 1429 1443 1459 1473 1485 1490 1490 1490 1489 1488 1483 1476 1467 1460 1458 1457 1452 1447 1444 1445 1457 1472 1484 1494 1507 1521 1535 1545 1548 1549 1552 1558 1565 1571 1577 1584 1593 1599 1598 1594 1588 1584 1584 1584 1581 1578 1579 1583 1587 1591 1593 1594 1601 1605 1602 1594 1577 1555 1533 1509 1488 1469 1452 1433 1406 1380 1365 1357 1362 1369 1367 1362 1355 1352 1358 1365 1364 1359 1355 1352 1353 1349 1337 1324 1314 1308 1302 1295 1288 1278 1268 1261 1259 1265 1279 1295 1306 1317 1332 1347 1363 1378 1389 1403 1429 1461 1490 1514 1524 1527 1533 1536 1528 1513 1500 1494 1500 1519 1543 1572 1615 1671 1732 1786 1821 1840 1857 1877 1905 1925 1930 1932 1942 1958 1974 1987 1995 2000 2004 2003 1992 1979 1973 1973 1979 1988 1993 1994 1991 1981 1964 1941 1907 1871 1845 1826 1819 1814 1803 1788 1767 1748 1736 1726 1714 1702 1687 1675 1665 1651 1626 1599 1578 1563 1553 1545 1540 1539 1541 1543 1541 1537 1531 1524 1516 1508 1500 1489 1473 1456 1442 1430 1416 1403 1393 1385 1381 1377 1371 1366 1366 1369 1373 1380 1388 1395 1399 1401 1397 1386 1370 1349 1322 1299 1288 1281 1279 1281 1284 1286 1287 1287 1287 1289 1295 1300 1298 1296 1296 1298 1304 1310 1316 1324 1335 1344 1349 1350
1479 1480 1485 1488 1482 1472 1456 1442 1434 1431 1435 1439 1437 1432 1421 1412 1411 1414 1421 1432 1446 1461 1477 1488 1490 1488 1482 1475 1470 1466 1463 1462 1461 1459 1452 1445 1441 1442 1454 1469 1481 1492 1503 1516 1531 1543 1549 1552 1556 1561 1568 1575 1579 1583 1590 1595 1592 1588 1583 1578 1576 1572 1561 1551 1550 1553 1557 1560 1561 1561 1567 1572 1569 1561 1544 1522 1502 1485 1475 1466 1453 1433 1403 1374 1357 1349 1354 1361 1360 1355 1348 1345 1350 1354 1351 1343 1338 1335 1334 1331 1321 1309 1298 1289 1279 1273 1275 1276 1267 1257 1247 1245 1257 1270 1276 1282 1295 1311 1327 1341 1352 1370 1407 1450 1477 1496 1505 1509 1515 1517 1500 1479 1469 1466 1468 1482 1506 1535 1574 1626 1686 1744 1790 1821 1842 1867 1906 1940 1952 1959 1971 1988 2007 2022 2031 2036 2042 2044 2037 2029 2025 2021 2012 2004 2001 2002 2009 2011 1998 1974 1937 1899 1874 1860 1861 1863 1853 1834 1806 1779 1764 1753 1742 1730 1714 1700 1687 1670 1646 1622 1603 1589 1578 1570 1567 1568 1569 1570 1571 1568 1563 1555 1539 1522 1509 1496 1482 1469 1457 1445 1433 1423 1416 1410 1406 1401 1394 1389 1394 1401 1404 1405 1404 1402 1403 1406 1409 1405 1392 1373 1345 1320 1308 1301 1298 1299 1302 1306 1307 1307 1307 1308 1309 1309 1306 1305 1306 1310 1317 1324 1334 1346 1355 1362 1365 1366
1474 1475 1481 1483 1477 1466 1449 1433 1424 1421 1426 1433 1433 1430 1419 1410 1410 1414 1419 1428 1440 1454 1470 1482 1485 1483 1477 1469 1465 1463 1463 1464 1464 1461 1454 1445 1441 1443 1454 1469 1481 1492 1504 1518 1534 1547 1555 1558 1560 1564 1570 1576 1578 1580 1585 1588 1584 1578 1572 1565 1558 1550 1535 1522 1520 1523 1526 1529 1528 1528 1533 1537 1535 1528 1512 1494 1479 1467 1462 1458 1446 1428 1397 1367 1349 1340 1344 1351 1350 1345 1338 1334 1337 1339 1334 1325 1319 1316 1316 1315 1309 1301 1292 1282 1270 1263 1266 1268 1258 1246 1233 1229 1238 1250 1254 1259 1273 1290 1306 1320 1332 1350 1389 1429 1451 1463 1467 1469 1475 1477 1461 1441 1436 1439 1445 1459 1484 1514 1553 1603 1663 1722 1771 1806 1828 1855 1900 1942 1961 1973 1990 2011 2033 2051 2062 2069 2077 2082 2078 2072 2069 2064 2050 2034 2025 2021 2028 2031 2018 1995 1957 1921 1899 1888 1893 1898 1888 1868 1836 1806 1789 1777 1766 1752 1736 1720 1706 1691 1669 1647 1630 1618 1606 1597 1594 1593 1593 1592 1592 1590 1585 1577 1558 1536 1518 1502 1487 1473 1462 1452 1443 1437 1435 1434 1432 1428 1420 1416 1420 1426 1426 1422 1415 1410 1411 1414 1419 1419 1409 1392 1365 1340 1329 1322 1319 1320 1324 1329 1331 1331 1331 1332 1331 1330 1327 1326 1328 1333 1340 1348 1358 1368 1374 1378 1378 1378
1467 1469 1473 1475 1469 1457 1440 1425 1416 1413 1417 1423 1425 1424 1417 1411 1413 1417 1422 1429 1439 1451 1465 1476 1479 1478 1474 1469 1466 1466 1466 1467 1467 1465 1459 1452 1448 1449 1458 1472 1484 1495 1507 1522 1539 1553 1561 1564 1566 1569 1573 1577 1578 1577 1578 1577 1571 1564 1555 1546 1536 1524 1508 1495 1493 1495 1497 1498 1496 1495 1499 1503 1502 1496 1483 1470 1460 1452 1450 1448 1437 1419 1389 1359 1340 1330 1332 1338 1337 1333 1326 1321 1322 1322 1316 1308 1302 1298 1300 1302 1301 1297 1291 1282 1270 1261 1261 1259 1248 1234 1221 1215 1223 1233 1237 1242 1257 1275 1292 1307 1319 1335 1368 1400 1414 1420 1420 1420 1426 1429 1416 1403 1404 1413 1425 1444 1471 1501 1539 1589 1648 1707 1757 1794 1819 1846 1892 1935 1959 1978 2000 2024 2049 2070 2085 2096 2107 2115 2116 2113 2112 2107 2088 2066 2050 2040 2042 2042 2029 2007 1973 1942 1924 1916 1920 1924 1912 1891 1860 1832 1814 1801 1787 1771 1752 1735 1723 1710 1691 1672 1656 1643 1631 1621 1616 1614 1611 1609 1607 1604 1600 1592 1572 1548 1526 1506 1489 1475 1465 1457 1451 1449 1453 1457 1460 1457 1450 1444 1446 1447 1443 1436 1427 1421 1421 1425 1430 1430 1423 1408 1383 1360 1349 1342 1341 1343 1348 1354 1358 1359 1360 1360 1358 1355 1352 1351 1354 1361 1369 1376 1385 1392 1394 1394 1391 1388
1460 1462 1465 1465 1458 1447 1432 1419 1411 1406 1404 1405 1407 1410 1413 1416 1420 1424 1428 1433 1442 1451 1462 1469 1471 1472 1473 1474 1474 1474 1475 1475 1474 1474 1472 1470 1467 1466 1470 1479 1489 1500 1512 1527 1545 1560 1569 1573 1574 1575 1579 1583 1581 1576 1568 1558 1549 1541 1531 1519 1506 1494 1481 1474 1473 1474 1473 1471 1468 1466 1468 1470 1468 1464 1458 1453 1447 1442 1440 1436 1425 1409 1380 1350 1331 1320 1317 1319 1317 1313 1308 1305 1305 1305 1302 1296 1291 1288 1290 1294 1296 1296 1294 1289 1277 1265 1259 1252 1238 1224 1210 1204 1211 1220 1222 1226 1241 1259 1277 1292 1304 1317 1337 1354 1360 1361 1361 1365 1372 1376 1370 1364 1371 1386 1408 1435 1464 1494 1529 1575 1632 1693 1750 1794 1821 1847 1884 1920 1946 1970 1994 2020 2047 2072 2093 2111 2126 2139 2150 2157 2159 2153 2126 2093 2071 2055 2049 2043 2029 2009 1988 1969 1956 1947 1943 1937 1922 1903 1881 1860 1844 1827 1807 1784 1763 1746 1736 1726 1709 1691 1675 1661 1648 1637 1631 1627 1623 1618 1613 1608 1604 1597 1579 1555 1531 1509 1491 1478 1470 1464 1462 1467 1475 1484 1490 1490 1484 1476 1472 1466 1457 1448 1440 1436 1437 1440 1443 1442 1436 1423 1400 1378 1367 1361 1362 1368 1374 1381 1390 1396 1397 1396 1389 1380 1376 1376 1385 1396 1405 1413 1418 1420 1419 1415 1407 1400
1454 1455 1457 1455 1448 1437 1425 1414 1406 1400 1393 1389 1391 1397 1409 1420 1427 1432 1434 1438 1446 1455 1461 1465 1467 1470 1476 1483 1485 1485 1484 1483 1483 1483 1487 1489 1487 1485 1484 1487 1496 1505 1517 1533 1550 1565 1575 1579 1579 1579 1583 1585 1583 1574 1556 1538 1526 1517 1506 1493 1479 1466 1459 1457 1458 1458 1454 1449 1445 1442 1442 1443 1442 1439 1439 1440 1438 1434 1431 1424 1414 1398 1371 1343 1325 1312 1306 1303 1300 1298 1295 1293 1293 1293 1293 1292 1288 1284 1287 1292 1295 1296 1298 1295 1283 1271 1259 1246 1231 1215 1201 1195 1201 1208 1208 1211 1225 1243 1260 1276 1287 1297 1305 1309 1309 1308 1312 1319 1327 1333 1332 1333 1344 1362 1392 1425 1457 1486 1518 1560 1617 1679 1744 1795 1824 1848 1876 1904 1930 1956 1982 2009 2038 2066 2093 2118 2136 2153 2175 2192 2198 2190 2156 2115 2089 2069 2056 2045 2030 2014 2003 1996 1987 1976 1963 1946 1928 1911 1897 1884 1870 1851 1823 1794 1771 1753 1745 1737 1721 1704 1686 1669 1655 1643 1637 1632 1627 1621 1613 1606 1602 1596 1581 1558 1534 1511 1494 1484 1477 1473 1475 1484 1496 1508 1517 1519 1513 1505 1495 1483 1472 1462 1456 1454 1456 1458 1459 1456 1450 1438 1416 1395 1384 1379 1382 1390 1398 1406 1419 1429 1432 1429 1416 1402 1397 1398 1412 1429 1439 1446 1447 1446 1443 1437 1425 1414
1448 1449 1450 1449 1441 1431 1419 1409 1402 1396 1388 1383 1385 1392 1407 1422 1430 1435 1438 1442 1450 1459 1465 1468 1471 1474 1482 1490 1493 1494 1493 1491 1490 1492 1496 1500 1498 1495 1493 1494 1501 1510 1522 1536 1552 1566 1576 1579 1578 1577 1579 1580 1576 1566 1545 1523 1510 1500 1489 1476 1461 1448 1442 1441 1442 1442 1438 1431 1427 1424 1424 1425 1424 1422 1424 1427 1426 1424 1420 1414 1405 1390 1365 1338 1321 1309 1302 1299 1297 1295 1293 1291 1291 1292 1293 1292 1288 1285 1287 1292 1295 1297 1299 1296 1284 1270 1258 1243 1226 1210 1195 1188 1193 1199 1198 1199 1212 1228 1245 1259 1270 1278 1283 1284 1282 1281 1286 1294 1303 1309 1310 1313 1324 1344 1375 1411 1443 1473 1504 1546 1603 1666 1732 1786 1816 1841 1866 1893 1920 1948 1975 2003 2033 2063 2094 2121 2142 2161 2187 2209 2216 2210 2174 2131 2105 2086 2071 2059 2043 2028 2021 2016 2008 1996 1979 1960 1940 1922 1910 1899 1884 1864 1834 1802 1777 1759 1750 1742 1726 1708 1690 1672 1657 1644 1637 1632 1627 1620 1612 1605 1600 1595 1581 1560 1537 1515 1499 1491 1485 1482 1487 1498 1511 1525 1535 1539 1534 1526 1515 1502 1490 1480 1475 1473 1475 1477 1477 1473 1467 1455 1434 1413 1402 1397 1401 1409 1416 1425 1439 1450 1453 1450 1436 1420 1414 1416 1431 1449 1459 1466 1467 1464 1461 1454 1441 1430
1442 1443 1445 1444 1437 1427 1415 1405 1399 1393 1385 1381 1384 1392 1407 1422 1431 1436 1440 1445 1453 1463 1469 1473 1476 1479 1487 1494 1497 1498 1498 1497 1496 1498 1503 1507 1505 1502 1499 1499 1506 1514 1525 1538 1553 1566 1574 1576 1573 1571 1570 1569 1563 1553 1533 1511 1498 1487 1476 1462 1447 1434 1427 1425 1425 1425 1422 1418 1414 1411 1411 1413 1412 1411 1411 1413 1413 1411 1410 1406 1397 1385 1361 1337 1321 1310 1305 1303 1302 1300 1298 1296 1296 1296 1297 1296 1292 1288 1290 1295 1297 1299 1300 1296 1284 1270 1256 1240 1223 1206 1189 1180 1183 1188 1187 1188 1200 1215 1229 1242 1251 1259 1265 1267 1266 1265 1268 1275 1283 1290 1292 1296 1309 1329 1360 1395 1426 1458 1492 1537 1595 1656 1719 1769 1799 1825 1854 1884 1912 1940 1968 1996 2028 2060 2091 2120 2142 2163 2190 2213 2222 2218 2189 2151 2128 2109 2094 2082 2066 2050 2041 2034 2025 2013 1997 1978 1957 1939 1925 1912 1895 1874 1843 1812 1786 1766 1755 1746 1729 1710 1690 1672 1656 1643 1635 1630 1624 1618 1610 1603 1600 1595 1582 1561 1539 1519 1505 1498 1493 1492 1497 1510 1524 1538 1549 1553 1549 1542 1530 1517 1505 1495 1490 1488 1490 1492 1492 1488 1482 1471 1452 1433 1423 1417 1419 1426 1432 1440 1453 1464 1466 1463 1451 1438 1432 1433 1446 1463 1473 1479 1481 1480 1477 1470 1457 1445
1431 1433 1439 1442 1437 1427 1415 1403 1397 1392 1386 1383 1387 1395 1410 1424 1433 1439 1444 1448 1456 1464 1470 1475 1478 1481 1485 1489 1491 1492 1495 1497 1497 1499 1506 1512 1512 1509 1505 1503 1508 1516 1527 1540 1553 1564 1570 1570 1566 1561 1554 1547 1539 1529 1515 1501 1489 1478 1467 1454 1440 1426 1414 1407 1406 1408 1411 1413 1411 1410 1411 1413 1412 1410 1404 1399 1397 1397 1399 1399 1393 1382 1364 1344 1331 1322 1320 1321 1321 1319 1315 1310 1309 1308 1307 1306 1301 1298 1299 1304 1306 1306 1305 1298 1285 1270 1255 1238 1220 1201 1180 1166 1167 1171 1173 1177 1188 1201 1212 1220 1228 1236 1247 1255 1257 1256 1253 1253 1260 1268 1275 1284 1300 1321 1350 1383 1414 1448 1494 1549 1607 1662 1706 1739 1766 1795 1834 1873 1903 1930 1954 1980 2012 2045 2076 2104 2126 2148 2174 2196 2206 2209 2200 2184 2168 2151 2135 2120 2104 2086 2068 2053 2041 2030 2018 2003 1983 1962 1944 1927 1907 1884 1854 1824 1798 1776 1760 1745 1726 1707 1685 1665 1649 1635 1626 1620 1613 1607 1602 1597 1595 1591 1578 1559 1541 1525 1514 1508 1505 1505 1511 1522 1536 1549 1559 1563 1559 1551 1537 1520 1507 1498 1492 1491 1493 1495 1496 1494 1489 1482 1473 1464 1456 1448 1442 1440 1443 1450 1460 1467 1469 1467 1464 1459 1456 1456 1462 1471 1479 1487 1494 1498 1496 1489 1474 1460
1418 1420 1430 1438 1435 1428 1415 1403 1397 1393 1388 1387 1393 1403 1417 1430 1440 1447 1451 1454 1458 1463 1468 1473 1476 1479 1479 1480 1481 1483 1488 1492 1493 1495 1505 1514 1517 1517 1512 1508 1512 1519 1529 1541 1552 1560 1564 1562 1557 1549 1536 1523 1513 1504 1497 1489 1478 1467 1458 1447 1433 1419 1403 1392 1390 1393 1403 1412 1413 1413 1416 1418 1419 1415 1403 1391 1386 1385 1390 1394 1390 1382 1368 1353 1343 1337 1338 1342 1343 1341 1334 1326 1322 1318 1316 1313 1309 1305 1306 1310 1312 1311 1307 1297 1284 1270 1254 1236 1217 1197 1171 1152 1150 1155 1159 1166 1177 1187 1194 1198 1203 1212 1228 1242 1249 1250 1242 1237 1242 1251 1264 1280 1299 1323 1352 1383 1413 1449 1504 1568 1623 1668 1692 1707 1729 1761 1809 1856 1886 1908 1927 1950 1982 2016 2046 2073 2095 2116 2141 2162 2174 2184 2197 2204 2199 2188 2173 2156 2140 2120 2094 2070 2055 2045 2038 2027 2007 1984 1962 1938 1913 1886 1857 1829 1802 1778 1756 1736 1715 1694 1672 1650 1633 1619 1609 1601 1594 1588 1585 1583 1582 1580 1568 1554 1542 1533 1527 1525 1523 1524 1528 1538 1549 1559 1567 1570 1566 1557 1540 1520 1505 1495 1489 1489 1490 1493 1495 1496 1494 1492 1495 1495 1490 1481 1466 1455 1455 1460 1466 1470 1471 1472 1477 1481 1481 1480 1479 1481 1487 1495 1507 1516 1516 1509 1492 1477
1403 1407 1418 1428 1429 1424 1413 1402 1397 1394 1391 1392 1400 1412 1427 1441 1452 1459 1462 1462 1462 1463 1465 1468 1472 1475 1475 1474 1475 1477 1482 1487 1489 1491 1502 1515 1521 1524 1520 1517 1519 1525 1533 1543 1550 1556 1557 1553 1546 1536 1521 1506 1495 1487 1482 1475 1464 1453 1444 1434 1422 1409 1394 1382 1379 1383 1395 1407 1411 1413 1417 1421 1423 1419 1405 1390 1383 1381 1386 1391 1388 1380 1369 1357 1349 1345 1348 1353 1354 1353 1344 1334 1326 1320 1315 1311 1306 1302 1302 1306 1307 1306 1301 1292 1279 1265 1250 1232 1213 1192 1165 1145 1142 1145 1149 1156 1164 1173 1177 1179 1182 1189 1206 1225 1235 1240 1235 1229 1235 1245 1260 1280 1305 1333 1364 1395 1424 1459 1514 1574 1622 1658 1672 1680 1701 1734 1783 1830 1855 1874 1889 1910 1943 1977 2008 2034 2056 2077 2100 2122 2136 2151 2173 2193 2199 2196 2187 2173 2158 2138 2110 2084 2068 2057 2050 2040 2020 1996 1970 1941 1910 1878 1846 1816 1788 1763 1739 1716 1695 1674 1650 1628 1611 1597 1586 1577 1569 1563 1560 1560 1561 1560 1553 1546 1543 1543 1545 1546 1547 1547 1551 1558 1565 1572 1577 1577 1573 1564 1546 1524 1508 1496 1490 1489 1491 1493 1497 1501 1503 1506 1514 1520 1516 1507 1490 1476 1474 1477 1480 1483 1483 1484 1492 1500 1501 1500 1498 1498 1503 1511 1524 1534 1535 1528 1511 1496
1389 1392 1404 1417 1420 1418 1409 1400 1396 1395 1395 1399 1409 1423 1440 1454 1465 1473 1475 1472 1469 1465 1463 1464 1468 1471 1471 1471 1472 1474 1480 1485 1487 1489 1499 1512 1521 1527 1527 1525 1527 1530 1536 1542 1547 1549 1548 1543 1535 1524 1509 1494 1483 1474 1467 1458 1447 1435 1427 1420 1410 1399 1384 1373 1371 1374 1385 1396 1402 1407 1414 1421 1424 1421 1408 1392 1383 1379 1382 1386 1384 1377 1366 1356 1349 1346 1350 1355 1357 1355 1346 1333 1323 1314 1306 1300 1295 1291 1292 1297 1298 1298 1293 1284 1273 1260 1245 1227 1208 1188 1162 1143 1139 1141 1145 1150 1157 1163 1167 1169 1171 1176 1189 1206 1219 1228 1227 1226 1233 1243 1259 1282 1310 1343 1380 1414 1443 1475 1521 1569 1607 1636 1649 1659 1681 1714 1758 1797 1818 1832 1846 1867 1901 1937 1965 1989 2010 2031 2057 2081 2098 2114 2138 2162 2177 2184 2183 2175 2162 2145 2120 2097 2082 2069 2060 2047 2026 2000 1971 1938 1901 1864 1828 1795 1766 1740 1714 1690 1668 1647 1624 1604 1587 1572 1560 1549 1540 1534 1532 1534 1536 1538 1538 1539 1547 1556 1565 1570 1572 1573 1575 1578 1581 1583 1585 1584 1580 1571 1553 1532 1515 1502 1493 1490 1491 1494 1500 1507 1514 1521 1532 1540 1538 1529 1513 1499 1495 1496 1499 1501 1501 1502 1509 1515 1517 1517 1517 1519 1523 1530 1542 1551 1552 1545 1529 1515
1377 1380 1392 1405 1411 1411 1404 1395 1393 1394 1400 1411 1425 1440 1455 1468 1478 1487 1491 1488 1482 1474 1467 1464 1468 1471 1472 1472 1473 1476 1484 1491 1493 1493 1496 1502 1511 1520 1527 1530 1531 1533 1536 1540 1541 1541 1539 1534 1526 1515 1503 1490 1480 1469 1454 1438 1425 1414 1409 1406 1398 1388 1375 1366 1364 1365 1370 1376 1381 1389 1403 1415 1420 1419 1408 1393 1384 1378 1378 1379 1376 1370 1358 1345 1339 1337 1339 1342 1343 1341 1333 1321 1309 1297 1287 1279 1273 1270 1276 1285 1289 1288 1285 1277 1267 1256 1239 1220 1201 1182 1162 1148 1145 1146 1149 1153 1159 1165 1174 1180 1182 1182 1182 1186 1198 1211 1219 1225 1234 1244 1258 1280 1310 1348 1398 1444 1475 1500 1524 1547 1573 1600 1627 1654 1681 1710 1740 1763 1777 1789 1808 1836 1872 1906 1927 1942 1961 1983 2016 2048 2068 2082 2096 2113 2132 2148 2158 2158 2149 2137 2127 2116 2104 2089 2069 2046 2022 1996 1964 1926 1884 1843 1805 1772 1743 1714 1685 1657 1634 1613 1597 1582 1566 1550 1534 1520 1510 1504 1504 1508 1512 1518 1527 1541 1558 1575 1589 1597 1600 1600 1596 1592 1590 1590 1591 1590 1585 1577 1564 1548 1531 1515 1501 1492 1492 1495 1504 1516 1527 1537 1549 1557 1556 1549 1535 1522 1519 1519 1523 1526 1527 1526 1526 1527 1527 1530 1536 1543 1548 1553 1560 1564 1564 1558 1545 1533
1364 1367 1379 1393 1400 1401 1395 1388 1386 1390 1403 1420 1437 1453 1466 1476 1487 1497 1502 1501 1494 1484 1473 1467 1470 1475 1476 1477 1478 1481 1491 1501 1503 1501 1496 1494 1501 1512 1524 1531 1532 1532 1532 1534 1533 1531 1529 1525 1516 1505 1495 1486 1476 1462 1441 1418 1402 1392 1391 1390 1384 1375 1364 1356 1354 1354 1351 1351 1356 1366 1386 1404 1411 1411 1403 1390 1381 1374 1371 1370 1368 1361 1347 1332 1326 1324 1324 1325 1324 1323 1316 1305 1292 1278 1267 1258 1251 1248 1260 1274 1279 1279 1277 1271 1263 1253 1236 1215 1197 1180 1165 1156 1154 1155 1157 1161 1165 1172 1184 1195 1197 1192 1178 1169 1178 1193 1208 1221 1231 1241 1253 1272 1301 1343 1403 1460 1492 1510 1512 1513 1530 1558 1600 1645 1677 1703 1719 1728 1736 1749 1774 1808 1847 1880 1893 1900 1917 1941 1981 2021 2044 2056 2059 2066 2087 2110 2128 2135 2130 2124 2129 2133 2124 2106 2077 2044 2018 1991 1956 1915 1870 1826 1788 1756 1726 1695 1661 1629 1604 1585 1575 1566 1551 1534 1514 1496 1485 1481 1483 1489 1496 1506 1524 1546 1570 1591 1608 1618 1622 1622 1613 1602 1598 1596 1597 1596 1591 1584 1576 1564 1548 1530 1510 1496 1494 1497 1509 1524 1538 1550 1563 1570 1570 1566 1554 1544 1540 1541 1547 1552 1553 1550 1544 1538 1537 1541 1552 1565 1570 1573 1575 1575 1572 1567 1557 1547
1349 1352 1364 1378 1386 1389 1383 1377 1377 1383 1398 1419 1437 1453 1467 1477 1488 1498 1505 1504 1497 1488 1476 1470 1474 1478 1480 1481 1483 1486 1497 1507 1510 1507 1499 1495 1501 1512 1523 1530 1530 1527 1526 1525 1523 1519 1517 1512 1502 1491 1481 1472 1462 1448 1424 1399 1383 1373 1373 1373 1367 1359 1348 1340 1338 1338 1334 1332 1337 1348 1369 1389 1398 1399 1392 1381 1373 1366 1363 1362 1360 1354 1339 1325 1319 1317 1316 1315 1315 1313 1306 1295 1281 1267 1255 1246 1238 1236 1248 1264 1269 1271 1270 1266 1260 1252 1236 1217 1200 1184 1171 1163 1161 1161 1163 1166 1169 1174 1186 1196 1197 1189 1171 1157 1164 1178 1194 1208 1220 1229 1240 1257 1286 1326 1388 1445 1475 1489 1484 1478 1491 1518 1564 1613 1647 1673 1685 1690 1698 1711 1738 1775 1815 1847 1859 1864 1882 1908 1951 1994 2019 2032 2033 2039 2062 2089 2112 2123 2121 2119 2129 2138 2132 2115 2083 2047 2020 1993 1957 1914 1868 1823 1783 1750 1718 1686 1650 1616 1590 1571 1562 1554 1540 1522 1501 1482 1472 1469 1473 1482 1491 1503 1525 1551 1577 1601 1619 1630 1635 1635 1625 1613 1608 1605 1606 1605 1599 1591 1584 1572 1555 1536 1514 1499 1496 1500 1512 1529 1543 1557 1570 1579 1581 1578 1569 1560 1558 1560 1566 1572 1572 1569 1561 1553 1551 1554 1567 1580 1585 1586 1585 1583 1580 1574 1564 1555
1334 1337 1349 1363 1371 1375 1371 1366 1368 1376 1392 1414 1433 1450 1463 1473 1484 1495 1502 1503 1497 1488 1477 1472 1475 1481 1485 1488 1491 1494 1503 1512 1515 1512 1505 1501 1507 1515 1524 1528 1526 1521 1519 1517 1513 1508 1503 1497 1486 1474 1464 1455 1444 1431 1407 1383 1367 1357 1355 1354 1348 1340 1331 1325 1324 1323 1318 1315 1320 1331 1352 1372 1381 1383 1378 1368 1361 1356 1354 1353 1352 1347 1334 1321 1316 1314 1314 1314 1313 1310 1302 1289 1275 1260 1247 1237 1229 1226 1237 1252 1259 1261 1261 1258 1254 1248 1235 1218 1203 1190 1178 1172 1170 1170 1171 1173 1174 1177 1185 1192 1190 1181 1164 1151 1157 1170 1183 1194 1205 1215 1227 1246 1274 1312 1366 1416 1442 1454 1449 1443 1455 1480 1526 1575 1609 1635 1648 1655 1663 1677 1703 1738 1778 1812 1826 1834 1853 1881 1925 1969 1996 2011 2013 2020 2045 2075 2101 2117 2118 2117 2127 2135 2129 2114 2085 2052 2026 1999 1963 1919 1872 1825 1783 1746 1713 1679 1643 1609 1583 1563 1554 1547 1533 1515 1494 1476 1467 1465 1470 1480 1491 1505 1526 1553 1581 1606 1627 1640 1645 1645 1636 1625 1620 1617 1615 1613 1606 1597 1587 1574 1557 1537 1517 1502 1500 1503 1515 1532 1547 1562 1576 1585 1589 1588 1581 1574 1573 1575 1581 1585 1586 1583 1576 1568 1566 1568 1579 1591 1594 1594 1592 1587 1583 1578 1568 1560
1323 1325 1336 1349 1356 1359 1357 1355 1359 1368 1386 1408 1429 1446 1455 1461 1471 1483 1493 1497 1493 1485 1475 1470 1475 1482 1494 1505 1510 1513 1518 1521 1522 1521 1517 1515 1520 1525 1526 1524 1518 1513 1512 1511 1505 1497 1487 1477 1464 1452 1444 1437 1428 1415 1395 1374 1359 1347 1338 1329 1320 1314 1314 1315 1316 1314 1306 1299 1303 1313 1329 1344 1353 1357 1355 1350 1347 1343 1342 1343 1341 1338 1332 1325 1321 1320 1322 1324 1323 1319 1306 1289 1273 1256 1241 1229 1220 1217 1226 1239 1245 1248 1246 1241 1238 1234 1227 1217 1205 1194 1189 1188 1187 1187 1188 1188 1187 1186 1186 1185 1179 1171 1161 1156 1163 1173 1176 1179 1187 1199 1219 1246 1276 1308 1344 1376 1394 1406 1407 1407 1418 1441 1486 1535 1570 1597 1613 1623 1635 1650 1672 1702 1741 1777 1799 1816 1839 1868 1913 1957 1985 2001 2002 2008 2034 2066 2097 2118 2123 2121 2119 2115 2108 2097 2080 2058 2034 2007 1972 1930 1883 1833 1784 1740 1704 1671 1638 1608 1582 1563 1556 1551 1537 1519 1500 1484 1475 1473 1476 1485 1497 1511 1528 1549 1576 1604 1631 1650 1657 1658 1652 1644 1638 1632 1626 1618 1609 1599 1585 1569 1550 1533 1519 1511 1509 1512 1522 1537 1552 1566 1578 1587 1592 1593 1589 1585 1586 1589 1591 1591 1590 1588 1584 1581 1579 1580 1590 1599 1601 1599 1591 1582 1576 1572 1566 1563
1316 1319 1328 1338 1342 1344 1343 1343 1348 1358 1377 1401 1423 1440 1446 1448 1457 1469 1483 1490 1488 1483 1474 1470 1475 1485 1504 1524 1533 1537 1537 1535 1535 1534 1533 1533 1535 1536 1530 1520 1512 1506 1506 1505 1497 1485 1470 1454 1441 1429 1423 1418 1412 1402 1386 1367 1353 1340 1323 1307 1295 1290 1296 1306 1309 1306 1293 1283 1285 1293 1304 1315 1322 1328 1331 1332 1332 1332 1334 1335 1334 1333 1332 1331 1329 1329 1333 1337 1337 1331 1314 1292 1273 1255 1237 1222 1213 1208 1215 1227 1234 1236 1233 1226 1223 1222 1221 1217 1208 1201 1203 1208 1208 1208 1207 1205 1201 1194 1185 1176 1167 1160 1157 1159 1167 1174 1169 1162 1168 1182 1210 1245 1277 1304 1324 1337 1349 1361 1368 1373 1381 1401 1443 1493 1528 1555 1575 1591 1609 1628 1648 1674 1712 1750 1781 1808 1835 1867 1913 1958 1987 2004 2002 2005 2030 2062 2097 2123 2132 2128 2113 2098 2090 2084 2079 2068 2046 2020 1987 1947 1901 1850 1794 1742 1704 1670 1642 1617 1592 1573 1568 1565 1551 1534 1516 1501 1492 1488 1489 1496 1509 1523 1534 1549 1575 1604 1637 1662 1670 1672 1669 1662 1654 1644 1632 1620 1609 1596 1580 1560 1542 1527 1520 1518 1519 1521 1529 1541 1553 1566 1576 1584 1589 1592 1591 1590 1595 1598 1597 1593 1590 1590 1590 1590 1589 1589 1597 1605 1605 1601 1589 1575 1569 1565 1565 1565
1316 1318 1326 1333 1333 1332 1329 1329 1335 1346 1366 1391 1414 1432 1437 1439 1448 1461 1476 1486 1487 1483 1477 1474 1479 1490 1513 1536 1548 1555 1555 1553 1553 1552 1550 1548 1547 1543 1533 1520 1509 1502 1501 1498 1486 1470 1452 1434 1420 1408 1403 1401 1397 1390 1376 1360 1346 1333 1314 1294 1281 1275 1282 1293 1297 1293 1279 1267 1267 1274 1283 1293 1300 1307 1313 1318 1323 1327 1332 1335 1335 1334 1335 1335 1334 1334 1339 1343 1342 1336 1317 1293 1272 1252 1232 1216 1206 1201 1208 1219 1226 1230 1227 1221 1219 1219 1221 1220 1215 1211 1216 1223 1224 1223 1221 1215 1207 1195 1181 1167 1157 1149 1146 1150 1157 1162 1154 1145 1150 1165 1195 1232 1264 1290 1306 1314 1323 1334 1340 1343 1347 1361 1400 1448 1482 1510 1534 1556 1581 1608 1631 1659 1697 1737 1771 1802 1834 1869 1918 1964 1995 2013 2011 2011 2033 2064 2100 2128 2138 2136 2120 2103 2097 2094 2093 2085 2065 2039 2007 1968 1924 1873 1816 1762 1721 1687 1660 1635 1611 1592 1588 1585 1571 1553 1535 1520 1509 1504 1504 1511 1525 1539 1548 1562 1587 1616 1650 1676 1685 1687 1683 1674 1663 1649 1633 1618 1605 1592 1574 1555 1538 1525 1521 1521 1522 1524 1530 1539 1549 1559 1568 1575 1582 1586 1587 1589 1597 1603 1602 1598 1595 1594 1596 1597 1595 1595 1601 1608 1608 1603 1589 1574 1568 1566 1567 1569
1322 1323 1328 1330 1327 1322 1317 1317 1323 1335 1356 1381 1405 1424 1431 1433 1443 1456 1472 1484 1488 1487 1483 1481 1486 1497 1519 1544 1559 1568 1571 1570 1569 1568 1565 1559 1554 1547 1534 1520 1509 1500 1496 1489 1474 1455 1435 1417 1402 1390 1385 1384 1382 1378 1367 1352 1339 1326 1307 1288 1273 1266 1272 1282 1285 1282 1269 1256 1256 1261 1269 1278 1286 1294 1301 1310 1320 1328 1335 1339 1339 1338 1338 1338 1337 1337 1341 1345 1344 1337 1318 1292 1270 1248 1227 1211 1201 1196 1201 1212 1220 1224 1223 1219 1218 1220 1222 1224 1221 1219 1224 1229 1230 1229 1226 1219 1206 1190 1172 1156 1145 1135 1131 1132 1137 1142 1136 1130 1136 1150 1178 1213 1245 1272 1289 1298 1307 1316 1320 1319 1319 1328 1361 1405 1438 1467 1493 1519 1552 1587 1618 1652 1692 1732 1768 1801 1836 1874 1921 1967 1998 2018 2021 2025 2046 2074 2108 2136 2149 2149 2135 2121 2118 2116 2114 2104 2083 2058 2029 1994 1951 1903 1848 1796 1755 1719 1690 1665 1640 1622 1615 1610 1595 1576 1556 1537 1525 1519 1518 1525 1539 1555 1568 1584 1609 1636 1667 1689 1696 1698 1695 1685 1670 1652 1633 1616 1603 1588 1570 1551 1535 1524 1520 1521 1521 1522 1528 1535 1543 1550 1557 1564 1571 1577 1581 1587 1597 1606 1607 1604 1601 1600 1602 1603 1601 1599 1604 1609 1608 1602 1589 1575 1570 1569 1571 1575
1336 1336 1334 1329 1322 1315 1310 1310 1317 1329 1348 1372 1396 1417 1427 1433 1443 1457 1475 1490 1495 1496 1492 1490 1495 1505 1524 1546 1562 1574 1579 1579 1579 1577 1570 1560 1551 1542 1530 1518 1507 1497 1488 1475 1456 1436 1417 1401 1387 1374 1366 1363 1363 1361 1354 1342 1329 1317 1303 1287 1272 1263 1267 1275 1278 1276 1266 1257 1257 1261 1268 1276 1284 1292 1303 1316 1329 1340 1347 1349 1348 1346 1343 1339 1337 1337 1339 1341 1339 1333 1315 1291 1267 1245 1223 1207 1197 1191 1194 1201 1208 1215 1218 1219 1219 1221 1224 1225 1224 1222 1220 1219 1217 1217 1217 1211 1196 1176 1156 1140 1127 1116 1106 1101 1103 1110 1115 1121 1130 1142 1162 1189 1219 1248 1271 1286 1296 1305 1309 1307 1304 1308 1331 1364 1395 1424 1450 1479 1517 1560 1606 1653 1697 1737 1771 1804 1841 1878 1912 1943 1972 1999 2023 2048 2072 2098 2130 2156 2169 2172 2163 2154 2153 2150 2137 2116 2093 2071 2050 2023 1983 1938 1893 1850 1810 1773 1740 1712 1686 1665 1649 1635 1617 1596 1571 1548 1533 1526 1524 1531 1547 1566 1589 1616 1643 1666 1682 1691 1695 1698 1701 1696 1680 1659 1640 1623 1609 1593 1570 1548 1533 1522 1517 1516 1516 1517 1521 1528 1533 1539 1544 1550 1557 1565 1575 1588 1602 1613 1615 1612 1609 1608 1611 1612 1610 1607 1606 1605 1602 1597 1586 1575 1571 1572 1579 1587
1350 1348 1340 1329 1318 1310 1306 1308 1316 1327 1344 1367 1391 1412 1425 1434 1446 1460 1479 1496 1503 1505 1500 1497 1502 1511 1527 1546 1562 1574 1581 1582 1582 1579 1569 1556 1545 1535 1526 1516 1506 1495 1480 1463 1442 1421 1405 1391 1378 1364 1353 1348 1347 1347 1343 1333 1321 1310 1300 1288 1274 1264 1266 1273 1275 1273 1268 1263 1263 1267 1273 1280 1288 1296 1310 1326 1341 1352 1357 1357 1356 1353 1346 1339 1336 1335 1335 1335 1333 1326 1310 1287 1264 1241 1220 1204 1194 1187 1186 1191 1197 1205 1212 1217 1219 1220 1222 1223 1222 1219 1211 1202 1198 1198 1201 1197 1182 1161 1140 1123 1110 1098 1082 1072 1072 1081 1097 1114 1126 1136 1149 1168 1196 1226 1255 1276 1288 1297 1301 1300 1296 1297 1310 1335 1364 1392 1418 1448 1488 1536 1595 1654 1701 1741 1774 1805 1844 1879 1899 1916 1942 1975 2022 2068 2098 2123 2152 2178 2192 2197 2192 2187 2189 2184 2159 2128 2102 2082 2069 2050 2013 1972 1937 1903 1864 1825 1789 1757 1730 1706 1681 1658 1637 1614 1584 1556 1539 1531 1530 1537 1552 1575 1610 1648 1677 1696 1698 1692 1692 1697 1707 1708 1692 1669 1650 1633 1619 1601 1575 1549 1533 1522 1515 1512 1511 1512 1516 1522 1527 1531 1535 1539 1546 1556 1572 1592 1608 1620 1622 1618 1616 1615 1618 1621 1619 1614 1607 1601 1596 1592 1583 1575 1572 1574 1586 1599
1354 1351 1342 1329 1318 1309 1306 1308 1316 1327 1344 1366 1389 1411 1425 1435 1446 1461 1481 1498 1505 1507 1502 1499 1504 1513 1527 1545 1561 1574 1581 1582 1582 1579 1568 1554 1543 1533 1524 1516 1506 1494 1479 1460 1438 1417 1402 1389 1376 1362 1351 1344 1344 1344 1340 1331 1319 1309 1299 1289 1275 1265 1266 1272 1274 1273 1269 1265 1265 1268 1274 1281 1289 1298 1311 1328 1343 1355 1359 1358 1357 1354 1345 1337 1334 1333 1333 1332 1329 1323 1307 1284 1261 1237 1217 1201 1191 1183 1182 1185 1191 1198 1206 1212 1214 1215 1216 1216 1215 1212 1201 1191 1186 1186 1189 1186 1171 1150 1129 1112 1099 1087 1070 1058 1058 1067 1086 1105 1118 1127 1138 1156 1183 1213 1243 1266 1278 1287 1292 1291 1287 1287 1299 1322 1350 1378 1404 1434 1475 1524 1587 1649 1697 1738 1771 1803 1842 1877 1895 1909 1935 1971 2024 2077 2109 2135 2166 2192 2207 2214 2211 2208 2211 2206 2179 2145 2119 2101 2091 2074 2038 1997 1964 1933 1895 1855 1817 1785 1757 1732 1704 1677 1656 1632 1600 1570 1553 1544 1543 1550 1565 1588 1627 1668 1698 1715 1712 1703 1701 1706 1717 1719 1703 1680 1659 1643 1628 1609 1581 1554 1537 1526 1518 1514 1512 1513 1517 1523 1527 1531 1534 1538 1545 1555 1572 1593 1610 1622 1624 1620 1617 1617 1620 1623 1621 1616 1607 1599 1595 1590 1582 1575 1572 1575 1588 1602
1354 1351 1341 1327 1316 1309 1306 1309 1317 1328 1344 1365 1388 1410 1424 1434 1445 1460 1480 1497 1505 1506 1501 1497 1502 1511 1526 1543 1559 1572 1580 1583 1584 1581 1570 1557 1546 1536 1527 1519 1509 1497 1481 1462 1441 1420 1403 1390 1376 1363 1350 1343 1343 1343 1340 1333 1322 1311 1300 1287 1273 1263 1263 1269 1271 1270 1267 1265 1265 1268 1273 1279 1286 1295 1309 1326 1341 1353 1358 1358 1356 1353 1345 1337 1334 1332 1331 1330 1327 1320 1304 1281 1257 1234 1215 1201 1191 1183 1180 1183 1188 1195 1203 1208 1210 1211 1211 1211 1210 1206 1197 1187 1182 1181 1182 1178 1162 1141 1122 1106 1094 1082 1067 1056 1056 1064 1080 1098 1109 1119 1131 1150 1177 1206 1234 1254 1266 1275 1282 1283 1280 1280 1292 1313 1342 1370 1395 1424 1465 1515 1577 1638 1687 1729 1765 1800 1841 1878 1900 1918 1946 1983 2033 2082 2114 2141 2171 2198 2214 2223 2224 2225 2230 2227 2200 2165 2140 2122 2114 2098 2062 2021 1986 1953 1914 1874 1835 1801 1774 1749 1722 1697 1675 1651 1618 1587 1568 1560 1560 1568 1584 1607 1643 1682 1711 1729 1728 1720 1718 1722 1730 1729 1711 1688 1667 1650 1634 1615 1588 1561 1544 1532 1523 1517 1515 1515 1521 1528 1532 1535 1537 1540 1547 1556 1573 1593 1610 1621 1623 1620 1617 1617 1620 1623 1621 1616 1608 1601 1596 1591 1583 1575 1572 1574 1588 1601
1353 1350 1338 1323 1313 1308 1309 1315 1324 1334 1347 1364 1385 1405 1418 1428 1439 1454 1476 1495 1502 1503 1497 1492 1497 1505 1518 1534 1550 1564 1578 1587 1588 1586 1577 1565 1556 1547 1538 1530 1520 1508 1493 1474 1452 1430 1410 1393 1379 1364 1350 1341 1338 1338 1341 1340 1330 1317 1299 1280 1264 1255 1254 1258 1259 1260 1261 1264 1266 1267 1268 1270 1276 1284 1300 1318 1334 1347 1355 1358 1358 1354 1347 1340 1336 1333 1331 1329 1325 1318 1300 1275 1251 1231 1218 1211 1202 1193 1187 1186 1189 1196 1204 1211 1212 1212 1211 1209 1209 1207 1202 1196 1192 1190 1184 1173 1156 1137 1122 1110 1100 1089 1079 1074 1075 1079 1087 1096 1106 1116 1133 1157 1184 1211 1230 1242 1252 1262 1274 1281 1281 1282 1292 1311 1338 1366 1388 1415 1456 1505 1564 1621 1669 1714 1759 1804 1848 1889 1925 1959 1992 2024 2058 2089 2114 2137 2163 2187 2204 2216 2230 2243 2254 2253 2225 2188 2162 2146 2141 2129 2092 2047 2005 1965 1925 1884 1841 1805 1777 1755 1736 1717 1697 1671 1634 1599 1580 1573 1580 1596 1613 1633 1659 1689 1715 1735 1742 1742 1741 1742 1740 1731 1711 1689 1669 1653 1637 1620 1597 1575 1558 1544 1529 1519 1515 1517 1527 1539 1545 1548 1546 1546 1550 1559 1573 1591 1604 1614 1618 1616 1614 1614 1619 1624 1623 1619 1613 1606 1602 1596 1586 1576 1572 1575 1588 1601
1353 1350 1336 1320 1313 1312 1319 1329 1339 1348 1357 1369 1385 1402 1413 1422 1433 1448 1471 1492 1500 1500 1492 1486 1490 1497 1509 1523 1538 1553 1572 1586 1590 1588 1581 1572 1565 1558 1551 1542 1532 1521 1506 1487 1466 1443 1419 1398 1383 1368 1351 1338 1331 1330 1337 1341 1333 1319 1294 1268 1253 1245 1243 1246 1247 1248 1255 1262 1266 1266 1263 1260 1264 1273 1289 1309 1326 1340 1352 1358 1358 1355 1349 1341 1336 1332 1328 1324 1320 1312 1293 1267 1244 1226 1221 1220 1213 1203 1193 1188 1189 1195 1204 1211 1212 1212 1209 1207 1208 1210 1210 1208 1206 1201 1190 1173 1155 1139 1128 1121 1112 1103 1098 1097 1097 1097 1096 1096 1103 1115 1137 1164 1191 1214 1224 1228 1236 1249 1266 1279 1284 1288 1296 1313 1340 1368 1387 1412 1453 1504 1559 1613 1660 1707 1761 1815 1861 1907 1957 2005 2043 2072 2087 2097 2111 2128 2146 2165 2182 2199 2225 2253 2272 2275 2247 2208 2183 2168 2167 2156 2117 2067 2017 1970 1929 1887 1842 1803 1776 1758 1747 1736 1717 1691 1650 1611 1590 1585 1599 1622 1640 1656 1672 1692 1715 1736 1751 1759 1760 1757 1746 1729 1710 1690 1674 1659 1644 1628 1610 1592 1575 1559 1539 1523 1518 1521 1536 1554 1562 1565 1560 1555 1558 1565 1576 1588 1597 1604 1607 1606 1605 1605 1612 1619 1621 1620 1616 1611 1607 1601 1588 1576 1572 1575 1588 1601
1353 1350 1337 1324 1322 1325 1336 1349 1359 1367 1374 1381 1393 1405 1412 1420 1431 1446 1469 1490 1497 1497 1488 1481 1484 1491 1502 1515 1528 1543 1563 1579 1582 1581 1575 1569 1565 1561 1556 1548 1539 1528 1513 1495 1474 1451 1426 1404 1389 1374 1355 1338 1327 1321 1327 1331 1324 1309 1283 1258 1245 1238 1238 1241 1242 1244 1252 1261 1264 1265 1260 1256 1259 1267 1284 1304 1321 1336 1349 1356 1357 1353 1346 1337 1330 1324 1319 1314 1310 1303 1283 1258 1237 1221 1218 1220 1213 1203 1191 1184 1184 1188 1196 1203 1204 1203 1201 1201 1204 1209 1212 1212 1210 1206 1193 1176 1159 1145 1137 1132 1123 1115 1111 1108 1105 1102 1096 1093 1100 1112 1133 1160 1185 1206 1213 1215 1222 1236 1256 1273 1283 1291 1301 1319 1347 1374 1394 1420 1464 1516 1572 1625 1671 1718 1774 1830 1877 1924 1978 2031 2070 2099 2107 2106 2110 2118 2129 2144 2161 2180 2212 2248 2275 2285 2261 2225 2200 2186 2185 2173 2130 2076 2021 1972 1931 1891 1847 1809 1785 1770 1763 1755 1736 1709 1667 1626 1603 1597 1613 1637 1654 1668 1680 1695 1716 1736 1752 1761 1762 1759 1746 1729 1713 1698 1685 1673 1659 1643 1627 1610 1592 1573 1551 1533 1527 1529 1547 1567 1576 1580 1574 1568 1569 1574 1582 1589 1592 1593 1592 1591 1589 1589 1598 1608 1613 1615 1614 1610 1607 1601 1588 1576 1571 1574 1587 1601
1355 1352 1341 1333 1335 1343 1356 1370 1380 1388 1393 1398 1405 1412 1416 1422 1432 1447 1469 1487 1494 1494 1486 1480 1483 1489 1497 1509 1521 1534 1552 1566 1569 1568 1565 1563 1562 1561 1558 1552 1543 1533 1519 1500 1479 1457 1432 1411 1396 1381 1362 1342 1326 1316 1317 1318 1310 1296 1274 1252 1242 1238 1238 1240 1240 1242 1251 1260 1264 1264 1258 1253 1256 1263 1279 1299 1316 1331 1344 1350 1350 1347 1339 1330 1321 1313 1307 1302 1299 1292 1274 1252 1232 1218 1214 1214 1207 1197 1184 1175 1173 1176 1184 1190 1191 1190 1189 1191 1198 1206 1211 1212 1210 1206 1195 1179 1165 1152 1144 1139 1131 1123 1118 1114 1108 1101 1092 1087 1093 1105 1127 1153 1176 1194 1201 1203 1212 1226 1245 1263 1276 1289 1306 1329 1359 1387 1407 1433 1478 1532 1590 1644 1690 1736 1790 1843 1889 1935 1988 2038 2078 2108 2119 2117 2114 2112 2115 2126 2142 2161 2193 2231 2264 2282 2268 2239 2218 2204 2199 2181 2134 2076 2021 1973 1934 1896 1857 1824 1804 1790 1783 1772 1753 1726 1685 1645 1621 1613 1627 1648 1663 1675 1686 1700 1719 1737 1749 1755 1755 1751 1740 1726 1715 1706 1698 1690 1678 1663 1645 1626 1606 1586 1563 1545 1538 1540 1557 1577 1588 1592 1588 1582 1582 1585 1588 1589 1585 1580 1577 1574 1572 1572 1580 1591 1599 1605 1607 1605 1603 1598 1586 1575 1572 1574 1587 1600
1356 1354 1348 1344 1350 1361 1375 1387 1396 1405 1412 1417 1421 1424 1427 1431 1442 1455 1471 1483 1488 1489 1487 1487 1491 1495 1499 1506 1516 1527 1540 1549 1551 1551 1554 1558 1561 1563 1561 1556 1549 1539 1524 1505 1484 1462 1439 1420 1405 1391 1374 1355 1337 1322 1313 1307 1297 1286 1271 1259 1252 1248 1243 1239 1238 1240 1250 1260 1264 1264 1256 1249 1250 1256 1272 1293 1310 1325 1333 1336 1335 1332 1326 1317 1308 1299 1294 1291 1288 1283 1271 1254 1237 1222 1212 1205 1196 1184 1170 1158 1155 1157 1166 1174 1175 1174 1175 1179 1188 1198 1204 1205 1203 1200 1193 1183 1171 1158 1147 1137 1128 1121 1118 1114 1106 1096 1083 1075 1079 1092 1116 1145 1168 1186 1193 1198 1208 1221 1232 1242 1255 1274 1307 1345 1378 1406 1422 1445 1491 1547 1608 1665 1711 1754 1799 1845 1888 1931 1974 2015 2053 2089 2119 2133 2128 2118 2112 2116 2132 2147 2165 2192 2226 2255 2265 2257 2242 2225 2208 2177 2124 2066 2016 1976 1940 1907 1877 1854 1839 1825 1806 1784 1761 1737 1703 1670 1647 1636 1645 1661 1673 1684 1697 1713 1731 1743 1746 1741 1738 1734 1726 1717 1711 1707 1709 1709 1700 1685 1662 1637 1615 1595 1574 1558 1551 1552 1565 1582 1592 1598 1598 1595 1595 1595 1591 1583 1573 1565 1562 1563 1562 1560 1562 1568 1577 1586 1592 1594 1593 1590 1584 1578 1576 1578 1587 1597
1359 1358 1355 1355 1364 1375 1388 1398 1406 1415 1424 1431 1434 1436 1437 1442 1452 1463 1473 1480 1482 1484 1489 1494 1499 1501 1500 1503 1511 1520 1528 1531 1532 1534 1543 1553 1559 1562 1561 1557 1551 1541 1526 1506 1486 1465 1444 1426 1412 1399 1385 1368 1350 1331 1315 1301 1291 1282 1275 1271 1268 1263 1252 1241 1238 1241 1252 1262 1266 1265 1256 1247 1245 1250 1267 1288 1305 1317 1322 1321 1318 1315 1311 1305 1295 1286 1282 1281 1279 1276 1269 1258 1243 1227 1210 1196 1184 1172 1155 1141 1137 1139 1150 1159 1161 1160 1162 1168 1178 1189 1195 1195 1193 1191 1188 1182 1172 1159 1144 1131 1121 1114 1113 1110 1101 1090 1073 1062 1066 1079 1107 1139 1162 1180 1190 1197 1209 1221 1223 1225 1238 1262 1308 1360 1397 1424 1437 1457 1502 1558 1622 1681 1727 1767 1804 1841 1882 1922 1955 1986 2023 2065 2114 2147 2144 2130 2117 2116 2130 2142 2145 2159 2193 2230 2261 2274 2265 2246 2217 2174 2118 2062 2019 1986 1955 1926 1907 1894 1883 1867 1836 1801 1776 1753 1728 1701 1678 1664 1668 1679 1687 1695 1710 1729 1744 1752 1743 1729 1722 1718 1713 1707 1704 1704 1715 1723 1717 1703 1676 1645 1623 1603 1584 1570 1564 1563 1573 1586 1594 1601 1604 1605 1603 1599 1589 1574 1560 1550 1550 1554 1554 1551 1546 1547 1555 1567 1577 1582 1583 1582 1581 1580 1580 1581 1587 1594
1364 1363 1361 1362 1371 1383 1394 1404 1411 1420 1430 1437 1439 1440 1441 1446 1455 1466 1474 1479 1480 1481 1487 1493 1496 1497 1494 1495 1502 1511 1516 1518 1519 1521 1532 1544 1551 1554 1555 1551 1546 1537 1523 1504 1484 1464 1444 1427 1414 1402 1389 1373 1355 1337 1319 1304 1294 1286 1282 1280 1278 1273 1260 1248 1245 1248 1258 1269 1272 1270 1259 1248 1245 1249 1263 1283 1299 1311 1314 1311 1308 1305 1301 1295 1286 1277 1274 1274 1272 1269 1265 1255 1241 1225 1206 1190 1178 1166 1148 1134 1129 1131 1142 1152 1153 1152 1154 1160 1171 1181 1187 1188 1185 1183 1182 1177 1168 1155 1139 1125 1116 1110 1108 1106 1098 1086 1069 1058 1061 1074 1103 1135 1159 1177 1188 1197 1211 1223 1225 1227 1240 1266 1316 1371 1410 1438 1450 1469 1513 1569 1632 1691 1735 1773 1807 1841 1881 1920 1950 1980 2016 2060 2116 2154 2153 2137 2123 2121 2135 2145 2145 2155 2189 2230 2267 2286 2280 2262 2231 2186 2131 2077 2038 2010 1982 1957 1942 1933 1924 1909 1875 1836 1810 1787 1763 1737 1712 1695 1695 1702 1706 1711 1724 1740 1753 1758 1744 1725 1717 1712 1706 1701 1699 1701 1715 1728 1725 1712 1685 1655 1633 1614 1596 1582 1575 1573 1582 1593 1600 1604 1607 1607 1603 1596 1582 1565 1549 1537 1538 1543 1543 1540 1534 1533 1542 1554 1566 1573 1575 1575 1576 1577 1577 1579 1585 1590
1369 1368 1365 1366 1374 1386 1397 1407 1415 1423 1432 1438 1440 1441 1441 1445 1454 1464 1472 1476 1476 1477 1481 1486 1488 1487 1484 1485 1491 1498 1503 1505 1505 1508 1518 1531 1538 1543 1544 1541 1536 1529 1516 1499 1481 1461 1441 1424 1411 1399 1387 1372 1355 1338 1322 1310 1300 1293 1289 1286 1284 1280 1270 1260 1257 1260 1269 1279 1281 1278 1265 1253 1248 1249 1261 1278 1292 1303 1307 1305 1302 1298 1293 1286 1276 1268 1265 1266 1264 1262 1258 1250 1237 1220 1202 1185 1173 1161 1146 1133 1129 1130 1138 1146 1146 1145 1148 1155 1165 1175 1180 1181 1179 1176 1174 1168 1159 1147 1133 1121 1112 1106 1105 1103 1095 1084 1068 1057 1060 1073 1100 1131 1155 1174 1187 1198 1213 1228 1234 1240 1256 1282 1327 1377 1415 1444 1461 1484 1528 1583 1643 1698 1741 1778 1811 1845 1883 1921 1953 1985 2022 2066 2119 2154 2153 2139 2125 2123 2136 2148 2153 2168 2204 2245 2283 2303 2298 2281 2252 2208 2156 2104 2065 2035 2009 1987 1975 1969 1962 1948 1916 1879 1853 1830 1805 1778 1751 1730 1726 1729 1728 1729 1737 1748 1758 1761 1747 1729 1719 1713 1706 1701 1699 1701 1714 1724 1723 1714 1692 1665 1645 1627 1610 1596 1589 1586 1591 1599 1604 1606 1608 1606 1599 1590 1574 1555 1537 1525 1524 1528 1529 1526 1521 1520 1530 1543 1557 1565 1568 1569 1569 1569 1570 1572 1579 1585
1372 1370 1366 1366 1373 1383 1397 1408 1416 1423 1431 1436 1439 1439 1437 1438 1447 1457 1464 1468 1468 1467 1471 1475 1476 1474 1473 1474 1478 1484 1485 1485 1485 1488 1499 1513 1521 1527 1527 1524 1521 1515 1505 1491 1474 1454 1431 1410 1397 1386 1374 1361 1346 1332 1324 1318 1310 1302 1295 1289 1287 1286 1283 1282 1281 1283 1290 1297 1297 1292 1278 1263 1257 1255 1260 1270 1280 1290 1297 1300 1298 1293 1285 1274 1264 1256 1254 1255 1254 1253 1251 1245 1234 1218 1199 1182 1170 1160 1152 1146 1143 1142 1141 1140 1138 1138 1143 1151 1160 1167 1171 1171 1169 1166 1159 1149 1139 1129 1121 1113 1106 1100 1098 1096 1090 1082 1068 1059 1062 1074 1097 1124 1146 1165 1182 1197 1215 1234 1253 1272 1291 1312 1338 1369 1401 1434 1464 1501 1549 1602 1655 1702 1741 1777 1812 1847 1882 1918 1955 1993 2033 2074 2114 2137 2137 2127 2115 2113 2126 2143 2166 2199 2240 2280 2315 2333 2328 2313 2286 2245 2198 2148 2097 2055 2028 2009 2002 2000 1994 1981 1956 1926 1901 1878 1854 1827 1798 1774 1764 1761 1756 1751 1750 1753 1758 1760 1754 1744 1735 1726 1720 1715 1712 1710 1709 1707 1704 1700 1690 1676 1661 1645 1630 1618 1610 1604 1600 1599 1600 1602 1605 1604 1596 1584 1567 1546 1527 1512 1507 1508 1508 1506 1503 1504 1514 1528 1545 1558 1562 1562 1558 1554 1554 1557 1568 1578
1373 1371 1366 1363 1367 1376 1390 1403 1411 1418 1424 1430 1434 1436 1433 1431 1439 1449 1456 1459 1459 1457 1460 1464 1464 1462 1461 1462 1464 1466 1463 1460 1459 1463 1475 1490 1501 1507 1508 1505 1502 1498 1492 1481 1465 1444 1418 1394 1381 1371 1360 1348 1337 1329 1328 1329 1323 1315 1305 1296 1293 1295 1301 1308 1310 1311 1315 1319 1317 1311 1294 1277 1269 1265 1263 1264 1270 1277 1287 1294 1293 1287 1275 1261 1251 1245 1243 1244 1244 1243 1244 1242 1233 1220 1201 1184 1172 1164 1162 1163 1161 1157 1147 1137 1133 1134 1140 1149 1153 1156 1156 1155 1152 1148 1137 1124 1114 1107 1104 1101 1096 1090 1088 1088 1086 1083 1073 1065 1069 1079 1098 1121 1141 1161 1181 1200 1219 1242 1273 1303 1325 1340 1347 1358 1385 1421 1465 1515 1569 1621 1667 1707 1743 1778 1814 1846 1875 1905 1944 1988 2029 2068 2096 2111 2116 2113 2106 2106 2120 2141 2182 2233 2277 2314 2346 2361 2357 2344 2320 2285 2247 2201 2141 2088 2060 2044 2041 2041 2033 2020 2001 1977 1954 1931 1907 1880 1850 1823 1808 1799 1789 1779 1769 1763 1762 1762 1764 1762 1752 1742 1734 1728 1723 1716 1699 1684 1680 1680 1683 1682 1673 1661 1649 1639 1631 1622 1609 1598 1595 1595 1600 1600 1591 1577 1558 1536 1516 1500 1491 1488 1488 1487 1485 1487 1496 1511 1531 1547 1553 1553 1544 1535 1535 1540 1554 1567
1373 1372 1365 1359 1361 1367 1379 1391 1399 1405 1412 1419 1426 1431 1429 1428 1435 1444 1451 1454 1453 1451 1453 1456 1455 1452 1450 1448 1446 1444 1438 1433 1432 1436 1449 1466 1479 1488 1490 1489 1487 1484 1479 1469 1453 1433 1406 1382 1370 1361 1352 1344 1337 1334 1338 1342 1338 1331 1320 1311 1309 1312 1321 1330 1333 1334 1337 1339 1336 1328 1310 1291 1282 1275 1270 1266 1266 1270 1278 1285 1283 1276 1264 1250 1241 1236 1235 1237 1237 1237 1240 1240 1234 1224 1207 1191 1179 1171 1171 1173 1170 1165 1152 1139 1135 1135 1140 1145 1144 1140 1136 1132 1130 1125 1114 1101 1093 1088 1087 1087 1082 1077 1077 1080 1084 1087 1082 1077 1081 1091 1109 1130 1149 1168 1188 1208 1228 1253 1286 1318 1338 1351 1351 1357 1383 1420 1468 1523 1579 1633 1678 1716 1751 1786 1818 1844 1863 1885 1918 1960 2001 2039 2068 2088 2102 2111 2111 2115 2130 2153 2199 2252 2295 2330 2360 2374 2372 2361 2342 2317 2290 2254 2198 2147 2121 2107 2104 2102 2091 2074 2054 2031 2007 1984 1960 1933 1902 1873 1855 1842 1828 1813 1797 1785 1777 1773 1774 1771 1760 1747 1737 1728 1720 1709 1687 1667 1663 1666 1674 1680 1675 1667 1657 1649 1640 1630 1613 1599 1593 1592 1594 1594 1583 1568 1547 1524 1503 1487 1477 1473 1473 1473 1471 1472 1481 1494 1514 1532 1538 1538 1529 1520 1521 1527 1543 1557
1369 1367 1360 1352 1351 1354 1364 1375 1381 1387 1395 1404 1414 1422 1424 1425 1433 1441 1446 1448 1446 1443 1446 1449 1448 1444 1439 1434 1429 1423 1414 1407 1406 1410 1423 1440 1454 1466 1471 1472 1471 1470 1465 1455 1440 1421 1396 1373 1362 1354 1348 1345 1343 1343 1349 1354 1351 1344 1335 1328 1328 1331 1341 1350 1353 1353 1356 1356 1352 1343 1324 1304 1294 1287 1279 1273 1269 1268 1272 1276 1273 1266 1253 1240 1232 1228 1230 1234 1234 1234 1237 1239 1235 1228 1213 1197 1185 1177 1176 1176 1172 1166 1154 1143 1139 1138 1140 1140 1132 1123 1115 1110 1107 1103 1093 1081 1075 1072 1074 1076 1071 1066 1067 1073 1082 1091 1093 1092 1098 1107 1123 1141 1158 1177 1197 1218 1239 1263 1296 1325 1343 1353 1352 1358 1385 1423 1473 1531 1589 1644 1689 1725 1760 1794 1826 1848 1859 1870 1891 1924 1964 2003 2037 2067 2092 2112 2124 2135 2151 2174 2215 2264 2304 2338 2368 2384 2384 2375 2360 2342 2325 2302 2259 2216 2193 2180 2176 2170 2154 2133 2109 2084 2060 2037 2012 1985 1952 1922 1901 1885 1867 1848 1828 1811 1798 1788 1783 1776 1762 1747 1735 1723 1711 1697 1674 1654 1650 1654 1665 1673 1673 1667 1660 1652 1643 1631 1615 1600 1592 1589 1589 1587 1575 1558 1536 1511 1490 1473 1463 1460 1460 1460 1460 1462 1469 1481 1499 1515 1522 1523 1515 1508 1510 1517 1532 1545
1355 1353 1347 1339 1336 1337 1344 1354 1360 1365 1372 1381 1393 1405 1415 1424 1433 1440 1440 1436 1432 1430 1436 1442 1441 1436 1430 1423 1414 1405 1394 1385 1384 1387 1395 1408 1423 1437 1448 1454 1455 1454 1449 1440 1425 1408 1387 1370 1361 1355 1352 1353 1355 1358 1360 1360 1356 1351 1347 1344 1346 1350 1360 1369 1371 1371 1371 1368 1363 1353 1334 1315 1305 1298 1292 1287 1280 1274 1273 1273 1269 1261 1246 1231 1223 1222 1229 1237 1239 1238 1238 1238 1236 1230 1214 1196 1184 1175 1170 1167 1161 1155 1149 1144 1141 1140 1137 1129 1117 1104 1096 1094 1092 1088 1077 1066 1061 1061 1068 1074 1071 1065 1062 1064 1076 1092 1105 1114 1123 1131 1139 1150 1164 1182 1204 1227 1248 1273 1302 1327 1342 1351 1350 1357 1384 1424 1480 1544 1605 1660 1700 1731 1764 1800 1840 1869 1876 1876 1876 1889 1923 1964 2007 2048 2084 2114 2141 2164 2184 2204 2233 2268 2303 2337 2373 2396 2398 2390 2372 2354 2345 2335 2312 2287 2270 2257 2247 2234 2214 2189 2163 2137 2112 2088 2061 2031 1997 1965 1938 1916 1895 1873 1852 1831 1814 1799 1786 1772 1754 1738 1727 1716 1702 1685 1662 1644 1641 1645 1656 1667 1669 1666 1659 1650 1640 1629 1615 1603 1595 1589 1586 1581 1568 1550 1525 1497 1476 1459 1447 1443 1443 1445 1451 1459 1467 1477 1490 1502 1508 1510 1505 1500 1503 1510 1520 1528
1338 1337 1331 1324 1320 1320 1326 1334 1340 1345 1351 1359 1371 1386 1403 1419 1429 1434 1429 1420 1415 1413 1422 1432 1431 1426 1419 1410 1400 1390 1376 1366 1365 1367 1371 1380 1394 1410 1426 1436 1439 1439 1435 1425 1411 1395 1380 1368 1361 1357 1357 1362 1367 1370 1367 1361 1356 1353 1353 1356 1358 1363 1373 1381 1384 1383 1380 1375 1368 1358 1340 1323 1312 1305 1302 1299 1291 1283 1277 1273 1268 1259 1242 1225 1217 1217 1228 1241 1244 1242 1239 1236 1234 1228 1211 1191 1178 1169 1161 1154 1147 1143 1142 1143 1142 1140 1133 1120 1104 1091 1086 1086 1085 1081 1071 1060 1056 1057 1069 1080 1078 1071 1062 1060 1073 1092 1115 1133 1144 1150 1152 1155 1168 1186 1209 1233 1256 1280 1305 1326 1340 1349 1350 1357 1385 1426 1488 1558 1621 1675 1710 1736 1767 1806 1856 1893 1901 1894 1875 1870 1899 1942 1992 2041 2082 2120 2158 2192 2216 2234 2250 2273 2305 2341 2382 2412 2418 2410 2388 2367 2362 2361 2356 2348 2336 2323 2308 2289 2266 2240 2213 2186 2162 2137 2108 2074 2040 2006 1973 1945 1921 1897 1875 1853 1832 1812 1792 1771 1750 1732 1722 1713 1697 1678 1655 1639 1635 1638 1650 1661 1664 1661 1654 1644 1633 1622 1611 1601 1593 1586 1581 1573 1559 1540 1512 1483 1461 1444 1431 1425 1425 1430 1442 1457 1466 1474 1483 1491 1497 1500 1497 1494 1498 1504 1508 1511
1325 1324 1318 1312 1307 1307 1313 1321 1326 1331 1336 1343 1355 1370 1389 1406 1417 1421 1414 1403 1397 1396 1405 1416 1415 1410 1403 1393 1383 1372 1359 1349 1348 1349 1352 1360 1375 1392 1409 1421 1425 1426 1422 1413 1400 1386 1372 1363 1357 1354 1356 1362 1369 1372 1369 1362 1357 1355 1357 1361 1364 1369 1378 1387 1389 1388 1384 1378 1372 1362 1344 1327 1316 1309 1306 1303 1295 1286 1279 1273 1268 1258 1240 1222 1214 1214 1226 1240 1243 1241 1237 1233 1231 1226 1208 1188 1175 1165 1156 1149 1142 1138 1139 1141 1141 1139 1132 1118 1102 1089 1085 1086 1086 1083 1073 1062 1059 1061 1074 1085 1084 1077 1067 1064 1076 1096 1121 1142 1153 1158 1158 1160 1172 1190 1213 1238 1260 1284 1309 1329 1343 1352 1354 1362 1390 1432 1495 1566 1630 1684 1718 1742 1773 1813 1866 1905 1914 1906 1883 1874 1902 1945 1996 2048 2091 2130 2171 2209 2234 2252 2267 2288 2320 2357 2402 2435 2443 2437 2415 2394 2391 2393 2395 2392 2383 2370 2355 2335 2312 2286 2259 2233 2209 2184 2154 2120 2084 2049 2014 1983 1956 1931 1906 1882 1858 1835 1810 1785 1761 1740 1729 1718 1699 1677 1653 1635 1630 1631 1642 1653 1655 1652 1644 1633 1622 1610 1599 1590 1581 1573 1568 1559 1544 1525 1497 1467 1445 1429 1416 1410 1411 1416 1431 1447 1458 1466 1474 1481 1487 1491 1488 1487 1491 1496 1499 1501
1313 1312 1307 1301 1297 1296 1301 1308 1312 1317 1322 1329 1341 1355 1374 1391 1401 1405 1398 1386 1380 1378 1387 1397 1396 1391 1384 1375 1365 1354 1342 1333 1332 1334 1336 1343 1358 1376 1393 1404 1409 1411 1409 1403 1392 1379 1366 1358 1353 1351 1354 1361 1368 1373 1370 1363 1359 1356 1358 1361 1364 1370 1380 1390 1392 1391 1386 1379 1372 1363 1347 1332 1321 1314 1310 1305 1297 1287 1280 1274 1267 1258 1239 1220 1212 1212 1223 1235 1238 1236 1232 1229 1228 1222 1205 1186 1173 1164 1155 1147 1140 1137 1139 1143 1144 1142 1135 1121 1106 1093 1088 1089 1089 1087 1077 1068 1065 1067 1078 1088 1087 1080 1072 1070 1083 1102 1127 1148 1159 1164 1165 1167 1178 1196 1217 1241 1263 1286 1310 1330 1345 1355 1360 1373 1402 1444 1504 1573 1635 1689 1725 1752 1784 1823 1872 1909 1917 1911 1892 1887 1916 1958 2009 2060 2103 2143 2187 2226 2253 2272 2288 2310 2344 2381 2423 2454 2463 2459 2442 2427 2427 2431 2435 2434 2426 2415 2401 2382 2360 2335 2309 2284 2260 2235 2204 2169 2132 2096 2060 2028 1999 1971 1943 1915 1888 1861 1833 1805 1777 1752 1737 1722 1700 1677 1653 1636 1629 1628 1635 1642 1642 1638 1629 1617 1605 1593 1583 1574 1566 1557 1550 1541 1526 1507 1481 1453 1432 1415 1402 1397 1398 1404 1417 1432 1443 1452 1461 1469 1475 1479 1477 1477 1481 1486 1490 1491
1299 1299 1297 1294 1291 1288 1288 1291 1294 1298 1304 1313 1325 1339 1359 1377 1386 1389 1382 1370 1364 1363 1370 1377 1376 1371 1365 1357 1347 1337 1327 1321 1321 1322 1322 1326 1339 1355 1370 1379 1384 1388 1393 1394 1388 1377 1366 1358 1354 1353 1357 1365 1371 1375 1370 1362 1357 1355 1354 1354 1356 1361 1375 1387 1391 1389 1381 1371 1363 1356 1349 1342 1333 1324 1316 1307 1296 1286 1278 1272 1265 1255 1235 1216 1209 1208 1215 1224 1225 1224 1223 1222 1221 1215 1201 1185 1173 1164 1154 1145 1139 1138 1146 1154 1156 1155 1146 1132 1117 1104 1097 1094 1094 1092 1085 1077 1074 1074 1079 1082 1079 1074 1071 1075 1088 1108 1134 1156 1167 1173 1174 1178 1190 1206 1222 1240 1261 1283 1305 1323 1338 1352 1370 1396 1429 1468 1520 1578 1636 1690 1732 1766 1800 1837 1874 1899 1907 1907 1901 1908 1941 1982 2030 2079 2123 2166 2216 2261 2290 2311 2329 2352 2384 2415 2441 2456 2463 2465 2464 2463 2468 2474 2481 2484 2478 2468 2455 2438 2416 2393 2370 2348 2325 2299 2264 2225 2189 2154 2119 2086 2055 2024 1988 1953 1921 1890 1858 1826 1795 1765 1741 1717 1693 1672 1658 1649 1643 1637 1631 1625 1620 1614 1602 1589 1576 1566 1561 1557 1549 1538 1527 1514 1499 1482 1464 1444 1425 1409 1395 1387 1389 1393 1400 1410 1420 1431 1441 1449 1456 1461 1463 1465 1470 1475 1479 1481
1285 1286 1287 1287 1282 1277 1273 1271 1273 1277 1284 1294 1305 1320 1340 1358 1368 1371 1363 1352 1348 1347 1353 1358 1357 1353 1347 1340 1330 1320 1312 1309 1310 1311 1307 1307 1318 1332 1342 1349 1354 1361 1374 1384 1384 1379 1371 1364 1361 1361 1365 1371 1376 1377 1369 1359 1355 1352 1348 1344 1344 1349 1365 1380 1384 1381 1370 1358 1351 1347 1349 1349 1343 1333 1320 1306 1293 1281 1272 1265 1258 1247 1227 1209 1204 1205 1209 1214 1214 1213 1215 1216 1214 1207 1196 1182 1172 1162 1151 1143 1138 1140 1153 1167 1170 1168 1158 1144 1131 1118 1108 1103 1102 1101 1095 1089 1086 1083 1080 1077 1073 1070 1073 1082 1095 1114 1140 1163 1175 1181 1184 1189 1201 1216 1227 1239 1258 1280 1299 1316 1331 1350 1381 1419 1456 1493 1535 1583 1635 1686 1733 1773 1808 1842 1867 1884 1893 1901 1910 1931 1966 2007 2053 2101 2148 2197 2254 2305 2337 2360 2379 2400 2427 2450 2456 2455 2459 2467 2480 2495 2503 2510 2521 2528 2525 2517 2505 2489 2470 2449 2430 2410 2388 2362 2324 2283 2248 2216 2183 2150 2117 2082 2039 1995 1957 1920 1883 1847 1812 1778 1745 1715 1689 1671 1668 1669 1662 1651 1630 1610 1598 1588 1573 1558 1544 1535 1535 1536 1527 1515 1500 1483 1467 1453 1442 1431 1415 1400 1385 1377 1378 1381 1382 1387 1398 1412 1423 1433 1440 1447 1452 1457 1461 1464 1468 1470
1272 1273 1275 1274 1268 1261 1254 1250 1251 1253 1260 1270 1281 1296 1316 1334 1343 1346 1339 1329 1327 1328 1335 1341 1340 1336 1332 1324 1313 1303 1295 1293 1295 1295 1290 1287 1296 1307 1316 1322 1328 1336 1354 1371 1378 1379 1375 1371 1370 1370 1374 1379 1381 1379 1368 1357 1352 1349 1344 1338 1336 1339 1354 1370 1374 1371 1360 1348 1342 1341 1346 1349 1343 1332 1318 1301 1286 1273 1262 1255 1247 1236 1217 1201 1199 1203 1209 1213 1213 1213 1214 1215 1210 1202 1190 1177 1166 1157 1147 1140 1137 1142 1157 1173 1176 1174 1164 1151 1139 1128 1119 1113 1113 1113 1107 1100 1096 1092 1087 1082 1079 1077 1082 1092 1105 1122 1148 1170 1181 1187 1191 1196 1208 1221 1230 1241 1259 1280 1300 1317 1334 1355 1390 1432 1470 1507 1545 1587 1633 1679 1723 1762 1798 1830 1854 1872 1887 1902 1920 1946 1982 2023 2069 2120 2172 2227 2290 2345 2380 2404 2422 2438 2458 2472 2470 2463 2467 2477 2496 2514 2524 2532 2544 2554 2554 2549 2540 2527 2510 2492 2475 2457 2436 2410 2373 2335 2304 2275 2245 2212 2176 2137 2088 2038 1993 1950 1907 1867 1829 1791 1755 1723 1698 1682 1682 1684 1675 1660 1632 1603 1585 1569 1551 1533 1519 1509 1510 1511 1502 1487 1470 1453 1436 1424 1416 1408 1395 1381 1367 1359 1361 1365 1366 1371 1385 1402 1417 1428 1436 1444 1450 1454 1457 1458 1460 1462
1264 1264 1264 1261 1254 1244 1236 1231 1230 1231 1236 1244 1255 1269 1287 1303 1311 1315 1311 1305 1305 1308 1315 1321 1321 1318 1313 1304 1293 1282 1274 1272 1275 1276 1270 1268 1274 1284 1291 1298 1305 1315 1335 1357 1370 1377 1380 1379 1380 1381 1384 1386 1385 1380 1367 1355 1350 1348 1343 1338 1334 1335 1345 1357 1360 1358 1349 1340 1337 1337 1342 1343 1337 1326 1311 1294 1277 1262 1251 1243 1236 1225 1207 1194 1195 1202 1210 1216 1216 1216 1216 1214 1208 1197 1184 1170 1160 1151 1143 1138 1138 1144 1161 1177 1180 1177 1167 1154 1144 1134 1127 1122 1122 1123 1119 1113 1108 1104 1098 1095 1093 1093 1098 1107 1119 1135 1158 1179 1189 1195 1197 1201 1212 1225 1234 1245 1262 1283 1304 1322 1340 1363 1400 1442 1480 1517 1554 1593 1634 1675 1712 1747 1780 1812 1839 1861 1883 1905 1929 1958 1995 2036 2085 2140 2198 2257 2322 2377 2412 2437 2453 2464 2476 2484 2480 2474 2480 2492 2510 2528 2538 2547 2560 2571 2574 2573 2569 2561 2548 2532 2517 2501 2481 2456 2420 2384 2358 2333 2307 2275 2238 2194 2141 2084 2032 1982 1934 1890 1848 1807 1770 1738 1714 1699 1698 1697 1685 1665 1633 1600 1576 1555 1533 1514 1499 1488 1487 1485 1473 1457 1439 1421 1405 1393 1387 1381 1370 1358 1346 1339 1341 1346 1350 1359 1377 1398 1415 1428 1438 1446 1451 1454 1454 1454 1456 1458
1265 1264 1261 1253 1243 1232 1224 1219 1217 1216 1216 1220 1229 1241 1252 1260 1266 1272 1279 1286 1290 1293 1295 1295 1294 1291 1284 1273 1261 1250 1244 1244 1247 1249 1248 1248 1254 1262 1271 1280 1288 1299 1319 1342 1359 1373 1383 1388 1390 1391 1392 1390 1386 1379 1365 1352 1347 1347 1349 1351 1347 1343 1340 1339 1338 1338 1337 1337 1337 1337 1335 1330 1321 1311 1298 1283 1265 1250 1240 1234 1227 1216 1200 1189 1192 1202 1212 1219 1219 1218 1217 1212 1203 1191 1177 1164 1154 1146 1141 1140 1143 1150 1167 1181 1183 1179 1167 1152 1142 1134 1127 1124 1125 1127 1131 1131 1128 1123 1119 1118 1118 1119 1124 1132 1144 1158 1176 1190 1199 1204 1203 1204 1214 1226 1236 1248 1265 1286 1308 1329 1348 1372 1410 1453 1491 1528 1567 1606 1645 1680 1706 1731 1761 1793 1824 1853 1879 1907 1938 1973 2011 2053 2105 2166 2229 2290 2346 2391 2424 2450 2461 2466 2472 2478 2481 2487 2497 2508 2524 2539 2549 2558 2570 2581 2587 2591 2596 2598 2590 2577 2564 2549 2531 2505 2467 2430 2406 2386 2369 2345 2306 2259 2200 2137 2078 2023 1971 1923 1877 1834 1795 1763 1739 1722 1715 1707 1690 1667 1635 1601 1573 1547 1524 1505 1489 1476 1467 1458 1444 1427 1407 1389 1374 1363 1359 1354 1345 1335 1324 1317 1320 1327 1337 1354 1376 1400 1419 1433 1444 1452 1455 1455 1454 1453 1457 1462
1266 1265 1257 1245 1233 1221 1213 1209 1206 1202 1197 1197 1204 1213 1216 1217 1221 1230 1248 1265 1274 1276 1272 1267 1265 1263 1254 1241 1229 1219 1214 1216 1219 1223 1226 1230 1237 1246 1256 1267 1277 1289 1308 1331 1351 1369 1384 1393 1397 1399 1398 1393 1388 1380 1365 1351 1347 1348 1358 1366 1364 1355 1340 1326 1322 1324 1331 1339 1341 1340 1331 1319 1309 1299 1288 1275 1257 1241 1234 1231 1224 1213 1197 1188 1193 1204 1215 1221 1222 1221 1217 1210 1200 1188 1174 1161 1152 1145 1143 1145 1149 1157 1173 1185 1187 1181 1165 1148 1137 1130 1124 1122 1123 1128 1138 1146 1144 1141 1139 1140 1142 1145 1150 1158 1170 1183 1196 1205 1212 1216 1213 1211 1219 1231 1242 1255 1272 1293 1316 1338 1358 1383 1421 1464 1502 1539 1581 1622 1659 1689 1707 1723 1749 1781 1815 1848 1877 1907 1943 1982 2021 2063 2119 2184 2250 2310 2355 2390 2422 2448 2457 2457 2461 2468 2481 2498 2513 2525 2537 2549 2560 2571 2583 2594 2603 2613 2628 2639 2636 2626 2615 2602 2584 2559 2517 2478 2454 2437 2429 2411 2371 2320 2256 2188 2124 2064 2008 1957 1908 1862 1821 1787 1761 1741 1727 1711 1689 1663 1631 1597 1565 1537 1513 1494 1478 1463 1447 1430 1414 1396 1377 1358 1344 1334 1331 1328 1321 1312 1301 1295 1299 1307 1323 1347 1372 1398 1419 1434 1445 1454 1455 1452 1450 1450 1458 1467
1257 1255 1247 1233 1220 1207 1198 1193 1188 1182 1175 1172 1178 1185 1186 1185 1188 1197 1218 1239 1249 1252 1247 1241 1241 1240 1231 1219 1207 1198 1195 1197 1202 1206 1210 1216 1224 1234 1246 1258 1270 1283 1303 1327 1348 1368 1385 1396 1401 1403 1402 1398 1392 1384 1369 1356 1351 1353 1364 1374 1372 1362 1343 1326 1322 1324 1333 1343 1346 1344 1334 1320 1308 1298 1289 1276 1258 1242 1235 1232 1226 1215 1199 1190 1195 1206 1217 1224 1225 1224 1220 1213 1203 1191 1178 1165 1156 1149 1148 1152 1155 1163 1177 1189 1189 1182 1165 1146 1135 1128 1122 1120 1122 1127 1140 1150 1150 1148 1148 1151 1156 1161 1167 1177 1190 1203 1214 1223 1229 1233 1228 1225 1233 1245 1256 1269 1285 1305 1328 1350 1370 1394 1432 1475 1512 1549 1591 1632 1668 1697 1712 1725 1750 1780 1813 1846 1875 1905 1941 1981 2019 2061 2117 2183 2248 2308 2351 2384 2416 2444 2453 2454 2459 2468 2485 2506 2523 2536 2549 2562 2575 2589 2604 2618 2631 2645 2667 2683 2683 2676 2667 2655 2639 2614 2572 2532 2507 2490 2482 2465 2422 2367 2299 2227 2159 2095 2036 1982 1931 1882 1838 1802 1772 1748 1729 1708 1680 1651 1616 1579 1544 1514 1489 1470 1453 1437 1419 1401 1384 1367 1347 1329 1316 1307 1306 1304 1297 1289 1279 1274 1277 1286 1305 1330 1357 1384 1406 1422 1435 1444 1446 1443 1442 1442 1451 1461
1244 1242 1234 1220 1206 1192 1182 1174 1168 1160 1152 1149 1153 1159 1159 1157 1161 1169 1189 1209 1219 1223 1220 1215 1216 1217 1211 1201 1191 1183 1181 1184 1189 1194 1200 1207 1217 1228 1241 1254 1267 1281 1301 1325 1347 1367 1385 1398 1404 1407 1406 1402 1398 1390 1377 1365 1361 1362 1372 1380 1377 1368 1350 1335 1331 1333 1341 1349 1352 1350 1340 1327 1315 1305 1294 1280 1262 1246 1239 1235 1228 1218 1203 1195 1200 1211 1222 1230 1231 1230 1225 1217 1207 1196 1184 1174 1166 1160 1158 1161 1165 1171 1182 1190 1189 1181 1164 1146 1134 1127 1123 1122 1125 1130 1141 1150 1151 1151 1154 1159 1166 1174 1182 1193 1207 1222 1233 1241 1248 1251 1247 1244 1252 1264 1275 1287 1304 1323 1344 1366 1385 1409 1444 1485 1521 1558 1599 1639 1675 1703 1717 1730 1753 1782 1814 1845 1872 1900 1935 1973 2010 2051 2107 2173 2237 2296 2339 2370 2404 2433 2448 2453 2462 2472 2491 2512 2530 2544 2559 2575 2591 2607 2625 2643 2660 2678 2699 2715 2719 2715 2710 2700 2685 2662 2622 2583 2559 2540 2528 2507 2461 2403 2334 2259 2189 2122 2059 2001 1947 1896 1851 1812 1779 1750 1725 1698 1665 1632 1595 1556 1519 1486 1460 1440 1423 1406 1389 1371 1354 1338 1319 1303 1290 1282 1281 1279 1273 1266 1257 1253 1257 1266 1283 1308 1335 1362 1385 1402 1416 1427 1432 1433 1432 1433 1442 1450
1228 1226 1218 1206 1192 1179 1167 1158 1149 1141 1134 1132 1135 1139 1137 1133 1136 1144 1159 1174 1183 1187 1186 1184 1186 1189 1188 1183 1176 1171 1170 1175 1180 1187 1198 1210 1223 1235 1249 1262 1276 1290 1306 1325 1345 1366 1385 1399 1405 1409 1409 1406 1402 1398 1392 1387 1384 1383 1386 1388 1384 1377 1366 1357 1355 1356 1360 1364 1365 1362 1353 1342 1331 1319 1305 1287 1269 1253 1244 1239 1232 1222 1211 1205 1210 1220 1231 1239 1240 1238 1229 1217 1207 1198 1194 1191 1185 1179 1177 1179 1183 1186 1187 1185 1180 1172 1159 1143 1132 1125 1125 1130 1134 1138 1142 1145 1147 1150 1158 1169 1179 1188 1199 1213 1228 1242 1253 1261 1266 1270 1268 1267 1275 1287 1300 1314 1331 1349 1368 1388 1407 1430 1460 1494 1528 1564 1607 1648 1682 1709 1724 1737 1760 1787 1815 1843 1868 1894 1925 1960 1995 2036 2094 2160 2222 2276 2311 2337 2370 2403 2431 2452 2469 2485 2503 2523 2540 2557 2574 2592 2608 2626 2645 2665 2686 2704 2715 2722 2727 2729 2731 2728 2716 2695 2662 2628 2604 2582 2561 2530 2481 2422 2357 2287 2216 2146 2076 2012 1955 1903 1859 1820 1783 1747 1711 1673 1635 1599 1566 1531 1492 1457 1428 1407 1390 1373 1357 1341 1326 1310 1294 1279 1268 1260 1256 1252 1248 1244 1239 1238 1243 1251 1262 1280 1304 1330 1352 1370 1385 1399 1412 1422 1425 1427 1433 1439
1209 1208 1201 1191 1179 1167 1155 1145 1135 1126 1120 1118 1120 1121 1116 1111 1113 1120 1130 1140 1147 1151 1150 1150 1154 1159 1163 1164 1161 1159 1161 1167 1173 1182 1198 1217 1233 1249 1263 1277 1291 1305 1316 1329 1346 1365 1384 1399 1406 1410 1411 1409 1408 1407 1409 1411 1410 1407 1405 1401 1396 1391 1387 1385 1384 1384 1384 1383 1380 1375 1367 1356 1346 1334 1315 1295 1277 1262 1253 1246 1238 1230 1222 1218 1221 1227 1237 1244 1246 1243 1230 1214 1204 1198 1202 1207 1203 1196 1194 1196 1201 1202 1194 1181 1172 1165 1155 1142 1130 1122 1127 1137 1143 1145 1142 1140 1143 1151 1165 1182 1194 1205 1219 1234 1249 1263 1273 1279 1285 1289 1288 1290 1298 1310 1325 1341 1357 1374 1392 1410 1432 1455 1480 1508 1540 1576 1619 1662 1695 1720 1735 1748 1770 1795 1821 1845 1867 1891 1918 1949 1983 2023 2081 2145 2201 2247 2273 2292 2323 2360 2402 2441 2471 2494 2516 2535 2554 2571 2590 2608 2623 2639 2657 2678 2702 2721 2723 2721 2729 2738 2749 2753 2743 2726 2699 2670 2646 2621 2591 2551 2498 2439 2379 2314 2245 2173 2098 2027 1968 1915 1872 1832 1789 1744 1695 1646 1603 1566 1536 1505 1464 1426 1395 1373 1355 1339 1325 1311 1296 1282 1268 1255 1245 1237 1231 1226 1226 1227 1228 1230 1236 1242 1247 1256 1274 1295 1314 1331 1347 1364 1387 1406 1414 1418 1423 1426
1190 1189 1184 1175 1166 1157 1146 1136 1125 1115 1108 1105 1103 1102 1094 1088 1090 1096 1105 1113 1118 1120 1120 1120 1125 1132 1139 1143 1145 1146 1152 1159 1166 1176 1194 1217 1238 1257 1274 1289 1305 1320 1329 1338 1353 1368 1386 1400 1408 1412 1414 1415 1417 1419 1425 1429 1429 1426 1421 1417 1412 1408 1407 1407 1407 1407 1404 1399 1393 1385 1374 1363 1353 1340 1321 1301 1285 1273 1264 1258 1251 1242 1233 1227 1226 1228 1234 1241 1243 1240 1226 1210 1201 1197 1204 1211 1208 1202 1201 1204 1210 1212 1202 1186 1177 1169 1159 1145 1130 1121 1126 1136 1142 1144 1142 1140 1147 1159 1179 1198 1212 1225 1239 1255 1269 1282 1290 1296 1301 1305 1305 1307 1315 1327 1342 1358 1373 1390 1408 1428 1452 1478 1503 1531 1561 1597 1639 1680 1711 1735 1748 1760 1781 1805 1829 1850 1871 1892 1916 1945 1978 2017 2071 2129 2177 2214 2232 2247 2277 2315 2364 2414 2455 2490 2520 2543 2563 2582 2600 2616 2627 2639 2655 2678 2704 2725 2728 2730 2744 2761 2779 2788 2781 2765 2740 2712 2687 2659 2626 2582 2527 2467 2408 2346 2278 2207 2131 2058 1997 1942 1896 1852 1801 1747 1689 1633 1586 1546 1515 1482 1438 1396 1364 1340 1322 1306 1292 1279 1265 1252 1240 1228 1219 1211 1206 1206 1211 1217 1223 1229 1235 1240 1240 1242 1252 1266 1281 1296 1312 1331 1358 1382 1395 1402 1409 1412
1171 1170 1166 1159 1153 1146 1137 1127 1116 1105 1095 1088 1084 1081 1073 1068 1071 1077 1084 1089 1092 1093 1092 1093 1100 1108 1118 1126 1131 1136 1143 1151 1159 1168 1188 1213 1237 1260 1281 1299 1316 1331 1340 1348 1359 1372 1388 1402 1410 1415 1419 1422 1426 1431 1438 1442 1441 1438 1435 1432 1428 1426 1424 1423 1423 1422 1419 1413 1403 1391 1379 1367 1357 1345 1327 1309 1295 1285 1278 1272 1265 1256 1246 1236 1230 1228 1231 1235 1237 1235 1224 1210 1203 1200 1207 1213 1210 1204 1202 1205 1213 1217 1210 1196 1187 1179 1169 1154 1137 1125 1126 1134 1139 1142 1142 1145 1155 1172 1194 1216 1231 1244 1258 1272 1286 1297 1304 1309 1313 1317 1318 1320 1327 1339 1355 1371 1387 1403 1421 1443 1470 1499 1527 1555 1586 1620 1659 1696 1725 1747 1760 1772 1793 1815 1837 1856 1874 1893 1915 1941 1973 2010 2058 2107 2145 2175 2191 2207 2237 2276 2327 2383 2435 2481 2519 2549 2570 2589 2604 2614 2620 2629 2644 2668 2697 2722 2733 2744 2766 2789 2809 2818 2812 2798 2777 2753 2728 2698 2662 2616 2560 2498 2437 2373 2307 2237 2163 2091 2029 1973 1924 1873 1815 1753 1687 1626 1575 1533 1497 1459 1412 1368 1334 1310 1291 1274 1259 1245 1232 1221 1210 1200 1191 1184 1182 1186 1196 1209 1220 1229 1235 1240 1238 1235 1238 1245 1254 1267 1283 1302 1328 1354 1369 1381 1391 1397
1153 1152 1147 1141 1137 1132 1124 1114 1103 1090 1076 1064 1057 1054 1054 1057 1062 1066 1067 1066 1066 1067 1068 1072 1079 1089 1103 1116 1124 1131 1136 1142 1149 1159 1176 1199 1225 1251 1277 1299 1318 1334 1344 1352 1361 1372 1389 1404 1413 1420 1425 1431 1438 1444 1447 1447 1445 1443 1443 1443 1442 1438 1432 1427 1426 1426 1424 1419 1407 1394 1382 1373 1363 1351 1336 1320 1309 1299 1293 1287 1280 1271 1259 1247 1238 1232 1232 1234 1236 1235 1229 1222 1217 1214 1215 1216 1212 1206 1199 1198 1206 1213 1213 1206 1199 1192 1185 1173 1155 1139 1132 1132 1135 1139 1144 1152 1167 1186 1210 1232 1247 1260 1272 1284 1296 1305 1309 1311 1314 1319 1321 1326 1334 1346 1366 1386 1402 1418 1437 1461 1489 1520 1551 1582 1612 1644 1674 1702 1727 1748 1766 1784 1805 1826 1844 1859 1874 1891 1909 1933 1963 1996 2034 2070 2099 2126 2153 2184 2218 2255 2303 2360 2418 2473 2520 2555 2579 2595 2600 2599 2600 2607 2625 2654 2686 2716 2742 2770 2801 2827 2836 2833 2825 2817 2810 2799 2777 2746 2704 2652 2594 2530 2459 2387 2319 2253 2185 2119 2057 2000 1950 1896 1831 1762 1689 1621 1568 1522 1478 1432 1381 1335 1303 1282 1264 1245 1224 1205 1191 1181 1174 1168 1160 1154 1153 1160 1175 1193 1213 1228 1236 1241 1240 1236 1235 1236 1240 1251 1267 1285 1302 1319 1336 1351 1367 1378
1137 1136 1130 1124 1121 1117 1109 1099 1087 1074 1056 1039 1030 1029 1037 1049 1056 1060 1054 1047 1045 1047 1050 1056 1065 1076 1093 1110 1121 1128 1131 1134 1140 1149 1163 1184 1211 1240 1270 1295 1315 1332 1343 1352 1361 1372 1390 1408 1417 1424 1431 1439 1448 1454 1453 1448 1445 1444 1447 1451 1450 1446 1435 1425 1423 1424 1425 1421 1409 1395 1386 1379 1370 1358 1344 1331 1321 1312 1305 1299 1292 1283 1270 1257 1247 1239 1236 1238 1239 1240 1240 1238 1235 1231 1227 1223 1217 1210 1199 1194 1201 1211 1217 1217 1212 1206 1203 1194 1177 1159 1143 1136 1137 1142 1151 1164 1181 1202 1225 1247 1262 1275 1284 1293 1304 1312 1314 1313 1315 1320 1325 1331 1340 1353 1376 1400 1416 1432 1451 1475 1504 1536 1569 1602 1632 1660 1683 1702 1723 1744 1767 1790 1811 1830 1845 1857 1870 1885 1900 1920 1948 1978 2006 2032 2055 2082 2123 2168 2206 2242 2286 2339 2399 2458 2511 2550 2575 2590 2585 2574 2571 2578 2601 2635 2670 2704 2745 2787 2826 2851 2848 2833 2823 2820 2828 2831 2814 2781 2735 2679 2620 2553 2472 2391 2322 2258 2197 2136 2075 2018 1967 1912 1845 1771 1692 1619 1563 1514 1463 1409 1355 1309 1280 1261 1244 1223 1195 1169 1154 1146 1143 1140 1134 1127 1126 1134 1151 1174 1200 1221 1231 1236 1238 1236 1232 1230 1232 1241 1258 1272 1280 1289 1304 1321 1343 1359
1124 1122 1117 1110 1107 1103 1096 1086 1074 1060 1041 1024 1015 1014 1024 1039 1047 1050 1044 1035 1033 1035 1039 1047 1056 1068 1086 1104 1116 1124 1126 1128 1135 1144 1158 1179 1206 1236 1266 1293 1314 1331 1343 1352 1361 1373 1392 1410 1421 1428 1435 1444 1453 1459 1457 1451 1448 1447 1451 1456 1455 1451 1439 1428 1425 1426 1428 1425 1412 1398 1390 1384 1375 1364 1350 1337 1327 1319 1312 1306 1299 1290 1278 1265 1254 1246 1243 1244 1246 1248 1249 1249 1247 1243 1238 1233 1227 1219 1208 1202 1209 1220 1228 1230 1225 1220 1218 1211 1194 1175 1158 1148 1150 1155 1165 1179 1197 1217 1241 1262 1277 1289 1298 1307 1317 1325 1325 1323 1326 1330 1335 1342 1351 1364 1387 1412 1428 1443 1461 1485 1514 1545 1577 1609 1638 1665 1684 1701 1720 1740 1763 1786 1807 1825 1838 1848 1860 1873 1887 1906 1932 1960 1985 2007 2028 2054 2098 2146 2184 2219 2260 2312 2372 2431 2484 2524 2550 2564 2558 2544 2541 2549 2574 2610 2646 2683 2728 2775 2817 2843 2839 2821 2812 2812 2826 2834 2819 2788 2741 2685 2627 2560 2477 2393 2324 2261 2202 2143 2082 2024 1974 1918 1849 1774 1692 1618 1560 1510 1456 1400 1344 1296 1267 1249 1231 1209 1179 1151 1135 1126 1124 1123 1116 1109 1107 1115 1133 1156 1185 1207 1217 1222 1225 1223 1218 1215 1217 1226 1242 1256 1261 1267 1282 1300 1324 1341
1111 1109 1104 1097 1094 1091 1083 1073 1061 1048 1031 1015 1007 1005 1014 1026 1034 1038 1033 1026 1025 1028 1033 1041 1051 1063 1081 1098 1110 1119 1122 1125 1133 1143 1158 1179 1206 1236 1266 1292 1313 1331 1344 1354 1364 1375 1393 1411 1421 1429 1437 1447 1457 1463 1461 1456 1452 1451 1455 1458 1457 1453 1442 1432 1430 1431 1433 1430 1418 1404 1393 1385 1376 1365 1353 1340 1330 1322 1316 1311 1304 1295 1284 1272 1261 1253 1250 1249 1251 1253 1255 1256 1255 1251 1246 1240 1235 1228 1218 1214 1221 1232 1241 1244 1239 1234 1231 1223 1207 1189 1172 1164 1165 1171 1181 1195 1213 1232 1255 1275 1290 1302 1312 1321 1331 1339 1340 1338 1341 1345 1351 1358 1366 1378 1399 1422 1437 1451 1469 1491 1518 1549 1581 1613 1641 1667 1684 1699 1717 1736 1758 1781 1800 1817 1828 1836 1846 1859 1872 1890 1915 1942 1966 1988 2008 2033 2071 2114 2150 2184 2227 2280 2338 2396 2448 2487 2512 2527 2524 2513 2511 2520 2545 2582 2619 2656 2700 2746 2788 2817 2819 2808 2803 2803 2813 2818 2803 2774 2731 2678 2621 2557 2479 2399 2332 2270 2210 2149 2089 2029 1975 1915 1844 1769 1691 1619 1562 1510 1453 1393 1335 1287 1258 1240 1222 1199 1170 1142 1126 1116 1111 1107 1099 1092 1093 1102 1120 1142 1169 1189 1198 1203 1205 1203 1198 1195 1196 1206 1221 1236 1242 1249 1264 1282 1305 1323
1096 1095 1088 1082 1080 1077 1070 1060 1049 1037 1026 1017 1011 1007 1008 1011 1017 1023 1023 1022 1023 1027 1035 1046 1057 1069 1083 1097 1108 1117 1123 1128 1137 1148 1165 1189 1216 1243 1268 1289 1308 1327 1344 1358 1369 1380 1393 1405 1414 1423 1436 1450 1461 1467 1465 1460 1457 1456 1455 1455 1453 1449 1442 1435 1434 1435 1439 1439 1428 1412 1395 1380 1369 1358 1348 1337 1327 1319 1315 1312 1305 1298 1288 1279 1270 1261 1252 1246 1247 1250 1255 1258 1258 1255 1248 1240 1235 1230 1225 1226 1235 1246 1255 1259 1254 1249 1242 1232 1216 1200 1187 1181 1184 1189 1199 1213 1228 1246 1263 1280 1293 1306 1320 1333 1345 1353 1356 1356 1359 1363 1371 1380 1388 1397 1412 1429 1443 1455 1469 1488 1514 1545 1581 1615 1644 1667 1682 1694 1709 1727 1750 1774 1794 1808 1814 1818 1827 1838 1852 1870 1894 1921 1948 1973 1993 2014 2037 2064 2094 2129 2179 2238 2297 2351 2399 2434 2458 2475 2479 2476 2478 2487 2513 2549 2587 2623 2658 2695 2734 2768 2789 2798 2799 2796 2787 2773 2754 2728 2693 2648 2595 2536 2475 2414 2354 2293 2230 2166 2104 2040 1970 1894 1818 1746 1685 1630 1576 1520 1453 1384 1325 1278 1252 1236 1218 1196 1171 1148 1133 1121 1106 1091 1080 1076 1084 1101 1118 1135 1153 1165 1172 1177 1177 1173 1169 1167 1168 1177 1192 1208 1218 1229 1245 1263 1287 1305
1079 1077 1071 1065 1066 1065 1060 1050 1039 1030 1026 1023 1019 1015 1007 1002 1006 1013 1019 1024 1027 1032 1043 1058 1069 1080 1091 1101 1111 1119 1127 1135 1145 1157 1176 1201 1225 1249 1267 1282 1300 1320 1340 1358 1372 1384 1392 1399 1407 1418 1435 1452 1464 1470 1469 1464 1462 1460 1456 1451 1448 1445 1441 1438 1437 1439 1445 1447 1438 1421 1397 1375 1362 1353 1344 1335 1325 1316 1313 1311 1306 1299 1292 1286 1279 1270 1256 1245 1244 1247 1255 1261 1262 1259 1251 1242 1237 1233 1234 1239 1249 1259 1268 1272 1268 1262 1253 1241 1228 1216 1208 1205 1208 1214 1223 1234 1247 1260 1272 1283 1296 1309 1327 1344 1358 1368 1373 1376 1378 1383 1393 1403 1409 1415 1424 1434 1446 1457 1468 1484 1509 1541 1580 1617 1645 1668 1679 1687 1698 1713 1737 1763 1781 1794 1796 1795 1803 1814 1828 1846 1869 1895 1925 1953 1975 1992 2001 2013 2038 2073 2129 2194 2250 2301 2343 2374 2397 2415 2426 2431 2436 2448 2474 2510 2549 2583 2608 2635 2670 2708 2747 2775 2783 2776 2748 2714 2690 2666 2638 2602 2551 2498 2456 2415 2365 2309 2245 2178 2115 2048 1961 1868 1786 1717 1672 1634 1584 1526 1449 1372 1313 1269 1247 1235 1217 1196 1175 1158 1146 1132 1107 1082 1069 1066 1082 1104 1117 1127 1133 1137 1142 1146 1145 1141 1139 1139 1141 1149 1164 1181 1195 1209 1225 1243 1267 1286
1058 1056 1051 1048 1051 1054 1051 1044 1034 1026 1025 1026 1024 1020 1010 1004 1008 1015 1023 1030 1034 1040 1053 1068 1081 1091 1101 1109 1118 1126 1134 1142 1152 1165 1184 1206 1227 1246 1260 1272 1290 1310 1331 1352 1369 1382 1391 1398 1406 1417 1435 1453 1465 1471 1470 1467 1465 1463 1459 1453 1449 1446 1442 1440 1439 1441 1449 1452 1444 1429 1404 1381 1367 1358 1349 1340 1328 1318 1315 1314 1308 1302 1296 1292 1287 1281 1266 1253 1251 1255 1263 1270 1272 1270 1262 1253 1248 1245 1246 1253 1261 1270 1279 1283 1279 1274 1266 1256 1247 1240 1236 1235 1239 1245 1252 1260 1268 1277 1284 1293 1305 1319 1338 1358 1373 1385 1391 1394 1397 1401 1411 1419 1423 1425 1430 1438 1449 1460 1469 1485 1510 1542 1582 1619 1646 1667 1676 1680 1688 1700 1721 1745 1762 1773 1773 1772 1778 1789 1803 1821 1842 1867 1897 1925 1948 1964 1970 1978 2001 2035 2090 2153 2205 2251 2288 2317 2339 2357 2370 2379 2387 2401 2428 2466 2504 2538 2561 2584 2616 2653 2696 2729 2739 2733 2700 2661 2635 2611 2585 2551 2502 2452 2417 2387 2347 2298 2239 2174 2112 2043 1951 1852 1766 1696 1654 1620 1572 1512 1434 1357 1301 1262 1244 1233 1214 1193 1174 1160 1150 1138 1111 1085 1071 1068 1084 1102 1109 1111 1110 1109 1112 1117 1116 1115 1115 1118 1122 1131 1146 1162 1177 1192 1207 1225 1248 1267
1033 1032 1029 1029 1036 1043 1044 1038 1030 1025 1025 1028 1028 1026 1018 1014 1018 1026 1034 1042 1047 1053 1065 1079 1091 1102 1111 1119 1126 1134 1142 1152 1163 1175 1192 1210 1227 1242 1253 1265 1283 1302 1323 1344 1363 1379 1390 1399 1407 1418 1435 1453 1465 1471 1472 1470 1469 1468 1464 1458 1454 1450 1447 1445 1444 1446 1452 1454 1448 1434 1412 1392 1379 1369 1359 1348 1335 1324 1318 1316 1310 1304 1301 1299 1297 1292 1279 1268 1265 1268 1275 1283 1285 1283 1275 1266 1261 1259 1261 1267 1274 1282 1290 1294 1291 1286 1280 1274 1269 1267 1266 1267 1271 1277 1283 1288 1292 1296 1301 1309 1320 1334 1353 1372 1389 1401 1409 1412 1414 1419 1426 1432 1433 1433 1436 1443 1452 1463 1473 1490 1515 1547 1584 1619 1645 1664 1673 1675 1679 1687 1705 1726 1742 1751 1750 1747 1753 1764 1778 1795 1815 1838 1864 1891 1913 1930 1939 1949 1971 2004 2056 2114 2162 2202 2235 2259 2280 2298 2311 2322 2332 2348 2377 2415 2454 2488 2512 2534 2564 2599 2641 2675 2687 2682 2652 2615 2589 2563 2536 2501 2453 2404 2371 2345 2312 2273 2222 2162 2101 2033 1941 1842 1754 1680 1633 1595 1546 1488 1414 1342 1291 1255 1237 1225 1206 1184 1167 1156 1149 1139 1116 1092 1078 1076 1088 1100 1099 1093 1087 1084 1087 1091 1091 1091 1095 1101 1108 1118 1134 1149 1163 1178 1192 1208 1230 1248
1005 1004 1005 1011 1022 1031 1035 1032 1026 1022 1026 1031 1033 1034 1032 1032 1038 1046 1054 1062 1067 1072 1079 1087 1098 1109 1119 1127 1134 1141 1153 1166 1179 1190 1201 1213 1226 1239 1252 1267 1285 1303 1321 1339 1358 1376 1390 1401 1410 1420 1436 1451 1463 1470 1474 1475 1477 1477 1472 1466 1461 1458 1456 1456 1456 1456 1455 1451 1443 1433 1420 1407 1396 1386 1372 1357 1342 1329 1320 1314 1308 1303 1305 1308 1308 1305 1296 1287 1284 1286 1293 1301 1304 1301 1290 1278 1272 1271 1276 1284 1291 1298 1307 1312 1310 1306 1299 1293 1292 1293 1294 1296 1300 1306 1312 1316 1317 1318 1324 1334 1346 1359 1373 1389 1405 1419 1426 1428 1431 1434 1440 1444 1442 1440 1443 1449 1459 1469 1482 1501 1527 1557 1587 1613 1635 1655 1666 1670 1673 1677 1692 1711 1725 1732 1727 1721 1726 1736 1752 1770 1790 1809 1828 1847 1867 1886 1903 1921 1945 1976 2025 2078 2122 2157 2180 2197 2215 2232 2247 2259 2271 2289 2317 2354 2393 2428 2455 2480 2510 2544 2588 2625 2638 2637 2614 2584 2559 2532 2501 2463 2414 2363 2323 2293 2265 2234 2196 2147 2089 2023 1937 1842 1754 1675 1612 1559 1507 1452 1389 1329 1283 1247 1222 1202 1180 1160 1147 1142 1138 1133 1117 1099 1088 1084 1091 1095 1087 1076 1068 1065 1069 1072 1070 1068 1073 1082 1094 1108 1124 1140 1154 1168 1182 1196 1214 1227
977 977 982 992 1006 1018 1024 1023 1019 1018 1024 1033 1036 1039 1043 1048 1055 1064 1072 1079 1085 1089 1090 1093 1102 1113 1123 1131 1138 1146 1162 1179 1193 1203 1210 1216 1226 1239 1255 1273 1292 1308 1322 1336 1355 1374 1390 1403 1412 1422 1436 1450 1461 1470 1477 1482 1485 1487 1482 1475 1471 1469 1469 1471 1471 1469 1461 1450 1441 1433 1428 1424 1415 1404 1387 1368 1352 1337 1325 1316 1309 1306 1312 1320 1321 1319 1313 1306 1303 1303 1310 1318 1320 1317 1302 1286 1280 1280 1288 1299 1307 1314 1324 1331 1329 1325 1317 1311 1312 1314 1316 1318 1322 1328 1334 1339 1338 1339 1346 1359 1372 1383 1393 1405 1421 1435 1441 1442 1444 1447 1452 1454 1451 1448 1451 1457 1466 1477 1492 1513 1540 1567 1589 1607 1626 1646 1659 1666 1668 1670 1683 1700 1712 1717 1709 1699 1702 1713 1730 1749 1768 1784 1796 1807 1824 1844 1869 1894 1919 1949 1994 2045 2085 2117 2132 2142 2157 2174 2190 2203 2216 2233 2261 2297 2335 2372 2403 2431 2462 2496 2542 2582 2598 2600 2585 2561 2538 2511 2476 2435 2386 2334 2285 2248 2221 2197 2169 2130 2075 2011 1932 1844 1756 1672 1594 1527 1472 1420 1367 1318 1276 1240 1206 1176 1151 1132 1124 1124 1124 1121 1113 1101 1092 1088 1091 1089 1078 1065 1057 1056 1060 1062 1056 1052 1057 1068 1084 1101 1118 1132 1147 1161 1174 1186 1200 1209
955 956 962 973 988 1002 1010 1011 1010 1011 1020 1031 1036 1041 1046 1053 1061 1069 1078 1085 1091 1095 1094 1095 1104 1115 1125 1134 1140 1149 1166 1185 1199 1209 1215 1220 1229 1242 1258 1277 1295 1311 1323 1335 1354 1373 1390 1403 1413 1423 1436 1450 1461 1472 1481 1488 1493 1496 1492 1487 1483 1482 1483 1485 1486 1483 1473 1461 1451 1444 1441 1438 1431 1419 1401 1381 1365 1351 1337 1327 1321 1318 1326 1334 1336 1333 1326 1319 1315 1314 1319 1326 1328 1323 1308 1291 1285 1285 1294 1307 1315 1323 1334 1341 1341 1337 1330 1324 1325 1328 1330 1331 1336 1341 1348 1353 1352 1352 1360 1373 1386 1398 1407 1417 1433 1446 1452 1453 1455 1457 1462 1463 1460 1456 1458 1465 1474 1484 1499 1521 1547 1572 1591 1607 1624 1643 1656 1662 1663 1665 1676 1691 1702 1706 1696 1685 1687 1696 1712 1732 1749 1763 1771 1780 1795 1815 1840 1867 1891 1919 1963 2011 2050 2080 2094 2101 2115 2132 2147 2161 2173 2190 2218 2253 2291 2328 2360 2390 2422 2456 2504 2546 2563 2567 2555 2534 2513 2486 2452 2410 2362 2310 2260 2221 2195 2173 2149 2113 2060 1997 1920 1834 1748 1663 1581 1511 1456 1406 1356 1309 1269 1232 1195 1162 1137 1117 1111 1112 1113 1112 1106 1097 1090 1087 1089 1088 1076 1063 1055 1054 1058 1059 1052 1046 1051 1062 1078 1096 1112 1126 1139 1153 1166 1177 1189 1197
937 938 944 955 971 987 997 1002 1003 1007 1017 1029 1036 1041 1048 1054 1063 1071 1078 1084 1090 1094 1095 1099 1108 1118 1129 1137 1144 1153 1168 1185 1199 1211 1218 1225 1235 1247 1263 1281 1298 1313 1325 1338 1356 1375 1391 1403 1413 1423 1435 1449 1461 1473 1483 1492 1499 1504 1502 1499 1497 1496 1497 1499 1500 1498 1489 1477 1467 1460 1457 1454 1446 1434 1417 1397 1381 1367 1354 1344 1338 1335 1342 1349 1349 1346 1338 1330 1324 1321 1324 1329 1330 1325 1312 1297 1292 1292 1301 1313 1322 1330 1342 1349 1350 1346 1339 1333 1334 1338 1340 1343 1347 1353 1359 1362 1361 1362 1371 1384 1398 1409 1417 1426 1441 1454 1461 1463 1464 1466 1469 1469 1465 1462 1465 1472 1481 1490 1504 1524 1549 1574 1593 1609 1626 1643 1654 1658 1657 1658 1668 1683 1693 1696 1687 1677 1679 1686 1699 1714 1729 1743 1752 1762 1776 1794 1816 1840 1863 1889 1929 1974 2011 2041 2056 2065 2080 2096 2112 2127 2140 2156 2182 2215 2252 2290 2325 2359 2391 2426 2472 2512 2530 2535 2524 2504 2484 2458 2424 2384 2337 2285 2235 2196 2171 2149 2126 2091 2038 1977 1902 1818 1733 1649 1572 1505 1451 1403 1354 1309 1269 1231 1193 1159 1133 1112 1105 1105 1106 1106 1102 1096 1090 1088 1089 1085 1073 1061 1054 1052 1056 1058 1053 1049 1054 1064 1078 1094 1109 1122 1134 1146 1158 1169 1182 1190
927 928 931 940 956 974 989 998 1003 1008 1017 1028 1035 1042 1049 1055 1064 1071 1074 1075 1079 1085 1093 1104 1114 1125 1136 1145 1153 1160 1169 1179 1192 1205 1219 1231 1243 1256 1271 1287 1303 1318 1334 1350 1367 1384 1397 1407 1417 1426 1434 1443 1455 1468 1481 1493 1502 1509 1511 1511 1511 1511 1513 1515 1515 1514 1507 1498 1490 1483 1479 1475 1467 1455 1439 1420 1403 1389 1376 1367 1361 1358 1359 1361 1359 1355 1347 1339 1332 1327 1325 1324 1323 1321 1315 1308 1305 1305 1312 1322 1330 1339 1350 1358 1359 1355 1346 1338 1338 1342 1347 1353 1358 1362 1364 1364 1364 1367 1380 1397 1411 1421 1426 1431 1443 1456 1465 1470 1473 1473 1470 1465 1459 1458 1466 1479 1488 1496 1506 1521 1544 1570 1595 1617 1634 1648 1652 1649 1646 1646 1657 1672 1681 1686 1683 1680 1682 1687 1692 1698 1710 1724 1740 1757 1773 1788 1802 1818 1838 1861 1891 1925 1960 1993 2018 2037 2054 2071 2091 2110 2125 2140 2159 2186 2221 2262 2307 2351 2387 2420 2458 2490 2507 2513 2500 2477 2455 2428 2395 2356 2310 2258 2206 2164 2139 2118 2093 2056 2004 1945 1875 1796 1714 1636 1570 1515 1465 1418 1374 1331 1292 1253 1211 1173 1145 1123 1110 1105 1103 1103 1103 1102 1099 1095 1087 1075 1063 1053 1048 1047 1050 1055 1061 1068 1075 1084 1093 1104 1117 1128 1135 1142 1151 1162 1176 1187
921 921 921 928 944 962 982 996 1003 1009 1017 1026 1034 1042 1049 1055 1064 1070 1068 1064 1066 1072 1087 1105 1118 1129 1140 1150 1159 1166 1168 1172 1183 1198 1218 1238 1254 1268 1283 1298 1313 1329 1347 1365 1381 1395 1404 1412 1421 1428 1432 1438 1448 1462 1478 1493 1504 1512 1518 1522 1525 1527 1529 1531 1531 1530 1526 1520 1514 1508 1504 1499 1491 1480 1464 1445 1427 1411 1399 1390 1384 1380 1376 1372 1368 1362 1355 1346 1339 1331 1324 1319 1318 1319 1321 1322 1321 1321 1325 1333 1341 1349 1360 1368 1369 1365 1354 1342 1340 1343 1351 1359 1365 1368 1367 1365 1367 1374 1392 1413 1428 1437 1438 1438 1445 1454 1465 1473 1476 1475 1466 1456 1450 1451 1465 1483 1493 1500 1505 1517 1538 1565 1596 1622 1640 1652 1649 1639 1633 1633 1645 1661 1669 1674 1678 1681 1685 1688 1685 1683 1691 1706 1729 1752 1768 1780 1787 1795 1812 1832 1852 1879 1912 1949 1985 2015 2034 2052 2076 2099 2116 2132 2145 2165 2199 2242 2297 2351 2391 2423 2453 2477 2493 2499 2483 2456 2430 2400 2365 2327 2282 2230 2175 2132 2106 2086 2059 2020 1969 1912 1848 1775 1697 1625 1573 1530 1484 1438 1397 1359 1319 1279 1233 1192 1162 1137 1118 1106 1097 1094 1098 1101 1099 1094 1077 1059 1050 1045 1042 1042 1046 1054 1071 1090 1101 1109 1114 1120 1130 1139 1141 1143 1148 1156 1172 1185
914 913 913 919 934 952 973 989 998 1005 1014 1023 1032 1041 1048 1054 1063 1069 1066 1060 1059 1065 1081 1100 1113 1124 1136 1147 1158 1165 1167 1170 1181 1197 1219 1243 1263 1281 1297 1312 1327 1343 1360 1377 1390 1401 1407 1413 1422 1430 1433 1437 1447 1461 1478 1494 1506 1516 1524 1530 1535 1539 1542 1545 1545 1545 1542 1538 1533 1529 1526 1522 1514 1502 1486 1466 1447 1429 1415 1406 1401 1396 1391 1385 1379 1371 1362 1353 1345 1336 1328 1322 1322 1324 1329 1333 1333 1333 1337 1344 1352 1360 1371 1379 1380 1377 1364 1350 1346 1347 1353 1362 1368 1371 1370 1370 1376 1388 1410 1433 1448 1457 1455 1450 1451 1455 1462 1469 1472 1470 1461 1450 1446 1449 1465 1484 1495 1501 1505 1515 1536 1562 1593 1621 1638 1649 1643 1631 1624 1623 1635 1650 1657 1661 1666 1671 1675 1678 1672 1667 1673 1687 1710 1734 1748 1758 1761 1766 1781 1800 1818 1844 1879 1919 1960 1993 2012 2030 2055 2080 2099 2115 2128 2147 2181 2224 2282 2339 2380 2412 2440 2463 2480 2488 2470 2439 2408 2374 2336 2297 2253 2202 2148 2104 2079 2060 2033 1995 1945 1890 1830 1761 1687 1619 1573 1535 1491 1446 1407 1369 1329 1288 1241 1198 1167 1141 1118 1099 1084 1075 1076 1079 1079 1074 1058 1043 1039 1040 1041 1044 1047 1056 1077 1100 1114 1124 1128 1133 1142 1150 1149 1146 1147 1152 1166 1178
904 904 906 913 927 945 964 979 988 997 1007 1017 1027 1036 1044 1052 1061 1068 1065 1058 1057 1060 1074 1092 1104 1116 1128 1141 1153 1162 1165 1168 1180 1197 1220 1247 1270 1291 1310 1327 1342 1357 1373 1386 1396 1404 1408 1413 1422 1430 1434 1439 1450 1463 1479 1495 1507 1518 1527 1536 1543 1549 1554 1558 1559 1559 1557 1554 1551 1548 1546 1541 1532 1521 1504 1482 1461 1442 1427 1419 1414 1409 1403 1397 1389 1380 1369 1358 1349 1340 1332 1328 1328 1333 1340 1346 1346 1346 1350 1356 1363 1371 1381 1388 1390 1386 1374 1359 1352 1351 1356 1365 1370 1374 1374 1377 1387 1403 1428 1452 1467 1475 1472 1464 1460 1458 1459 1462 1464 1463 1455 1448 1445 1449 1464 1482 1491 1497 1502 1512 1533 1559 1589 1615 1631 1641 1635 1623 1617 1615 1625 1638 1644 1647 1650 1653 1657 1660 1655 1651 1657 1669 1690 1711 1723 1731 1733 1737 1751 1768 1786 1813 1851 1893 1934 1966 1984 2002 2028 2055 2076 2094 2109 2130 2165 2207 2261 2313 2353 2386 2417 2443 2462 2470 2454 2420 2386 2346 2306 2265 2222 2173 2122 2081 2058 2038 2011 1972 1923 1870 1814 1751 1682 1617 1570 1531 1486 1443 1407 1371 1332 1290 1240 1195 1163 1137 1112 1088 1067 1051 1046 1046 1046 1043 1032 1024 1027 1034 1041 1046 1050 1058 1080 1105 1121 1132 1138 1143 1152 1159 1156 1150 1147 1147 1157 1166
885 888 897 912 927 943 955 964 973 982 993 1004 1015 1025 1038 1049 1059 1067 1067 1062 1061 1062 1071 1084 1096 1108 1121 1136 1149 1159 1162 1165 1177 1194 1218 1246 1272 1296 1319 1338 1354 1368 1380 1390 1397 1402 1406 1410 1419 1429 1438 1448 1459 1471 1483 1494 1505 1517 1529 1539 1548 1557 1566 1574 1576 1575 1574 1573 1572 1569 1562 1552 1542 1531 1513 1491 1468 1448 1436 1430 1426 1421 1415 1406 1398 1387 1373 1359 1349 1340 1333 1331 1333 1339 1352 1363 1365 1364 1364 1368 1374 1381 1387 1391 1391 1389 1379 1366 1358 1355 1363 1373 1380 1382 1382 1386 1399 1418 1441 1462 1476 1486 1487 1482 1475 1467 1458 1452 1452 1452 1451 1450 1451 1454 1462 1471 1478 1485 1492 1506 1528 1553 1580 1602 1617 1627 1624 1616 1609 1606 1613 1623 1628 1628 1627 1627 1629 1633 1633 1634 1640 1650 1669 1687 1697 1703 1705 1710 1723 1738 1755 1781 1819 1862 1899 1927 1943 1961 1992 2024 2046 2066 2088 2115 2151 2189 2227 2264 2299 2334 2372 2406 2427 2438 2425 2394 2358 2315 2272 2230 2188 2142 2099 2066 2046 2025 1990 1944 1894 1845 1800 1747 1683 1617 1558 1507 1460 1420 1393 1367 1330 1285 1230 1179 1146 1120 1097 1073 1047 1024 1008 1000 999 1000 999 1001 1012 1025 1037 1045 1050 1058 1079 1104 1122 1135 1142 1147 1156 1162 1159 1151 1145 1141 1141 1142
867 871 888 911 928 942 948 950 958 968 979 992 1002 1014 1030 1046 1057 1065 1068 1066 1065 1065 1070 1079 1090 1102 1116 1132 1146 1157 1159 1163 1175 1192 1216 1244 1271 1298 1323 1344 1360 1374 1384 1390 1396 1400 1403 1408 1417 1428 1442 1457 1469 1480 1487 1494 1504 1516 1529 1542 1552 1562 1575 1586 1589 1589 1589 1588 1588 1584 1572 1557 1546 1535 1517 1493 1470 1451 1441 1438 1435 1431 1423 1414 1405 1393 1377 1360 1350 1341 1335 1334 1337 1346 1363 1378 1382 1381 1378 1379 1384 1391 1393 1393 1393 1391 1383 1373 1364 1362 1371 1385 1392 1394 1393 1396 1411 1430 1450 1469 1482 1492 1498 1497 1490 1477 1460 1447 1444 1446 1451 1457 1459 1461 1461 1462 1467 1474 1485 1502 1524 1548 1572 1591 1605 1614 1615 1609 1603 1599 1603 1610 1612 1611 1606 1601 1602 1606 1611 1617 1623 1632 1647 1662 1670 1675 1678 1683 1696 1709 1723 1747 1785 1826 1859 1881 1895 1913 1948 1984 2008 2029 2056 2089 2126 2160 2182 2203 2234 2271 2316 2357 2381 2393 2385 2358 2322 2279 2234 2192 2151 2110 2074 2049 2033 2012 1969 1915 1865 1820 1784 1742 1682 1615 1543 1478 1429 1392 1375 1358 1323 1277 1216 1159 1124 1099 1079 1057 1029 1002 976 960 958 961 969 982 997 1013 1029 1040 1045 1053 1073 1098 1116 1131 1138 1144 1152 1159 1156 1148 1141 1133 1124 1118
859 863 883 907 925 938 942 944 950 961 973 985 996 1008 1025 1042 1053 1062 1066 1065 1064 1064 1068 1076 1087 1099 1114 1129 1144 1155 1158 1162 1174 1191 1216 1244 1272 1299 1325 1347 1363 1377 1386 1392 1397 1401 1404 1409 1418 1429 1445 1461 1474 1485 1490 1496 1506 1518 1532 1545 1555 1565 1580 1591 1594 1594 1594 1594 1594 1590 1577 1560 1549 1538 1520 1497 1473 1454 1446 1444 1441 1437 1430 1421 1411 1400 1383 1366 1355 1347 1342 1341 1345 1354 1373 1389 1393 1392 1389 1389 1395 1401 1402 1401 1401 1400 1392 1382 1374 1371 1381 1396 1402 1404 1403 1406 1420 1439 1459 1476 1488 1499 1506 1506 1499 1485 1466 1450 1447 1449 1456 1463 1466 1466 1464 1463 1467 1473 1485 1503 1524 1547 1570 1588 1601 1609 1610 1605 1598 1593 1595 1601 1602 1599 1592 1586 1585 1588 1593 1599 1604 1612 1625 1639 1645 1649 1651 1655 1666 1679 1691 1713 1750 1788 1819 1838 1851 1869 1903 1940 1962 1984 2011 2045 2082 2115 2133 2149 2179 2216 2263 2306 2331 2345 2339 2314 2280 2238 2194 2153 2115 2075 2043 2022 2008 1988 1945 1891 1842 1799 1767 1729 1671 1604 1530 1462 1412 1377 1363 1348 1314 1268 1205 1146 1111 1086 1067 1045 1017 988 960 941 939 943 953 968 985 1002 1019 1031 1036 1044 1065 1089 1108 1123 1131 1136 1145 1152 1149 1141 1133 1125 1113 1104
857 861 879 902 919 932 937 939 946 956 969 982 993 1004 1020 1035 1046 1055 1059 1059 1059 1059 1064 1074 1085 1098 1112 1127 1142 1154 1159 1164 1177 1194 1218 1246 1273 1300 1325 1345 1361 1375 1385 1392 1397 1402 1406 1412 1422 1433 1448 1464 1477 1488 1494 1501 1511 1523 1536 1548 1557 1567 1580 1590 1593 1593 1593 1594 1595 1591 1579 1564 1553 1542 1524 1500 1477 1458 1449 1446 1444 1440 1435 1427 1419 1408 1392 1377 1367 1359 1353 1352 1356 1365 1382 1398 1402 1401 1398 1398 1404 1410 1413 1414 1414 1412 1404 1393 1384 1381 1391 1405 1411 1413 1412 1415 1429 1448 1466 1481 1493 1504 1512 1512 1504 1491 1474 1460 1457 1458 1463 1468 1470 1470 1469 1469 1472 1478 1489 1505 1526 1548 1570 1587 1599 1607 1608 1602 1595 1588 1588 1592 1592 1588 1582 1576 1575 1576 1578 1581 1584 1590 1602 1614 1619 1621 1623 1627 1637 1648 1659 1679 1714 1751 1782 1803 1815 1830 1860 1892 1913 1933 1959 1990 2026 2059 2080 2099 2130 2166 2209 2249 2274 2289 2287 2268 2236 2196 2153 2112 2075 2037 2009 1990 1978 1960 1922 1871 1825 1784 1753 1715 1658 1593 1521 1456 1407 1371 1354 1336 1302 1256 1196 1139 1104 1079 1060 1038 1010 981 951 931 928 933 943 958 975 992 1011 1025 1030 1038 1057 1082 1100 1115 1122 1127 1136 1143 1141 1134 1126 1118 1108 1099
864 866 877 892 906 919 925 930 938 949 965 980 991 1001 1009 1018 1028 1037 1043 1045 1046 1050 1060 1074 1087 1099 1110 1123 1138 1153 1165 1177 1192 1209 1229 1253 1278 1302 1321 1336 1350 1365 1376 1385 1391 1397 1406 1417 1427 1438 1452 1467 1480 1492 1502 1513 1524 1535 1543 1550 1558 1565 1572 1576 1577 1578 1582 1587 1589 1587 1579 1569 1559 1548 1529 1505 1483 1463 1451 1444 1441 1439 1439 1438 1432 1423 1412 1401 1392 1384 1376 1373 1376 1384 1396 1406 1409 1408 1406 1407 1412 1420 1428 1434 1436 1433 1420 1405 1396 1393 1402 1415 1421 1423 1425 1430 1444 1460 1472 1483 1493 1503 1513 1516 1509 1497 1486 1479 1477 1477 1473 1470 1471 1472 1474 1477 1481 1487 1495 1509 1527 1548 1568 1585 1595 1603 1606 1603 1596 1588 1583 1581 1579 1576 1575 1575 1574 1571 1566 1561 1561 1565 1574 1583 1586 1588 1593 1600 1610 1619 1629 1648 1679 1715 1751 1778 1792 1803 1819 1837 1854 1874 1894 1919 1952 1988 2020 2050 2081 2112 2142 2169 2191 2210 2222 2218 2194 2158 2112 2067 2030 1995 1972 1959 1948 1934 1904 1863 1820 1781 1748 1709 1652 1588 1522 1464 1418 1378 1346 1314 1276 1235 1185 1139 1106 1081 1061 1039 1011 981 949 926 921 925 934 947 964 983 1008 1027 1034 1040 1056 1076 1093 1106 1111 1114 1123 1131 1131 1127 1123 1117 1111 1106
873 874 877 883 893 904 912 919 928 940 958 975 986 992 994 996 1004 1014 1022 1028 1032 1039 1055 1075 1089 1101 1110 1121 1137 1156 1176 1195 1212 1228 1244 1263 1285 1305 1317 1325 1338 1353 1366 1377 1384 1392 1405 1421 1432 1443 1456 1470 1482 1495 1509 1523 1535 1544 1548 1550 1554 1558 1558 1556 1556 1558 1565 1574 1579 1580 1578 1572 1563 1552 1533 1509 1488 1468 1452 1443 1439 1439 1445 1450 1448 1442 1436 1430 1422 1414 1405 1400 1402 1407 1414 1419 1420 1420 1418 1419 1423 1431 1444 1455 1458 1454 1438 1419 1410 1408 1417 1428 1434 1437 1440 1447 1460 1473 1479 1484 1492 1502 1514 1518 1511 1501 1497 1497 1497 1494 1483 1472 1471 1474 1480 1487 1492 1496 1502 1512 1528 1547 1565 1580 1590 1598 1603 1602 1597 1589 1579 1572 1568 1566 1571 1575 1574 1568 1554 1541 1539 1541 1547 1553 1555 1558 1565 1575 1584 1591 1599 1615 1641 1674 1714 1747 1761 1768 1771 1776 1793 1813 1830 1849 1880 1917 1959 1998 2028 2050 2066 2080 2098 2120 2146 2160 2149 2120 2074 2026 1990 1959 1941 1932 1922 1910 1888 1856 1818 1779 1745 1703 1644 1580 1521 1469 1425 1382 1335 1289 1248 1210 1172 1137 1107 1082 1061 1040 1014 985 949 922 917 919 926 937 953 974 1004 1029 1037 1043 1054 1069 1083 1093 1095 1096 1104 1113 1117 1118 1119 1118 1118 1117
879 879 878 880 886 894 900 907 916 929 947 965 974 978 977 977 984 994 1004 1013 1021 1032 1052 1075 1090 1102 1111 1124 1142 1164 1188 1210 1228 1243 1258 1273 1292 1309 1317 1322 1334 1349 1362 1373 1381 1390 1405 1422 1434 1444 1457 1471 1483 1495 1510 1525 1537 1545 1546 1545 1547 1548 1545 1541 1539 1542 1551 1563 1570 1574 1575 1570 1563 1552 1534 1511 1490 1472 1457 1447 1443 1443 1452 1461 1462 1459 1457 1453 1447 1440 1430 1424 1425 1429 1434 1438 1439 1439 1437 1436 1439 1446 1459 1471 1473 1469 1451 1433 1425 1424 1434 1446 1451 1454 1457 1463 1474 1484 1487 1489 1495 1505 1516 1521 1513 1503 1500 1501 1502 1498 1486 1474 1473 1478 1486 1494 1499 1503 1508 1515 1529 1545 1561 1574 1583 1591 1596 1597 1593 1586 1577 1568 1564 1562 1567 1571 1568 1560 1543 1527 1522 1523 1528 1533 1534 1535 1542 1552 1559 1564 1569 1580 1600 1627 1663 1695 1708 1713 1713 1717 1736 1759 1777 1796 1826 1863 1906 1943 1967 1982 1990 1998 2015 2038 2071 2096 2096 2078 2040 1997 1963 1935 1919 1912 1902 1890 1870 1841 1805 1768 1734 1690 1629 1564 1505 1455 1412 1369 1319 1270 1229 1194 1159 1127 1099 1073 1054 1035 1011 983 948 920 912 913 918 928 944 964 996 1023 1032 1037 1046 1058 1068 1075 1074 1073 1081 1091 1098 1105 1112 1118 1123 1125
882 882 881 880 883 887 891 897 907 919 937 952 959 962 960 960 968 978 990 1002 1014 1028 1051 1075 1091 1103 1113 1127 1149 1174 1201 1226 1244 1259 1273 1287 1303 1316 1320 1324 1335 1349 1363 1375 1383 1392 1406 1422 1433 1444 1457 1470 1481 1493 1508 1522 1534 1542 1541 1537 1536 1535 1532 1529 1528 1530 1539 1551 1561 1567 1569 1565 1558 1548 1531 1510 1492 1475 1462 1453 1450 1451 1460 1470 1474 1475 1475 1473 1469 1463 1454 1447 1447 1451 1456 1460 1461 1461 1458 1457 1458 1462 1473 1483 1485 1480 1464 1447 1441 1442 1453 1465 1470 1473 1475 1479 1488 1496 1496 1495 1500 1509 1519 1523 1514 1504 1499 1500 1500 1496 1485 1474 1475 1481 1490 1498 1504 1509 1513 1520 1531 1544 1557 1568 1576 1583 1588 1589 1586 1581 1574 1567 1562 1560 1563 1566 1561 1551 1531 1514 1509 1509 1513 1517 1518 1518 1523 1530 1535 1538 1540 1546 1560 1580 1608 1633 1643 1648 1651 1660 1683 1710 1731 1751 1782 1818 1858 1891 1909 1919 1923 1930 1946 1969 2002 2031 2040 2034 2007 1973 1944 1918 1901 1891 1881 1868 1849 1822 1788 1753 1718 1673 1611 1544 1482 1431 1388 1346 1300 1256 1218 1183 1150 1120 1092 1066 1045 1026 1003 979 946 919 910 909 914 925 939 959 987 1010 1018 1023 1031 1040 1047 1051 1048 1047 1055 1066 1077 1090 1103 1116 1125 1129
885 885 884 883 884 886 888 893 903 915 927 937 942 945 945 948 956 967 981 997 1012 1028 1052 1075 1091 1103 1112 1126 1149 1178 1211 1241 1260 1276 1291 1304 1318 1328 1328 1328 1338 1352 1369 1383 1392 1400 1410 1421 1431 1441 1453 1466 1477 1489 1503 1517 1529 1535 1532 1525 1521 1520 1522 1525 1526 1527 1532 1542 1552 1559 1559 1553 1546 1537 1524 1507 1491 1476 1467 1463 1460 1461 1468 1478 1484 1487 1491 1491 1488 1483 1473 1465 1464 1468 1476 1482 1484 1484 1481 1478 1478 1480 1486 1492 1492 1488 1476 1463 1459 1461 1472 1484 1489 1491 1493 1497 1503 1508 1505 1501 1504 1512 1522 1526 1517 1504 1497 1494 1493 1490 1481 1473 1476 1483 1493 1502 1508 1514 1520 1528 1539 1549 1557 1563 1569 1575 1578 1577 1575 1572 1569 1567 1563 1560 1561 1560 1553 1541 1521 1502 1496 1496 1502 1507 1507 1506 1507 1509 1511 1513 1515 1520 1529 1541 1553 1563 1568 1574 1588 1611 1639 1668 1691 1713 1744 1780 1821 1853 1868 1874 1878 1887 1905 1925 1948 1970 1984 1988 1977 1956 1932 1907 1880 1860 1847 1835 1820 1796 1764 1731 1696 1649 1585 1516 1450 1394 1351 1313 1280 1248 1214 1181 1151 1123 1096 1068 1039 1011 988 966 942 922 913 912 922 938 952 966 979 988 993 997 1004 1009 1013 1015 1015 1016 1025 1038 1056 1077 1098 1114 1126 1130
885 886 886 886 885 886 888 893 903 915 923 927 931 934 937 942 951 963 980 998 1014 1032 1055 1077 1093 1105 1113 1126 1150 1181 1220 1254 1275 1292 1307 1322 1334 1342 1339 1335 1344 1357 1376 1394 1403 1409 1414 1420 1429 1440 1451 1463 1473 1485 1499 1513 1524 1529 1523 1513 1508 1508 1516 1526 1528 1528 1529 1535 1545 1553 1550 1541 1534 1527 1517 1504 1489 1476 1471 1470 1469 1469 1475 1483 1490 1496 1501 1504 1503 1499 1488 1479 1479 1484 1494 1503 1506 1505 1502 1498 1497 1497 1500 1502 1501 1497 1488 1479 1476 1478 1489 1501 1506 1508 1509 1512 1517 1520 1514 1507 1508 1513 1523 1527 1517 1503 1492 1486 1485 1482 1475 1470 1473 1481 1492 1502 1509 1516 1525 1535 1545 1553 1557 1559 1563 1568 1569 1566 1564 1562 1563 1565 1562 1559 1557 1554 1546 1533 1512 1492 1485 1484 1492 1499 1498 1494 1491 1489 1489 1488 1490 1495 1502 1507 1506 1501 1502 1509 1533 1567 1598 1629 1653 1676 1707 1744 1786 1819 1832 1837 1844 1856 1875 1893 1905 1917 1932 1944 1945 1935 1917 1892 1857 1827 1813 1804 1792 1772 1743 1711 1676 1628 1564 1494 1424 1365 1321 1288 1267 1247 1218 1186 1159 1133 1106 1076 1037 1000 975 955 938 925 916 913 928 949 964 972 969 963 964 969 974 977 980 982 984 989 999 1013 1037 1066 1090 1109 1121 1124
883 883 884 884 884 885 887 893 904 916 923 927 931 935 939 945 954 966 983 1002 1019 1038 1061 1083 1099 1112 1120 1133 1158 1189 1230 1266 1287 1304 1320 1334 1346 1353 1348 1343 1350 1363 1382 1400 1409 1414 1417 1422 1431 1441 1452 1463 1473 1484 1498 1512 1521 1526 1519 1508 1502 1502 1511 1523 1526 1525 1525 1530 1540 1548 1546 1537 1530 1523 1515 1504 1489 1477 1473 1474 1473 1473 1478 1486 1494 1502 1508 1513 1513 1511 1501 1493 1494 1500 1511 1521 1524 1524 1520 1516 1514 1514 1515 1516 1514 1510 1501 1493 1489 1491 1501 1513 1518 1520 1521 1523 1527 1528 1520 1511 1510 1514 1522 1524 1513 1498 1486 1479 1477 1474 1468 1463 1467 1476 1487 1498 1506 1513 1523 1534 1544 1552 1554 1555 1559 1563 1562 1559 1557 1555 1557 1560 1558 1554 1552 1548 1540 1526 1504 1484 1476 1475 1481 1488 1485 1480 1475 1470 1466 1464 1464 1467 1472 1474 1468 1460 1458 1465 1491 1526 1557 1587 1611 1634 1665 1701 1744 1777 1790 1795 1803 1816 1835 1852 1862 1872 1889 1903 1909 1904 1890 1868 1834 1804 1792 1785 1776 1759 1732 1702 1668 1621 1559 1489 1419 1360 1317 1285 1268 1252 1223 1193 1166 1142 1115 1085 1043 1003 975 954 937 924 911 906 920 941 955 961 954 943 944 949 954 957 959 962 964 970 980 995 1021 1051 1076 1096 1108 1111
881 881 880 880 881 883 886 894 907 920 928 933 937 942 946 952 961 973 988 1006 1024 1043 1067 1090 1107 1121 1130 1144 1169 1200 1238 1272 1293 1310 1328 1343 1355 1361 1357 1352 1359 1370 1387 1402 1410 1415 1418 1422 1431 1441 1453 1465 1475 1485 1498 1511 1519 1523 1517 1507 1501 1500 1507 1516 1518 1518 1519 1525 1536 1545 1543 1536 1530 1524 1516 1505 1491 1479 1475 1475 1474 1474 1480 1490 1499 1507 1514 1519 1521 1520 1513 1508 1510 1516 1528 1538 1542 1541 1536 1531 1529 1528 1528 1527 1524 1520 1512 1505 1502 1503 1513 1524 1528 1530 1530 1532 1534 1534 1524 1514 1510 1512 1517 1517 1505 1489 1478 1471 1470 1467 1459 1455 1459 1468 1481 1493 1501 1509 1520 1532 1542 1550 1552 1552 1555 1559 1559 1556 1554 1552 1553 1555 1552 1548 1545 1540 1531 1518 1497 1479 1471 1468 1472 1475 1471 1464 1456 1449 1443 1439 1437 1439 1442 1443 1437 1430 1427 1433 1456 1488 1518 1547 1571 1595 1625 1661 1699 1728 1740 1746 1755 1770 1789 1806 1817 1829 1847 1862 1869 1865 1854 1836 1807 1783 1774 1769 1762 1747 1721 1693 1662 1619 1559 1492 1424 1367 1325 1293 1273 1255 1226 1196 1172 1150 1125 1094 1051 1008 978 956 938 923 908 899 908 925 936 942 935 925 927 933 940 945 948 950 952 956 966 980 1004 1034 1059 1079 1094 1099
882 881 878 874 875 879 888 901 915 930 939 946 951 956 960 965 975 985 996 1009 1025 1045 1072 1098 1117 1131 1143 1158 1182 1210 1239 1264 1283 1301 1324 1344 1357 1364 1363 1363 1369 1378 1390 1400 1407 1412 1414 1418 1427 1437 1451 1465 1476 1486 1497 1508 1516 1520 1518 1512 1508 1504 1502 1502 1502 1504 1509 1519 1531 1540 1543 1540 1535 1530 1521 1510 1498 1486 1479 1476 1474 1476 1485 1497 1507 1514 1518 1520 1523 1525 1524 1524 1528 1535 1546 1556 1559 1558 1549 1540 1535 1531 1528 1524 1520 1517 1517 1517 1516 1517 1525 1533 1536 1538 1538 1538 1538 1536 1524 1511 1506 1505 1505 1501 1487 1473 1465 1463 1462 1459 1449 1443 1448 1459 1476 1491 1501 1510 1522 1535 1545 1552 1552 1552 1555 1558 1561 1560 1558 1555 1553 1550 1547 1542 1533 1522 1512 1501 1490 1479 1473 1467 1464 1460 1452 1443 1433 1424 1416 1410 1409 1412 1414 1416 1416 1415 1414 1417 1432 1457 1483 1512 1540 1567 1598 1630 1654 1669 1677 1683 1697 1716 1736 1754 1769 1784 1803 1817 1819 1811 1801 1788 1770 1756 1752 1749 1741 1725 1701 1675 1650 1614 1561 1500 1441 1389 1349 1315 1284 1254 1220 1190 1176 1163 1141 1109 1058 1008 976 955 943 932 916 901 899 905 912 916 911 905 907 916 932 946 951 953 950 950 959 971 988 1011 1034 1057 1080 1094
883 881 874 869 870 878 892 910 926 941 953 961 967 972 975 980 989 999 1005 1013 1028 1049 1078 1107 1127 1142 1155 1170 1193 1216 1234 1250 1266 1286 1313 1339 1353 1361 1365 1368 1374 1382 1388 1394 1400 1404 1407 1410 1419 1430 1447 1463 1476 1486 1496 1505 1512 1517 1519 1518 1515 1510 1500 1491 1489 1491 1501 1514 1526 1536 1542 1543 1540 1535 1526 1516 1506 1496 1487 1481 1479 1481 1493 1507 1517 1523 1523 1522 1525 1529 1534 1539 1545 1551 1562 1572 1575 1572 1559 1544 1535 1528 1520 1513 1508 1506 1513 1522 1525 1527 1533 1539 1542 1543 1542 1540 1538 1532 1517 1502 1495 1492 1488 1480 1466 1454 1452 1454 1454 1450 1439 1432 1439 1453 1474 1493 1504 1513 1526 1540 1548 1553 1552 1550 1553 1557 1561 1563 1562 1557 1551 1545 1540 1534 1520 1505 1494 1486 1483 1481 1475 1468 1457 1445 1434 1423 1411 1400 1390 1382 1382 1386 1389 1392 1399 1404 1405 1405 1414 1430 1454 1482 1512 1542 1573 1602 1613 1614 1616 1622 1639 1663 1684 1702 1720 1737 1756 1767 1763 1751 1741 1732 1724 1721 1721 1720 1711 1693 1670 1647 1630 1604 1561 1512 1463 1419 1382 1345 1302 1258 1217 1186 1178 1174 1155 1122 1064 1008 976 957 952 947 929 910 896 890 891 894 890 886 890 902 927 950 958 960 953 949 957 967 977 992 1013 1038 1069 1090
879 877 870 865 869 879 896 916 934 950 962 971 977 982 985 991 1000 1009 1013 1020 1035 1056 1086 1116 1136 1152 1164 1178 1196 1215 1228 1241 1256 1276 1305 1332 1347 1355 1360 1363 1370 1376 1381 1386 1391 1397 1399 1403 1412 1423 1441 1459 1473 1484 1495 1503 1510 1515 1518 1519 1517 1511 1500 1489 1487 1489 1499 1513 1524 1533 1539 1541 1539 1534 1527 1518 1512 1505 1498 1492 1490 1492 1504 1518 1527 1532 1531 1529 1532 1538 1545 1551 1557 1563 1573 1582 1585 1582 1567 1548 1535 1524 1513 1503 1497 1495 1505 1517 1523 1528 1535 1541 1544 1545 1543 1538 1532 1522 1505 1487 1479 1474 1469 1461 1449 1440 1440 1444 1445 1441 1430 1425 1434 1451 1475 1496 1508 1518 1531 1542 1549 1552 1548 1545 1547 1551 1556 1558 1556 1551 1544 1536 1532 1525 1510 1494 1484 1478 1478 1478 1472 1463 1450 1435 1421 1408 1394 1381 1369 1361 1360 1364 1367 1371 1380 1386 1386 1386 1391 1405 1426 1453 1482 1512 1543 1570 1577 1573 1573 1577 1594 1617 1638 1656 1674 1690 1707 1716 1709 1696 1687 1681 1677 1677 1680 1680 1672 1655 1634 1613 1602 1587 1557 1520 1481 1444 1409 1372 1325 1274 1226 1190 1180 1178 1160 1126 1069 1013 983 967 965 961 942 919 900 887 884 883 877 873 878 891 920 947 958 960 954 949 956 965 973 986 1005 1029 1062 1086
870 869 865 864 871 883 901 920 938 954 968 977 984 989 991 996 1005 1014 1020 1028 1043 1064 1094 1123 1144 1160 1172 1183 1198 1213 1224 1236 1252 1272 1299 1325 1340 1348 1352 1355 1361 1367 1372 1377 1383 1389 1393 1399 1408 1420 1437 1456 1471 1483 1495 1503 1509 1514 1517 1518 1517 1513 1502 1492 1489 1492 1501 1514 1524 1532 1537 1538 1536 1531 1525 1518 1514 1512 1508 1505 1503 1505 1516 1529 1536 1540 1538 1536 1540 1547 1553 1559 1564 1569 1580 1590 1593 1589 1573 1550 1534 1519 1505 1495 1488 1487 1496 1509 1517 1525 1532 1538 1541 1542 1540 1534 1525 1512 1492 1473 1464 1458 1452 1445 1435 1428 1429 1434 1434 1430 1422 1420 1432 1452 1477 1499 1510 1520 1534 1544 1549 1548 1543 1537 1539 1542 1546 1548 1545 1540 1533 1526 1521 1514 1501 1487 1478 1473 1472 1470 1464 1455 1441 1426 1411 1396 1381 1367 1353 1343 1340 1343 1345 1350 1358 1364 1364 1362 1368 1381 1400 1424 1450 1476 1506 1533 1543 1542 1541 1543 1555 1575 1594 1612 1630 1646 1660 1667 1659 1646 1639 1633 1631 1633 1638 1639 1632 1616 1595 1577 1572 1567 1549 1525 1497 1467 1434 1397 1348 1291 1237 1195 1180 1175 1157 1125 1070 1018 991 978 978 975 955 930 907 889 880 876 868 863 868 883 912 940 953 957 952 949 956 965 973 984 1003 1025 1056 1078
853 855 860 869 879 892 905 919 936 953 968 979 987 991 991 993 1001 1011 1021 1033 1049 1070 1098 1127 1147 1164 1178 1189 1202 1215 1228 1242 1258 1277 1301 1322 1336 1344 1346 1346 1351 1357 1363 1370 1376 1384 1393 1404 1414 1425 1441 1458 1474 1488 1499 1507 1513 1517 1520 1521 1521 1517 1507 1497 1495 1497 1507 1520 1529 1535 1539 1539 1537 1531 1522 1513 1511 1512 1515 1517 1517 1518 1527 1537 1543 1545 1543 1542 1547 1553 1557 1560 1564 1569 1583 1595 1599 1595 1576 1551 1531 1514 1502 1494 1488 1485 1491 1502 1511 1519 1523 1524 1525 1528 1530 1528 1518 1503 1483 1466 1457 1449 1441 1432 1423 1417 1417 1418 1418 1416 1413 1417 1432 1453 1477 1496 1506 1517 1532 1545 1548 1545 1535 1526 1525 1528 1530 1531 1527 1522 1517 1512 1507 1501 1492 1483 1476 1470 1463 1456 1448 1439 1429 1417 1401 1385 1371 1357 1343 1331 1322 1319 1320 1324 1332 1337 1335 1334 1342 1358 1377 1397 1413 1430 1457 1486 1510 1524 1526 1524 1524 1532 1548 1567 1589 1609 1623 1628 1619 1605 1599 1595 1595 1599 1604 1606 1598 1582 1562 1546 1547 1551 1543 1529 1514 1492 1462 1425 1370 1305 1246 1198 1175 1164 1145 1115 1067 1021 999 989 993 993 973 945 913 885 872 866 857 853 859 873 900 926 940 947 945 945 953 963 971 983 1001 1021 1045 1061
839 842 856 874 888 900 908 916 932 949 966 979 987 990 988 987 995 1006 1019 1035 1053 1073 1100 1127 1148 1165 1181 1195 1207 1219 1234 1251 1268 1286 1305 1323 1335 1343 1342 1340 1344 1350 1358 1365 1372 1381 1396 1411 1423 1434 1447 1463 1479 1493 1504 1511 1517 1521 1524 1524 1524 1521 1511 1502 1500 1502 1513 1525 1534 1539 1542 1541 1539 1533 1520 1508 1507 1510 1518 1525 1526 1527 1533 1541 1546 1548 1546 1545 1550 1556 1558 1558 1561 1567 1583 1599 1603 1599 1579 1551 1530 1512 1502 1498 1492 1488 1490 1498 1507 1515 1514 1510 1510 1514 1522 1524 1514 1499 1480 1465 1456 1448 1436 1425 1416 1410 1407 1406 1405 1404 1406 1415 1433 1454 1475 1490 1500 1511 1529 1543 1546 1541 1527 1515 1514 1516 1516 1515 1511 1506 1502 1499 1495 1490 1484 1479 1473 1465 1454 1441 1430 1422 1415 1406 1391 1374 1360 1348 1334 1319 1304 1295 1294 1298 1305 1309 1306 1305 1316 1334 1352 1369 1376 1385 1407 1439 1477 1504 1510 1505 1494 1491 1503 1523 1550 1575 1589 1593 1583 1569 1564 1561 1562 1567 1574 1577 1568 1550 1532 1518 1522 1532 1530 1523 1516 1501 1475 1438 1377 1307 1245 1195 1166 1149 1130 1102 1059 1020 1001 993 1001 1004 985 955 915 879 863 856 848 845 851 865 890 914 928 937 938 941 950 960 970 983 1001 1019 1036 1046
835 839 855 876 890 902 908 916 930 948 965 979 987 990 987 985 993 1004 1019 1036 1053 1074 1101 1127 1147 1165 1182 1196 1208 1220 1236 1253 1271 1288 1306 1323 1336 1343 1342 1339 1343 1349 1356 1364 1371 1381 1397 1414 1425 1436 1449 1464 1480 1494 1505 1513 1518 1522 1525 1525 1525 1522 1512 1503 1501 1504 1514 1527 1535 1540 1543 1542 1539 1533 1519 1507 1505 1509 1519 1527 1528 1529 1535 1542 1546 1549 1547 1546 1551 1556 1557 1557 1560 1566 1583 1599 1604 1600 1579 1551 1529 1512 1503 1499 1494 1489 1490 1497 1506 1513 1512 1507 1506 1510 1519 1523 1513 1498 1480 1465 1456 1447 1435 1423 1415 1408 1405 1402 1401 1400 1403 1414 1432 1453 1473 1488 1497 1509 1527 1541 1544 1539 1524 1510 1508 1510 1510 1508 1503 1498 1495 1492 1487 1482 1477 1472 1466 1458 1444 1429 1418 1409 1402 1394 1378 1360 1347 1334 1319 1303 1286 1275 1273 1276 1282 1284 1281 1279 1289 1307 1325 1340 1344 1349 1370 1402 1442 1472 1478 1471 1458 1452 1463 1482 1510 1535 1549 1554 1544 1531 1526 1523 1525 1531 1538 1542 1533 1517 1499 1486 1493 1505 1505 1500 1496 1484 1459 1424 1363 1292 1231 1181 1152 1134 1116 1090 1049 1012 994 988 998 1002 984 954 912 874 858 851 844 841 849 863 887 911 926 936 939 942 952 963 973 987 1005 1023 1039 1048
838 841 856 875 889 900 907 914 929 947 965 980 988 991 988 987 994 1005 1019 1036 1053 1074 1101 1128 1148 1165 1181 1194 1206 1218 1234 1253 1270 1287 1304 1320 1332 1340 1342 1341 1346 1352 1358 1364 1371 1380 1396 1413 1425 1436 1449 1464 1479 1493 1503 1510 1515 1520 1523 1525 1525 1522 1514 1505 1503 1505 1515 1527 1535 1540 1543 1542 1539 1533 1520 1508 1506 1510 1519 1527 1528 1528 1532 1538 1542 1545 1545 1546 1551 1557 1558 1558 1560 1567 1583 1598 1603 1599 1579 1553 1531 1513 1503 1498 1492 1488 1490 1497 1506 1514 1513 1509 1508 1512 1520 1522 1513 1497 1480 1465 1456 1448 1435 1423 1415 1409 1406 1404 1403 1402 1406 1417 1435 1456 1474 1487 1496 1507 1523 1536 1538 1533 1520 1509 1508 1509 1507 1504 1499 1493 1490 1486 1482 1476 1472 1467 1461 1452 1436 1420 1407 1398 1391 1381 1365 1347 1332 1318 1303 1286 1270 1258 1256 1258 1263 1264 1259 1256 1264 1279 1294 1309 1315 1322 1342 1371 1406 1431 1436 1430 1420 1417 1428 1446 1469 1490 1503 1508 1502 1494 1491 1488 1489 1493 1500 1504 1497 1482 1465 1454 1460 1472 1473 1469 1464 1452 1428 1394 1336 1268 1209 1161 1132 1116 1098 1074 1036 1001 985 979 987 989 971 943 905 872 857 852 847 848 857 871 893 916 931 941 944 947 957 969 979 993 1012 1031 1049 1059
850 851 860 871 882 892 900 908 923 942 963 982 992 997 994 991 998 1009 1022 1037 1055 1076 1103 1130 1150 1167 1178 1188 1199 1213 1231 1251 1269 1285 1298 1310 1321 1331 1342 1352 1360 1364 1364 1364 1369 1379 1396 1413 1425 1435 1448 1462 1476 1488 1494 1498 1502 1509 1517 1524 1527 1526 1519 1512 1511 1512 1519 1528 1534 1539 1542 1542 1540 1534 1522 1512 1511 1514 1520 1525 1525 1524 1524 1525 1528 1532 1538 1545 1553 1558 1560 1560 1563 1568 1580 1592 1596 1593 1579 1558 1538 1519 1504 1493 1487 1483 1488 1498 1507 1514 1516 1515 1516 1518 1521 1520 1510 1496 1481 1467 1459 1450 1438 1426 1418 1413 1413 1415 1414 1414 1420 1433 1451 1469 1481 1489 1496 1505 1515 1522 1523 1520 1516 1513 1514 1514 1508 1500 1494 1489 1485 1482 1477 1472 1472 1471 1465 1453 1432 1410 1396 1386 1378 1368 1351 1332 1317 1302 1286 1270 1256 1248 1246 1248 1251 1251 1245 1239 1239 1245 1256 1271 1286 1302 1324 1348 1367 1378 1379 1378 1382 1392 1407 1420 1428 1434 1441 1450 1460 1468 1469 1466 1460 1456 1461 1464 1458 1446 1431 1419 1424 1433 1432 1426 1415 1398 1374 1343 1291 1229 1175 1130 1102 1085 1068 1047 1018 991 975 966 963 957 937 914 891 874 866 865 871 881 892 904 917 931 945 955 957 959 970 981 991 1005 1022 1042 1067 1083
863 863 864 867 874 882 889 898 913 932 957 980 994 1001 999 997 1004 1014 1026 1040 1058 1080 1108 1135 1155 1171 1179 1186 1197 1212 1232 1254 1273 1288 1297 1305 1314 1327 1348 1368 1377 1380 1373 1368 1372 1382 1399 1417 1429 1439 1451 1463 1474 1483 1485 1485 1489 1497 1511 1525 1532 1533 1529 1525 1523 1524 1528 1533 1537 1539 1542 1543 1540 1535 1524 1515 1514 1517 1520 1522 1522 1520 1515 1511 1512 1518 1530 1544 1553 1558 1560 1561 1564 1568 1577 1584 1587 1586 1578 1562 1544 1524 1503 1488 1480 1477 1484 1496 1504 1511 1515 1517 1518 1519 1518 1514 1505 1495 1482 1471 1464 1456 1444 1432 1424 1421 1425 1430 1430 1430 1438 1452 1468 1484 1489 1491 1496 1503 1507 1508 1507 1507 1511 1517 1520 1518 1508 1496 1490 1485 1482 1479 1474 1470 1473 1476 1468 1453 1426 1399 1383 1372 1363 1352 1335 1316 1300 1286 1269 1254 1243 1238 1238 1240 1242 1241 1234 1226 1218 1214 1220 1233 1254 1279 1301 1319 1324 1322 1323 1329 1347 1371 1388 1398 1391 1382 1384 1395 1420 1444 1450 1446 1433 1421 1421 1423 1418 1407 1393 1382 1384 1389 1385 1376 1358 1335 1312 1284 1239 1186 1139 1100 1074 1058 1042 1024 1002 982 966 951 937 921 899 881 876 876 876 882 900 921 935 944 948 954 967 979 980 981 991 1002 1011 1023 1038 1058 1087 1110
869 869 867 866 869 873 878 886 900 919 946 972 990 1000 1000 999 1006 1017 1028 1043 1063 1086 1115 1143 1163 1179 1187 1193 1206 1222 1244 1267 1285 1300 1308 1314 1323 1335 1358 1380 1390 1392 1384 1377 1381 1392 1409 1427 1440 1449 1460 1469 1477 1482 1481 1480 1484 1493 1510 1528 1538 1543 1542 1539 1538 1538 1541 1543 1543 1543 1543 1543 1540 1534 1524 1515 1515 1517 1520 1521 1521 1519 1512 1507 1506 1511 1525 1540 1549 1555 1557 1557 1560 1565 1572 1578 1581 1580 1574 1560 1542 1521 1500 1483 1475 1472 1479 1490 1496 1501 1504 1506 1508 1509 1508 1504 1500 1494 1485 1476 1469 1462 1451 1440 1434 1432 1437 1443 1444 1444 1451 1464 1478 1491 1493 1492 1496 1502 1504 1503 1501 1500 1507 1515 1518 1516 1505 1492 1486 1483 1481 1478 1472 1468 1472 1473 1463 1444 1414 1385 1368 1356 1347 1335 1318 1299 1283 1268 1252 1237 1228 1225 1226 1229 1231 1230 1222 1212 1200 1192 1192 1201 1220 1243 1262 1277 1278 1274 1278 1290 1315 1343 1362 1370 1359 1344 1344 1355 1383 1411 1420 1416 1401 1386 1382 1381 1374 1363 1350 1340 1340 1343 1336 1324 1304 1281 1260 1235 1196 1152 1113 1081 1061 1049 1034 1017 997 976 957 939 920 900 880 865 866 875 883 895 920 946 961 970 973 977 992 1006 1008 1009 1019 1030 1038 1047 1058 1075 1105 1128
872 871 868 865 864 866 869 876 890 908 934 962 982 996 1000 1001 1009 1019 1032 1049 1070 1095 1123 1150 1171 1187 1196 1204 1218 1235 1257 1280 1299 1314 1324 1330 1339 1350 1370 1390 1400 1401 1394 1387 1391 1402 1419 1436 1448 1458 1467 1474 1479 1482 1480 1480 1485 1494 1511 1529 1542 1550 1554 1553 1553 1553 1554 1553 1550 1547 1544 1542 1538 1532 1522 1514 1513 1516 1519 1521 1521 1519 1514 1508 1507 1511 1522 1535 1543 1549 1552 1554 1557 1561 1567 1572 1574 1573 1566 1552 1534 1514 1493 1477 1469 1466 1472 1481 1484 1487 1488 1489 1491 1492 1492 1492 1492 1491 1487 1482 1477 1471 1462 1453 1448 1446 1451 1456 1456 1456 1461 1470 1482 1493 1495 1494 1497 1502 1503 1501 1499 1498 1504 1511 1513 1510 1499 1487 1482 1480 1478 1476 1470 1465 1467 1466 1452 1431 1400 1370 1352 1340 1330 1318 1300 1281 1265 1250 1234 1219 1211 1210 1212 1216 1220 1218 1210 1200 1185 1173 1168 1171 1183 1200 1215 1227 1229 1229 1238 1253 1281 1309 1326 1334 1324 1310 1310 1318 1342 1367 1376 1375 1363 1349 1344 1340 1330 1318 1306 1297 1297 1297 1288 1274 1253 1231 1213 1193 1162 1127 1097 1074 1061 1052 1040 1023 1000 974 951 929 909 890 871 858 864 880 894 912 940 966 982 992 998 1007 1025 1041 1046 1049 1059 1069 1074 1078 1086 1099 1123 1144
870 869 866 861 858 858 864 875 889 905 927 950 971 989 998 1004 1013 1025 1041 1061 1084 1108 1134 1156 1176 1193 1203 1214 1229 1247 1268 1289 1307 1324 1339 1352 1361 1370 1384 1397 1404 1406 1399 1393 1397 1408 1422 1436 1447 1456 1465 1472 1475 1477 1481 1488 1495 1503 1512 1523 1536 1549 1560 1567 1569 1568 1566 1562 1556 1550 1543 1538 1533 1527 1518 1512 1512 1515 1520 1524 1524 1523 1521 1519 1518 1519 1523 1529 1535 1542 1550 1557 1561 1563 1563 1563 1563 1562 1553 1537 1519 1499 1481 1467 1460 1457 1461 1468 1470 1471 1470 1470 1472 1473 1474 1475 1478 1482 1488 1491 1489 1485 1480 1474 1471 1469 1468 1468 1466 1465 1464 1467 1476 1486 1494 1499 1503 1506 1507 1505 1501 1499 1502 1507 1508 1504 1492 1479 1475 1474 1472 1469 1462 1457 1456 1452 1436 1414 1384 1357 1340 1327 1316 1303 1285 1265 1246 1228 1212 1199 1192 1193 1196 1201 1208 1208 1200 1188 1171 1155 1146 1142 1144 1151 1160 1170 1179 1189 1202 1219 1242 1266 1281 1289 1284 1275 1275 1281 1294 1307 1314 1317 1317 1316 1312 1306 1293 1278 1266 1258 1257 1255 1246 1231 1209 1188 1173 1160 1140 1118 1099 1083 1077 1073 1063 1045 1011 974 947 924 905 888 871 862 874 897 917 939 962 983 997 1011 1028 1048 1070 1089 1100 1107 1118 1127 1126 1123 1127 1134 1146 1155
868 868 865 860 855 855 865 880 894 908 924 942 963 982 996 1007 1017 1029 1047 1070 1095 1119 1140 1159 1178 1195 1207 1219 1235 1254 1273 1292 1310 1328 1350 1368 1378 1385 1392 1399 1404 1406 1399 1393 1398 1407 1418 1429 1439 1449 1458 1465 1467 1470 1481 1495 1506 1512 1512 1516 1528 1545 1563 1577 1580 1579 1574 1567 1560 1551 1542 1533 1527 1521 1514 1510 1511 1514 1520 1525 1526 1526 1527 1529 1529 1528 1525 1524 1528 1535 1548 1560 1565 1566 1560 1554 1553 1551 1540 1522 1503 1485 1468 1457 1451 1447 1451 1457 1458 1457 1456 1455 1456 1458 1458 1460 1465 1473 1487 1499 1500 1498 1496 1495 1493 1491 1485 1478 1475 1472 1466 1464 1470 1480 1494 1505 1510 1511 1511 1508 1504 1500 1500 1501 1501 1496 1483 1470 1465 1463 1461 1457 1450 1444 1442 1435 1418 1395 1368 1344 1328 1314 1301 1287 1270 1250 1228 1207 1191 1179 1174 1176 1181 1187 1195 1198 1190 1176 1157 1137 1125 1116 1109 1106 1109 1116 1131 1148 1163 1177 1195 1212 1225 1233 1233 1229 1230 1233 1235 1238 1243 1250 1263 1274 1274 1267 1251 1235 1224 1217 1215 1214 1205 1192 1171 1152 1142 1135 1127 1117 1105 1095 1094 1095 1087 1068 1025 978 948 926 910 896 882 876 894 924 949 971 989 1003 1016 1033 1061 1092 1117 1138 1154 1166 1178 1184 1178 1170 1170 1173 1173 1172
874 873 870 865 859 858 869 884 898 910 923 939 959 978 994 1005 1015 1028 1047 1071 1096 1120 1140 1158 1176 1194 1207 1220 1236 1254 1273 1292 1309 1328 1351 1371 1381 1387 1393 1397 1402 1403 1396 1390 1394 1403 1412 1422 1432 1441 1451 1457 1460 1464 1477 1494 1506 1512 1511 1513 1526 1544 1564 1579 1583 1582 1577 1569 1561 1551 1541 1531 1524 1517 1511 1507 1507 1511 1517 1523 1524 1525 1527 1529 1530 1528 1523 1520 1524 1531 1544 1557 1562 1562 1555 1547 1546 1544 1533 1514 1495 1476 1461 1451 1444 1441 1444 1450 1451 1450 1449 1448 1449 1451 1451 1454 1460 1470 1487 1502 1506 1505 1506 1506 1506 1503 1496 1489 1485 1482 1474 1470 1474 1484 1499 1511 1514 1513 1511 1506 1501 1495 1493 1493 1491 1486 1472 1458 1452 1450 1447 1443 1436 1429 1426 1418 1400 1377 1351 1328 1311 1296 1283 1269 1251 1232 1210 1190 1175 1164 1160 1163 1168 1174 1183 1186 1177 1163 1142 1120 1105 1092 1080 1072 1069 1072 1084 1100 1112 1123 1137 1151 1162 1170 1169 1166 1167 1169 1169 1171 1175 1184 1201 1217 1219 1213 1198 1182 1173 1168 1167 1167 1162 1152 1135 1120 1116 1114 1113 1109 1102 1097 1099 1102 1096 1078 1035 987 959 938 925 914 903 899 921 954 980 1004 1021 1034 1047 1065 1096 1130 1156 1178 1195 1208 1220 1226 1218 1208 1208 1209 1206 1201
881 881 878 874 868 866 874 886 898 909 922 938 957 976 992 1004 1015 1027 1045 1068 1092 1116 1138 1157 1176 1194 1207 1219 1236 1254 1273 1291 1308 1326 1349 1369 1379 1384 1388 1391 1395 1395 1389 1384 1388 1397 1407 1418 1427 1436 1444 1450 1452 1457 1470 1487 1499 1507 1510 1515 1530 1547 1567 1581 1584 1583 1578 1570 1561 1551 1539 1528 1520 1513 1507 1503 1503 1506 1513 1519 1520 1521 1523 1525 1525 1524 1520 1517 1520 1527 1538 1549 1554 1554 1548 1543 1542 1540 1529 1511 1492 1474 1458 1448 1441 1437 1440 1444 1445 1445 1443 1443 1444 1446 1449 1454 1462 1472 1489 1504 1509 1511 1513 1515 1516 1514 1507 1500 1497 1493 1486 1481 1485 1494 1506 1515 1516 1514 1509 1502 1495 1488 1485 1484 1482 1475 1461 1448 1442 1439 1434 1427 1419 1412 1408 1400 1381 1358 1332 1309 1292 1278 1264 1250 1233 1215 1194 1175 1162 1151 1147 1149 1154 1160 1169 1171 1162 1147 1126 1104 1087 1071 1055 1042 1035 1033 1040 1050 1057 1065 1075 1086 1095 1101 1100 1096 1096 1098 1099 1102 1108 1117 1133 1148 1152 1148 1137 1124 1116 1113 1116 1120 1118 1113 1103 1095 1096 1100 1103 1104 1102 1099 1101 1103 1098 1083 1044 1002 976 958 949 942 934 932 952 984 1011 1036 1054 1067 1081 1100 1130 1163 1189 1211 1229 1243 1255 1261 1254 1246 1245 1246 1242 1236
887 887 888 888 884 882 882 886 894 906 921 939 957 975 993 1008 1020 1031 1044 1062 1085 1110 1135 1158 1179 1197 1208 1220 1237 1254 1271 1287 1304 1322 1344 1363 1372 1375 1373 1372 1374 1376 1374 1374 1380 1390 1404 1417 1427 1434 1438 1441 1443 1448 1459 1473 1486 1498 1511 1527 1543 1559 1574 1584 1586 1584 1579 1570 1561 1549 1533 1518 1508 1502 1499 1498 1498 1500 1506 1512 1514 1514 1513 1512 1513 1513 1513 1513 1517 1522 1527 1532 1534 1536 1538 1539 1540 1539 1530 1515 1498 1480 1464 1452 1445 1441 1439 1439 1439 1439 1438 1437 1439 1443 1454 1466 1476 1486 1499 1509 1514 1518 1522 1526 1528 1527 1520 1513 1509 1506 1501 1498 1502 1508 1516 1520 1518 1513 1506 1495 1485 1477 1475 1475 1472 1466 1456 1447 1442 1436 1423 1410 1399 1391 1386 1376 1357 1334 1311 1291 1275 1260 1246 1233 1218 1202 1185 1169 1157 1147 1137 1132 1133 1138 1147 1150 1141 1126 1108 1089 1072 1055 1035 1017 1005 998 998 1002 1003 1005 1008 1013 1019 1023 1020 1015 1015 1018 1021 1027 1034 1042 1054 1064 1069 1069 1064 1058 1053 1052 1063 1076 1080 1081 1081 1084 1092 1101 1109 1115 1116 1114 1108 1101 1095 1084 1058 1027 1006 991 990 993 989 986 995 1014 1038 1063 1081 1094 1108 1126 1152 1181 1206 1229 1251 1269 1281 1289 1290 1287 1288 1286 1277 1267
890 891 896 901 902 901 895 892 898 908 926 945 961 977 997 1015 1028 1037 1046 1059 1079 1104 1133 1160 1181 1199 1210 1221 1237 1255 1270 1284 1300 1318 1339 1356 1363 1363 1356 1350 1350 1353 1356 1362 1370 1382 1400 1416 1426 1432 1433 1432 1436 1442 1451 1463 1476 1491 1514 1539 1557 1570 1580 1585 1585 1584 1578 1568 1559 1546 1526 1507 1496 1490 1490 1491 1489 1489 1494 1500 1503 1503 1499 1496 1497 1500 1504 1508 1513 1516 1515 1514 1514 1516 1525 1534 1537 1536 1530 1518 1504 1488 1472 1460 1453 1447 1441 1437 1437 1438 1437 1437 1439 1445 1463 1483 1495 1504 1512 1517 1522 1527 1534 1540 1542 1541 1535 1527 1524 1521 1518 1516 1520 1524 1526 1526 1521 1514 1503 1490 1477 1467 1465 1466 1462 1456 1451 1446 1441 1432 1412 1391 1378 1369 1362 1351 1330 1308 1288 1271 1255 1239 1227 1216 1205 1193 1181 1168 1158 1146 1130 1117 1112 1111 1119 1123 1113 1098 1084 1069 1053 1036 1014 991 975 964 958 954 949 943 938 936 939 942 937 931 931 935 942 950 958 965 972 979 987 994 997 997 995 998 1017 1038 1048 1055 1066 1080 1095 1109 1122 1131 1137 1137 1123 1107 1100 1093 1079 1060 1042 1030 1036 1047 1047 1043 1040 1046 1066 1089 1106 1119 1133 1151 1172 1197 1220 1243 1268 1290 1304 1314 1321 1324 1325 1320 1306 1292
890 892 900 910 916 919 915 911 915 925 942 959 972 985 1004 1022 1034 1043 1050 1060 1079 1103 1132 1159 1181 1199 1210 1221 1238 1256 1271 1284 1300 1318 1338 1353 1357 1353 1343 1335 1334 1336 1341 1350 1360 1374 1394 1411 1422 1427 1427 1427 1432 1441 1452 1464 1477 1494 1519 1545 1561 1572 1579 1581 1582 1580 1574 1564 1555 1542 1521 1501 1489 1483 1482 1482 1478 1475 1479 1484 1487 1487 1484 1482 1485 1491 1497 1503 1508 1510 1508 1503 1502 1504 1514 1524 1527 1527 1522 1513 1502 1490 1476 1465 1458 1452 1445 1441 1442 1444 1444 1445 1447 1454 1474 1496 1509 1518 1525 1530 1535 1542 1549 1556 1558 1557 1550 1542 1539 1536 1533 1532 1534 1537 1537 1534 1527 1519 1505 1489 1474 1463 1459 1459 1453 1447 1441 1436 1430 1418 1395 1372 1358 1348 1340 1327 1306 1283 1264 1247 1231 1215 1204 1197 1190 1183 1175 1165 1155 1144 1125 1105 1093 1085 1088 1089 1078 1063 1050 1037 1024 1009 987 962 943 928 918 907 894 882 870 864 865 866 860 854 855 860 868 877 886 894 902 912 925 938 947 952 953 958 981 1007 1021 1034 1052 1072 1092 1111 1128 1142 1152 1155 1142 1125 1120 1117 1106 1091 1074 1063 1072 1086 1089 1086 1080 1082 1099 1119 1134 1146 1161 1178 1199 1222 1244 1267 1292 1314 1328 1339 1347 1351 1350 1343 1326 1310
893 895 904 916 927 936 936 935 940 950 964 978 988 997 1012 1027 1039 1048 1054 1064 1081 1103 1131 1158 1180 1198 1210 1222 1241 1259 1276 1291 1306 1323 1340 1350 1351 1345 1335 1327 1326 1328 1333 1342 1354 1369 1389 1406 1416 1421 1421 1423 1431 1442 1455 1469 1482 1498 1523 1547 1561 1568 1572 1573 1573 1572 1567 1559 1550 1537 1517 1497 1485 1479 1476 1472 1465 1460 1461 1466 1469 1471 1470 1471 1477 1484 1492 1498 1502 1505 1504 1501 1498 1499 1505 1513 1516 1516 1514 1508 1501 1491 1480 1470 1463 1457 1451 1447 1449 1453 1456 1458 1461 1467 1485 1506 1518 1528 1537 1544 1551 1558 1565 1570 1573 1571 1563 1555 1551 1549 1547 1546 1548 1549 1547 1542 1534 1524 1509 1491 1474 1461 1456 1453 1446 1438 1430 1422 1413 1400 1377 1353 1339 1328 1319 1305 1283 1259 1239 1221 1204 1188 1179 1174 1172 1170 1165 1157 1148 1137 1117 1095 1076 1062 1057 1053 1040 1025 1010 998 987 974 954 930 909 892 877 861 842 823 806 796 795 795 792 789 791 797 803 810 818 826 837 852 871 890 905 913 916 923 947 975 993 1010 1033 1058 1081 1104 1127 1147 1162 1168 1159 1147 1144 1143 1134 1119 1103 1092 1099 1112 1117 1116 1110 1110 1124 1144 1161 1176 1193 1210 1228 1248 1268 1290 1315 1336 1351 1361 1368 1370 1366 1358 1344 1330
904 905 911 922 936 950 959 965 972 980 991 1002 1008 1014 1022 1031 1041 1050 1055 1063 1079 1100 1128 1155 1177 1196 1212 1228 1248 1268 1290 1309 1326 1341 1347 1347 1342 1336 1332 1331 1332 1333 1336 1344 1357 1372 1389 1402 1410 1415 1417 1421 1431 1444 1458 1472 1486 1501 1523 1544 1556 1560 1558 1554 1552 1553 1554 1552 1545 1533 1514 1495 1484 1477 1469 1460 1450 1443 1443 1448 1452 1455 1459 1465 1474 1483 1488 1491 1495 1499 1505 1508 1507 1504 1503 1503 1503 1504 1507 1507 1503 1496 1486 1476 1470 1464 1457 1452 1455 1461 1469 1475 1480 1485 1496 1509 1520 1532 1546 1559 1567 1574 1579 1581 1582 1579 1569 1559 1555 1554 1557 1562 1565 1564 1557 1546 1536 1525 1511 1494 1475 1460 1454 1450 1442 1431 1416 1402 1390 1377 1358 1338 1324 1312 1300 1283 1260 1235 1213 1194 1176 1160 1151 1149 1150 1150 1146 1138 1129 1120 1107 1089 1067 1046 1030 1018 1003 985 965 948 937 927 912 892 871 852 835 817 793 769 746 730 727 729 735 743 749 753 750 747 752 762 776 796 820 844 863 874 879 886 906 931 951 972 999 1028 1055 1083 1115 1145 1165 1176 1172 1166 1166 1167 1160 1146 1130 1118 1117 1122 1126 1126 1120 1117 1129 1151 1184 1216 1237 1252 1261 1270 1287 1308 1333 1354 1369 1379 1382 1379 1373 1367 1365 1364
918 918 920 928 943 961 977 990 998 1005 1014 1022 1027 1030 1031 1035 1043 1052 1057 1064 1079 1100 1127 1155 1177 1197 1217 1237 1257 1279 1305 1329 1347 1359 1356 1346 1338 1333 1335 1341 1344 1344 1345 1351 1364 1378 1391 1399 1406 1410 1414 1419 1430 1443 1458 1472 1486 1501 1520 1539 1549 1551 1544 1535 1532 1534 1541 1545 1540 1528 1511 1494 1484 1475 1463 1449 1437 1430 1430 1436 1440 1445 1454 1465 1476 1485 1487 1487 1490 1497 1509 1519 1519 1514 1505 1497 1496 1498 1504 1509 1508 1502 1492 1483 1476 1470 1462 1457 1460 1468 1480 1491 1497 1501 1505 1511 1521 1534 1553 1572 1582 1588 1590 1589 1589 1586 1574 1562 1557 1558 1566 1576 1580 1577 1566 1550 1538 1527 1513 1497 1477 1460 1453 1448 1439 1424 1404 1384 1369 1355 1340 1325 1311 1298 1283 1263 1239 1213 1189 1168 1149 1133 1124 1123 1125 1127 1123 1114 1104 1096 1090 1078 1056 1030 1006 986 968 949 923 901 889 880 869 854 833 812 795 775 749 722 694 675 669 673 689 707 716 717 705 692 695 705 722 745 772 798 820 834 840 848 865 886 906 931 961 993 1022 1054 1096 1134 1159 1173 1175 1174 1177 1181 1175 1163 1149 1135 1127 1125 1128 1130 1122 1118 1130 1156 1204 1253 1279 1293 1292 1292 1307 1328 1352 1374 1389 1398 1398 1391 1384 1381 1392 1405
927 927 928 936 951 969 987 1002 1010 1017 1026 1032 1037 1040 1040 1041 1049 1058 1063 1070 1085 1105 1133 1161 1182 1203 1223 1244 1265 1287 1314 1339 1358 1369 1363 1350 1341 1336 1340 1348 1350 1350 1350 1355 1367 1381 1392 1399 1405 1409 1412 1417 1428 1441 1455 1469 1482 1497 1516 1533 1543 1545 1536 1526 1523 1525 1534 1540 1535 1523 1507 1491 1481 1472 1459 1444 1433 1425 1427 1433 1438 1443 1454 1467 1479 1488 1490 1489 1492 1500 1514 1526 1527 1521 1510 1500 1498 1500 1508 1514 1513 1507 1497 1488 1482 1476 1468 1463 1466 1475 1488 1501 1507 1511 1513 1518 1527 1540 1562 1582 1593 1599 1600 1598 1598 1595 1582 1570 1565 1566 1576 1587 1591 1587 1574 1557 1544 1531 1517 1500 1479 1461 1452 1446 1435 1419 1396 1373 1356 1341 1326 1311 1296 1282 1265 1245 1220 1193 1168 1147 1128 1111 1102 1100 1102 1104 1099 1089 1079 1071 1067 1056 1033 1006 980 958 939 918 890 866 854 844 834 819 797 776 759 738 711 683 653 632 626 629 646 666 675 675 660 645 647 658 675 700 728 755 777 793 801 810 827 849 871 898 930 964 996 1030 1075 1118 1145 1162 1167 1169 1175 1181 1177 1167 1155 1144 1135 1133 1137 1140 1134 1131 1143 1171 1225 1279 1307 1321 1318 1316 1331 1353 1377 1400 1416 1426 1424 1416 1410 1408 1423 1440
936 935 936 943 958 976 994 1008 1016 1024 1031 1037 1042 1045 1045 1046 1055 1064 1071 1080 1096 1116 1142 1168 1190 1210 1231 1252 1273 1295 1319 1343 1361 1372 1369 1357 1349 1343 1345 1350 1352 1351 1352 1359 1370 1383 1392 1397 1402 1406 1410 1416 1426 1439 1451 1464 1476 1490 1509 1526 1535 1538 1531 1522 1520 1522 1529 1533 1528 1517 1501 1487 1478 1470 1458 1445 1434 1427 1428 1433 1438 1444 1455 1469 1481 1491 1493 1493 1497 1504 1518 1530 1530 1525 1514 1505 1503 1505 1513 1519 1517 1512 1503 1494 1489 1483 1476 1472 1475 1483 1495 1505 1511 1516 1519 1525 1534 1548 1569 1589 1600 1606 1607 1605 1605 1602 1591 1580 1576 1576 1585 1596 1599 1596 1582 1564 1550 1537 1522 1504 1481 1462 1451 1444 1431 1414 1389 1364 1346 1330 1313 1297 1281 1265 1248 1227 1202 1175 1149 1126 1106 1090 1080 1078 1079 1080 1075 1064 1054 1045 1039 1028 1004 977 951 929 910 889 862 839 826 816 805 789 767 745 725 703 675 646 617 596 589 590 605 621 629 629 615 602 605 615 632 656 684 712 738 757 768 778 793 814 837 866 903 942 976 1012 1056 1098 1126 1144 1152 1155 1164 1172 1173 1166 1158 1149 1142 1141 1147 1153 1151 1154 1169 1197 1247 1297 1325 1340 1340 1341 1356 1379 1407 1433 1450 1460 1460 1453 1446 1445 1459 1475
946 945 945 950 964 981 998 1010 1018 1025 1029 1033 1036 1039 1040 1043 1051 1063 1079 1097 1114 1133 1154 1176 1196 1217 1239 1262 1283 1303 1321 1337 1353 1366 1371 1370 1365 1359 1352 1348 1347 1348 1355 1366 1378 1388 1390 1390 1392 1397 1406 1417 1428 1439 1447 1455 1465 1479 1495 1511 1520 1525 1526 1524 1524 1525 1526 1524 1517 1507 1495 1485 1477 1471 1464 1456 1447 1441 1436 1436 1440 1447 1458 1472 1486 1496 1499 1499 1502 1510 1521 1530 1530 1525 1517 1511 1509 1512 1519 1524 1523 1518 1512 1505 1500 1496 1491 1490 1494 1499 1502 1504 1508 1513 1519 1527 1538 1552 1571 1589 1600 1606 1607 1604 1603 1601 1596 1590 1587 1587 1594 1602 1605 1602 1589 1572 1557 1543 1527 1507 1483 1462 1451 1443 1429 1410 1384 1358 1340 1322 1303 1283 1265 1249 1232 1213 1187 1159 1130 1105 1084 1067 1058 1056 1055 1053 1045 1034 1022 1013 1004 990 967 942 919 899 879 859 838 820 806 794 783 767 744 721 696 669 640 611 584 565 558 556 562 570 575 576 569 563 567 577 592 614 640 669 704 733 748 757 763 773 796 829 877 927 966 1001 1036 1068 1094 1113 1121 1126 1137 1148 1156 1157 1155 1150 1143 1141 1149 1160 1173 1191 1213 1239 1272 1305 1329 1347 1355 1362 1379 1403 1440 1476 1496 1507 1508 1502 1496 1493 1501 1511
958 957 955 958 971 987 1002 1013 1020 1025 1027 1027 1028 1030 1032 1036 1045 1059 1083 1110 1129 1146 1163 1179 1198 1219 1243 1268 1289 1306 1317 1326 1340 1355 1370 1380 1380 1374 1361 1349 1346 1348 1361 1377 1387 1392 1387 1381 1381 1387 1400 1416 1428 1437 1440 1443 1452 1464 1478 1493 1502 1510 1519 1525 1527 1525 1520 1512 1503 1494 1486 1481 1475 1470 1468 1466 1462 1456 1448 1442 1446 1453 1465 1480 1493 1504 1507 1507 1512 1518 1528 1534 1533 1528 1523 1519 1518 1520 1527 1532 1531 1527 1523 1519 1514 1510 1509 1510 1512 1514 1506 1499 1502 1507 1516 1528 1540 1555 1572 1589 1599 1605 1604 1601 1599 1597 1596 1596 1594 1593 1598 1604 1608 1607 1595 1579 1564 1550 1533 1512 1486 1462 1450 1442 1426 1406 1379 1353 1334 1317 1295 1272 1252 1234 1219 1200 1175 1147 1115 1087 1065 1048 1039 1034 1030 1023 1012 998 986 975 964 949 930 910 891 873 854 835 819 804 789 774 760 744 721 697 668 636 606 578 553 536 529 525 522 522 525 528 528 529 535 544 557 575 597 626 667 706 724 733 728 729 752 790 849 910 952 986 1013 1034 1055 1072 1079 1085 1098 1112 1127 1139 1145 1147 1143 1141 1150 1167 1196 1230 1261 1288 1306 1321 1341 1363 1378 1391 1406 1430 1475 1520 1543 1554 1555 1550 1545 1540 1542 1546
972 971 968 970 982 996 1010 1019 1026 1030 1030 1028 1028 1028 1029 1033 1042 1056 1083 1111 1130 1146 1161 1176 1194 1215 1239 1264 1285 1302 1310 1317 1330 1347 1365 1380 1386 1383 1371 1359 1356 1359 1372 1386 1393 1394 1385 1375 1375 1380 1394 1411 1422 1430 1431 1432 1439 1449 1463 1477 1487 1497 1508 1517 1519 1517 1511 1500 1490 1481 1475 1471 1466 1464 1465 1467 1467 1464 1457 1452 1456 1463 1476 1491 1504 1515 1519 1519 1524 1531 1539 1544 1542 1538 1532 1529 1528 1530 1537 1542 1541 1537 1534 1530 1526 1522 1520 1520 1520 1518 1507 1497 1499 1505 1516 1529 1543 1558 1576 1592 1602 1607 1606 1601 1597 1594 1594 1594 1593 1592 1596 1604 1610 1611 1601 1586 1572 1558 1541 1518 1490 1464 1450 1440 1423 1401 1373 1348 1330 1312 1290 1265 1243 1224 1208 1189 1164 1136 1104 1075 1053 1035 1024 1016 1005 994 978 961 948 936 926 915 901 886 872 856 837 818 801 785 766 748 731 713 691 666 637 605 574 547 523 506 498 493 488 486 488 493 495 498 505 514 525 540 558 583 624 663 683 692 687 688 713 755 818 882 926 960 984 1000 1018 1031 1037 1043 1057 1074 1095 1115 1130 1141 1143 1146 1158 1179 1215 1258 1296 1328 1347 1360 1381 1404 1420 1432 1444 1463 1507 1553 1577 1589 1590 1585 1579 1575 1575 1578
985 983 980 982 993 1006 1019 1028 1033 1037 1035 1031 1029 1028 1029 1034 1043 1057 1081 1107 1125 1141 1155 1171 1189 1209 1231 1253 1274 1290 1300 1308 1321 1337 1357 1375 1385 1388 1380 1371 1369 1372 1384 1396 1399 1396 1386 1375 1374 1379 1391 1405 1415 1422 1423 1424 1429 1437 1448 1461 1472 1482 1495 1504 1506 1505 1498 1488 1477 1468 1461 1457 1455 1454 1458 1464 1468 1469 1465 1461 1466 1474 1486 1501 1515 1526 1531 1533 1538 1545 1552 1556 1553 1548 1544 1541 1541 1543 1547 1550 1548 1544 1541 1538 1534 1530 1527 1524 1521 1517 1506 1496 1498 1505 1517 1532 1547 1563 1580 1594 1604 1609 1607 1601 1596 1591 1589 1589 1587 1586 1591 1600 1608 1612 1607 1595 1582 1569 1550 1526 1496 1468 1450 1437 1418 1395 1369 1344 1327 1310 1287 1262 1238 1217 1199 1179 1154 1126 1094 1064 1042 1024 1011 999 983 966 945 925 911 898 889 882 873 863 853 839 820 800 781 761 739 717 699 681 659 634 605 573 544 517 493 476 468 462 458 457 461 465 467 469 476 486 497 511 525 546 581 616 636 646 647 654 682 726 789 853 897 931 953 967 981 992 998 1006 1021 1041 1066 1092 1117 1137 1148 1157 1172 1195 1234 1282 1326 1366 1389 1407 1430 1455 1474 1486 1494 1508 1545 1585 1608 1619 1620 1614 1608 1603 1603 1606
994 992 990 991 1001 1014 1027 1037 1042 1044 1040 1033 1028 1027 1033 1044 1054 1066 1083 1101 1117 1133 1150 1168 1186 1204 1218 1233 1251 1269 1284 1297 1311 1327 1346 1364 1377 1385 1384 1381 1381 1384 1394 1403 1404 1400 1393 1387 1386 1389 1393 1400 1408 1415 1420 1423 1427 1432 1437 1444 1453 1465 1479 1489 1492 1491 1485 1476 1466 1456 1447 1442 1441 1442 1450 1460 1468 1472 1471 1469 1474 1482 1492 1504 1518 1530 1540 1548 1555 1560 1563 1561 1557 1553 1554 1558 1559 1558 1554 1549 1544 1541 1540 1540 1536 1531 1525 1518 1514 1509 1501 1497 1501 1509 1524 1543 1560 1575 1586 1593 1601 1606 1605 1599 1592 1586 1582 1580 1578 1577 1581 1591 1601 1609 1612 1607 1598 1585 1564 1537 1505 1474 1449 1429 1408 1385 1363 1343 1327 1310 1288 1263 1237 1213 1194 1174 1149 1119 1085 1052 1029 1011 998 985 966 943 917 894 877 864 855 849 844 838 829 815 795 774 753 729 704 680 663 648 628 604 574 541 512 486 463 448 439 434 434 438 443 447 444 442 448 460 475 492 506 521 543 566 583 598 613 635 669 713 771 828 870 904 922 931 942 953 965 980 999 1021 1050 1083 1114 1143 1162 1178 1198 1222 1258 1304 1353 1398 1428 1449 1474 1504 1536 1560 1569 1575 1596 1621 1639 1649 1647 1638 1631 1625 1624 1626
1002 1001 999 1001 1010 1023 1037 1047 1052 1052 1045 1035 1029 1028 1040 1056 1068 1078 1087 1098 1111 1127 1147 1168 1187 1202 1209 1216 1231 1250 1270 1289 1304 1319 1337 1355 1369 1380 1385 1387 1389 1393 1402 1410 1409 1406 1403 1402 1402 1402 1400 1399 1404 1410 1419 1425 1428 1429 1427 1428 1435 1446 1460 1472 1475 1474 1470 1463 1454 1444 1434 1427 1427 1432 1443 1456 1466 1473 1474 1473 1479 1486 1494 1504 1517 1532 1547 1559 1568 1572 1570 1564 1558 1555 1563 1572 1575 1572 1559 1545 1538 1535 1537 1538 1535 1529 1520 1511 1505 1501 1498 1499 1504 1513 1533 1555 1573 1587 1591 1591 1596 1602 1601 1596 1589 1581 1575 1572 1570 1569 1573 1582 1593 1605 1615 1619 1613 1601 1579 1548 1516 1483 1452 1426 1402 1379 1361 1345 1330 1312 1290 1264 1236 1210 1189 1167 1141 1110 1072 1036 1012 994 983 971 949 924 894 867 849 835 824 818 815 810 801 785 764 743 719 694 666 642 629 617 599 576 545 511 482 457 436 422 413 409 412 420 426 429 422 416 421 434 455 476 490 502 513 525 540 559 587 622 661 705 757 807 848 881 896 902 911 923 942 965 987 1012 1044 1081 1118 1152 1178 1200 1223 1249 1283 1326 1378 1427 1460 1485 1513 1547 1594 1631 1642 1643 1648 1659 1673 1682 1676 1664 1656 1650 1647 1647
1015 1014 1012 1014 1023 1035 1048 1058 1061 1060 1052 1040 1033 1032 1044 1062 1074 1083 1091 1099 1112 1128 1148 1169 1188 1202 1207 1211 1226 1245 1266 1286 1301 1316 1333 1351 1366 1378 1385 1389 1393 1398 1408 1416 1416 1413 1411 1411 1412 1411 1406 1402 1405 1410 1417 1422 1422 1420 1414 1411 1417 1426 1441 1452 1455 1455 1451 1445 1437 1428 1419 1414 1416 1423 1437 1452 1465 1473 1475 1475 1481 1489 1496 1506 1519 1534 1551 1565 1574 1579 1575 1567 1561 1559 1568 1579 1582 1578 1563 1546 1539 1536 1538 1540 1536 1530 1521 1511 1504 1500 1498 1501 1507 1516 1536 1560 1578 1591 1593 1591 1595 1600 1599 1594 1586 1578 1572 1568 1566 1564 1568 1578 1590 1604 1618 1625 1621 1611 1589 1560 1528 1494 1462 1433 1408 1385 1366 1351 1334 1314 1290 1262 1231 1202 1178 1155 1127 1094 1055 1018 993 975 964 952 930 903 871 843 824 809 797 790 786 781 771 754 734 712 687 661 634 611 599 589 572 550 520 487 458 434 413 399 390 385 389 397 404 406 399 392 397 410 433 455 470 482 490 500 515 536 568 607 647 691 741 789 829 862 877 882 892 905 926 953 978 1004 1039 1078 1118 1156 1186 1211 1238 1267 1302 1347 1401 1453 1489 1516 1546 1583 1635 1677 1689 1689 1691 1698 1711 1719 1712 1698 1690 1684 1681 1681
1029 1028 1026 1027 1035 1047 1060 1070 1072 1070 1059 1046 1038 1037 1048 1064 1076 1086 1094 1103 1115 1130 1149 1169 1187 1202 1206 1211 1226 1244 1265 1284 1300 1314 1332 1350 1366 1379 1386 1390 1395 1401 1412 1420 1420 1418 1416 1416 1417 1415 1410 1406 1406 1409 1414 1416 1414 1409 1402 1398 1402 1410 1421 1431 1433 1433 1430 1425 1418 1411 1404 1402 1406 1415 1430 1447 1461 1472 1475 1477 1483 1492 1499 1508 1522 1537 1554 1568 1577 1582 1579 1571 1565 1563 1571 1582 1585 1581 1568 1553 1545 1542 1543 1544 1539 1533 1524 1515 1508 1504 1502 1503 1509 1518 1537 1559 1576 1589 1593 1593 1597 1601 1600 1593 1585 1577 1570 1565 1562 1562 1567 1578 1592 1606 1621 1630 1628 1619 1599 1571 1540 1507 1475 1446 1420 1396 1377 1359 1340 1318 1291 1259 1225 1193 1167 1141 1111 1078 1038 1002 977 959 946 932 909 882 851 822 803 786 774 767 762 756 745 729 707 685 661 636 609 586 573 563 546 526 497 466 438 414 393 378 368 363 366 374 379 383 378 373 379 393 414 436 451 463 473 484 500 521 553 593 632 675 722 767 806 839 857 867 879 894 916 945 972 999 1033 1072 1114 1154 1187 1215 1246 1279 1320 1371 1428 1482 1522 1553 1585 1623 1670 1707 1719 1720 1721 1728 1740 1749 1742 1730 1722 1718 1716 1718
1038 1038 1036 1038 1045 1056 1073 1085 1088 1084 1070 1055 1047 1045 1053 1067 1078 1088 1098 1109 1120 1133 1149 1165 1182 1196 1203 1211 1226 1244 1264 1283 1298 1313 1333 1355 1372 1385 1389 1390 1395 1402 1411 1418 1419 1418 1418 1418 1418 1417 1411 1406 1404 1404 1407 1408 1403 1397 1393 1392 1395 1399 1403 1405 1405 1405 1404 1402 1397 1393 1390 1391 1398 1408 1423 1439 1453 1465 1474 1481 1489 1497 1503 1510 1524 1539 1555 1569 1578 1583 1581 1575 1569 1567 1573 1581 1583 1581 1575 1567 1561 1556 1553 1550 1544 1538 1532 1526 1522 1518 1512 1509 1514 1522 1536 1552 1567 1581 1593 1601 1607 1610 1607 1600 1592 1583 1573 1565 1562 1562 1572 1587 1600 1614 1628 1636 1636 1629 1610 1583 1554 1523 1493 1465 1439 1414 1393 1374 1352 1327 1294 1257 1220 1185 1156 1127 1095 1062 1026 993 969 949 931 912 888 862 835 810 790 773 761 754 748 741 730 713 692 670 647 623 598 574 555 539 522 503 477 448 421 396 373 355 344 338 341 347 353 358 362 367 376 389 404 421 436 451 464 478 495 516 548 585 623 661 697 732 768 803 833 856 874 892 918 949 978 1005 1032 1063 1104 1146 1182 1213 1246 1285 1341 1405 1466 1523 1569 1607 1643 1677 1704 1719 1726 1728 1728 1732 1744 1754 1753 1747 1742 1741 1746 1754
1047 1047 1045 1047 1054 1065 1084 1100 1102 1097 1081 1064 1056 1055 1062 1072 1083 1093 1105 1117 1127 1137 1148 1160 1176 1191 1200 1209 1225 1243 1263 1282 1297 1312 1335 1359 1378 1390 1392 1390 1395 1403 1411 1417 1420 1420 1422 1423 1423 1421 1416 1409 1404 1400 1401 1400 1393 1385 1384 1386 1388 1389 1384 1378 1377 1377 1379 1379 1377 1376 1377 1382 1392 1403 1416 1430 1444 1458 1471 1483 1493 1500 1504 1511 1524 1540 1556 1569 1578 1583 1582 1578 1573 1570 1574 1580 1581 1581 1582 1581 1575 1568 1561 1554 1547 1542 1539 1538 1537 1534 1526 1520 1523 1530 1538 1548 1559 1573 1592 1609 1616 1619 1614 1607 1600 1593 1581 1570 1565 1567 1580 1597 1610 1620 1631 1638 1639 1633 1616 1591 1565 1537 1510 1485 1458 1432 1410 1389 1364 1334 1295 1253 1212 1176 1144 1113 1080 1047 1014 984 961 940 917 894 870 847 824 802 783 765 754 746 739 730 717 700 679 657 636 614 591 566 542 519 501 484 461 434 407 380 354 333 321 314 316 322 327 335 348 363 374 386 396 408 424 442 459 476 495 516 546 580 614 647 671 695 728 766 807 844 871 895 926 961 992 1019 1038 1062 1102 1146 1184 1217 1254 1299 1368 1444 1506 1561 1612 1657 1696 1727 1733 1728 1731 1733 1732 1735 1746 1757 1763 1764 1765 1769 1782 1797
1058 1057 1055 1057 1063 1073 1092 1108 1109 1103 1087 1071 1066 1067 1074 1084 1094 1105 1116 1126 1134 1140 1148 1159 1174 1188 1198 1208 1223 1241 1261 1280 1294 1310 1333 1359 1379 1393 1394 1393 1398 1406 1415 1423 1428 1431 1434 1436 1436 1434 1427 1417 1408 1400 1397 1394 1385 1376 1373 1375 1375 1373 1365 1357 1354 1355 1358 1361 1362 1364 1368 1376 1387 1400 1413 1427 1440 1454 1468 1481 1491 1499 1502 1509 1523 1540 1556 1569 1577 1583 1583 1579 1575 1572 1576 1581 1583 1583 1585 1585 1579 1570 1561 1553 1545 1540 1539 1541 1543 1544 1537 1532 1535 1542 1547 1553 1561 1572 1591 1609 1617 1619 1615 1608 1605 1599 1588 1578 1573 1574 1587 1603 1611 1617 1625 1631 1633 1629 1614 1592 1569 1545 1521 1496 1470 1443 1420 1396 1367 1333 1291 1245 1203 1164 1130 1098 1064 1031 999 971 948 926 903 880 858 836 816 795 776 758 745 736 726 714 701 682 660 639 619 598 576 553 528 504 487 470 448 421 393 365 337 315 302 295 296 302 307 316 331 348 360 371 381 394 414 435 455 474 493 515 543 574 604 630 649 669 700 738 784 829 863 894 932 970 1004 1032 1051 1074 1116 1162 1202 1238 1277 1326 1398 1475 1534 1586 1636 1682 1724 1755 1758 1749 1752 1756 1756 1759 1771 1783 1792 1799 1806 1815 1833 1852
1068 1067 1066 1067 1072 1082 1099 1112 1113 1106 1092 1079 1076 1079 1087 1098 1108 1117 1127 1134 1138 1142 1148 1158 1173 1187 1197 1208 1224 1242 1261 1279 1293 1308 1332 1358 1380 1395 1397 1397 1403 1412 1422 1432 1439 1444 1448 1450 1450 1447 1439 1427 1414 1402 1396 1390 1379 1368 1362 1360 1357 1354 1346 1338 1336 1337 1341 1345 1349 1354 1362 1373 1386 1399 1413 1427 1440 1452 1464 1476 1486 1493 1498 1506 1521 1538 1554 1567 1576 1582 1582 1579 1575 1573 1578 1583 1585 1584 1585 1582 1575 1565 1556 1549 1541 1536 1536 1541 1546 1550 1546 1541 1545 1551 1556 1560 1565 1573 1589 1604 1611 1613 1611 1608 1607 1605 1595 1586 1581 1582 1592 1603 1606 1608 1612 1617 1619 1617 1605 1588 1570 1548 1525 1501 1474 1447 1422 1396 1364 1328 1284 1237 1193 1153 1118 1085 1050 1017 985 956 932 910 888 867 847 828 809 790 770 751 736 723 711 697 683 665 643 621 599 578 557 535 513 492 476 459 437 409 379 350 322 301 289 281 280 283 288 296 311 327 339 350 362 378 400 425 449 471 491 513 537 562 586 609 627 647 679 717 763 810 849 888 931 974 1011 1041 1062 1087 1130 1179 1225 1268 1311 1361 1431 1502 1556 1604 1651 1696 1740 1774 1782 1778 1784 1789 1789 1792 1805 1819 1833 1846 1859 1873 1893 1912
1077 1076 1077 1079 1085 1092 1103 1111 1110 1105 1096 1089 1089 1093 1100 1108 1117 1126 1132 1134 1135 1138 1145 1156 1171 1186 1199 1212 1229 1246 1264 1280 1293 1309 1334 1361 1383 1399 1403 1404 1411 1420 1432 1444 1453 1458 1461 1461 1460 1458 1450 1438 1423 1408 1398 1390 1378 1364 1350 1339 1333 1330 1325 1320 1319 1320 1324 1329 1335 1344 1358 1375 1390 1404 1418 1431 1444 1454 1461 1467 1476 1484 1492 1502 1518 1536 1552 1565 1573 1579 1580 1578 1575 1573 1578 1585 1586 1584 1579 1570 1560 1551 1547 1544 1538 1533 1533 1538 1546 1553 1550 1545 1549 1555 1560 1564 1567 1571 1581 1591 1596 1600 1603 1607 1609 1609 1600 1591 1587 1586 1590 1594 1593 1591 1592 1595 1597 1597 1592 1583 1569 1549 1523 1495 1467 1440 1415 1388 1354 1316 1275 1232 1189 1147 1110 1074 1039 1005 971 941 917 895 874 855 837 820 803 785 765 744 723 705 689 675 664 650 630 606 579 552 530 511 495 480 465 449 425 395 365 336 314 298 287 277 267 262 264 271 284 298 309 321 335 354 379 407 439 468 489 509 524 538 556 578 602 632 666 702 741 782 824 869 919 967 1006 1039 1062 1089 1134 1188 1248 1307 1357 1407 1466 1525 1574 1619 1663 1707 1752 1791 1809 1817 1828 1834 1831 1830 1843 1861 1885 1910 1929 1945 1959 1971
1085 1085 1087 1091 1097 1102 1108 1111 1108 1104 1101 1099 1101 1105 1110 1116 1124 1132 1134 1133 1132 1134 1143 1156 1172 1187 1202 1219 1236 1253 1268 1282 1295 1310 1336 1365 1388 1404 1409 1411 1417 1427 1440 1453 1463 1468 1469 1467 1465 1463 1457 1445 1429 1413 1401 1391 1378 1362 1341 1322 1314 1310 1309 1308 1308 1309 1312 1318 1324 1335 1356 1378 1395 1409 1423 1436 1448 1456 1458 1459 1466 1475 1485 1498 1515 1533 1549 1561 1570 1576 1577 1576 1573 1572 1577 1584 1585 1582 1571 1556 1545 1537 1538 1540 1535 1530 1529 1535 1544 1551 1548 1544 1547 1554 1559 1563 1565 1567 1572 1577 1581 1586 1595 1604 1609 1609 1601 1591 1587 1585 1585 1583 1579 1575 1573 1574 1576 1578 1580 1577 1566 1546 1517 1485 1456 1429 1404 1376 1342 1304 1267 1228 1186 1143 1103 1065 1029 995 960 928 904 882 862 844 827 811 795 778 759 736 710 686 668 654 648 638 619 593 560 528 505 487 477 468 455 438 413 382 350 323 306 297 288 275 256 242 242 249 259 271 281 293 308 330 356 386 424 459 482 499 505 510 524 547 580 619 656 690 722 756 798 846 901 954 994 1028 1053 1083 1129 1187 1263 1337 1392 1442 1491 1540 1586 1630 1673 1717 1764 1807 1837 1856 1871 1879 1872 1868 1882 1903 1937 1973 1997 2014 2021 2024
1093 1093 1096 1100 1106 1111 1116 1117 1114 1110 1108 1107 1110 1114 1118 1123 1131 1139 1140 1137 1136 1137 1146 1161 1176 1191 1207 1224 1241 1257 1272 1286 1298 1313 1339 1368 1390 1406 1411 1413 1419 1429 1442 1455 1465 1470 1470 1467 1465 1463 1457 1446 1430 1413 1400 1390 1377 1361 1337 1316 1307 1304 1303 1304 1304 1304 1308 1313 1320 1331 1353 1377 1394 1409 1422 1435 1447 1455 1456 1455 1462 1471 1482 1495 1512 1530 1546 1558 1566 1572 1574 1572 1569 1568 1574 1581 1582 1578 1566 1549 1537 1530 1532 1535 1531 1525 1525 1530 1539 1547 1544 1539 1542 1549 1554 1558 1560 1562 1565 1569 1573 1578 1588 1599 1604 1605 1597 1587 1582 1580 1579 1576 1571 1567 1565 1565 1567 1569 1573 1572 1561 1541 1511 1478 1449 1422 1396 1369 1334 1296 1260 1222 1180 1138 1096 1058 1022 987 951 919 895 873 853 835 818 802 787 770 750 727 700 674 656 642 636 628 609 583 548 515 491 474 465 458 445 428 402 371 339 311 296 289 279 266 245 228 227 234 244 254 264 275 291 313 339 369 408 444 467 484 488 491 504 527 562 604 641 676 705 738 781 829 886 940 982 1017 1044 1075 1122 1183 1263 1342 1400 1450 1499 1546 1593 1639 1684 1729 1778 1824 1859 1882 1901 1910 1905 1902 1917 1941 1979 2018 2045 2063 2069 2071
1105 1105 1108 1112 1117 1122 1125 1126 1122 1119 1116 1116 1118 1122 1127 1132 1140 1147 1148 1145 1143 1144 1153 1167 1182 1196 1212 1228 1245 1262 1278 1292 1304 1319 1342 1369 1390 1406 1412 1414 1421 1430 1442 1455 1464 1469 1469 1465 1463 1461 1455 1444 1428 1411 1398 1387 1374 1358 1334 1314 1305 1302 1303 1305 1305 1306 1309 1315 1321 1332 1353 1375 1392 1406 1419 1430 1442 1450 1452 1452 1459 1468 1480 1495 1512 1529 1543 1553 1561 1567 1570 1569 1567 1566 1571 1578 1579 1575 1562 1546 1534 1525 1526 1527 1522 1517 1518 1525 1534 1542 1539 1534 1537 1543 1549 1553 1555 1557 1559 1563 1567 1572 1582 1593 1598 1599 1591 1582 1578 1576 1574 1571 1566 1562 1560 1561 1563 1564 1566 1564 1552 1533 1504 1472 1443 1416 1390 1362 1328 1290 1254 1216 1174 1131 1088 1047 1011 977 943 913 889 866 845 827 810 794 778 761 741 719 692 667 649 635 628 619 599 573 539 505 481 464 455 448 435 418 392 361 329 302 286 277 267 254 235 220 219 225 235 246 255 266 282 303 328 357 393 426 448 465 472 478 493 515 550 591 628 662 692 725 768 817 873 927 970 1007 1037 1071 1120 1180 1256 1331 1389 1442 1494 1545 1595 1643 1690 1737 1788 1836 1872 1898 1919 1932 1933 1937 1954 1980 2018 2057 2085 2105 2115 2121
1129 1129 1130 1133 1136 1138 1137 1135 1131 1127 1125 1126 1129 1134 1140 1147 1155 1162 1161 1156 1154 1155 1163 1176 1190 1204 1217 1232 1249 1268 1290 1310 1324 1336 1350 1367 1385 1400 1411 1418 1425 1433 1443 1453 1460 1465 1464 1461 1458 1456 1452 1443 1429 1412 1398 1384 1371 1355 1333 1314 1306 1305 1310 1317 1319 1319 1323 1328 1334 1343 1358 1374 1389 1402 1411 1419 1430 1440 1444 1447 1455 1466 1483 1503 1520 1533 1539 1542 1548 1555 1562 1566 1565 1565 1570 1576 1577 1573 1561 1545 1532 1522 1515 1509 1502 1499 1505 1517 1529 1537 1533 1528 1532 1538 1545 1549 1551 1553 1554 1556 1559 1564 1575 1586 1591 1591 1585 1578 1574 1572 1569 1566 1561 1558 1558 1560 1562 1562 1558 1549 1536 1518 1493 1465 1437 1409 1384 1355 1320 1282 1247 1210 1168 1124 1075 1028 990 958 932 909 887 863 839 817 800 784 770 753 733 711 688 667 649 634 623 609 588 562 529 496 472 455 446 438 425 408 384 354 323 295 275 263 252 241 228 220 220 226 237 248 257 268 283 303 327 353 379 401 421 440 456 473 492 516 548 585 621 655 684 717 759 808 861 913 955 995 1034 1077 1126 1180 1237 1294 1348 1403 1464 1525 1580 1632 1680 1728 1780 1830 1868 1896 1919 1939 1958 1980 2004 2030 2062 2095 2122 2146 2168 2186
1156 1155 1155 1154 1153 1151 1146 1139 1135 1133 1132 1134 1140 1147 1156 1164 1173 1179 1176 1170 1167 1167 1175 1187 1201 1213 1225 1238 1256 1279 1308 1334 1349 1358 1363 1370 1382 1396 1410 1421 1430 1436 1443 1449 1455 1458 1457 1453 1450 1448 1446 1441 1429 1414 1399 1384 1370 1355 1335 1318 1311 1311 1322 1333 1337 1337 1341 1346 1350 1356 1364 1374 1387 1398 1403 1408 1418 1429 1437 1443 1452 1464 1486 1510 1525 1533 1530 1525 1529 1537 1548 1556 1559 1560 1566 1572 1573 1569 1556 1540 1528 1516 1501 1489 1481 1480 1492 1511 1524 1533 1530 1525 1528 1535 1542 1547 1549 1550 1550 1551 1553 1558 1569 1580 1582 1581 1575 1570 1567 1564 1561 1558 1555 1554 1556 1559 1561 1559 1547 1532 1518 1502 1481 1457 1430 1403 1376 1347 1310 1272 1237 1202 1161 1114 1060 1008 969 939 921 905 885 860 833 809 791 777 763 747 727 706 686 669 651 634 618 600 578 552 520 488 465 448 439 430 417 400 378 350 319 290 267 251 239 230 224 222 223 228 239 250 260 271 285 303 326 347 362 374 390 412 438 466 491 517 548 582 617 650 678 709 751 799 850 899 941 983 1030 1078 1125 1170 1207 1244 1294 1352 1421 1493 1555 1612 1662 1712 1765 1816 1856 1886 1912 1939 1977 2018 2050 2076 2102 2129 2155 2183 2216 2246
1175 1174 1172 1167 1162 1155 1146 1138 1134 1133 1134 1139 1148 1159 1169 1179 1187 1193 1190 1183 1180 1180 1187 1199 1211 1223 1234 1249 1269 1294 1326 1355 1370 1378 1379 1381 1389 1399 1411 1422 1430 1436 1441 1446 1450 1451 1449 1444 1441 1439 1439 1436 1427 1416 1402 1389 1376 1361 1343 1327 1320 1321 1333 1346 1350 1350 1353 1356 1359 1362 1366 1374 1385 1396 1399 1403 1414 1425 1434 1442 1450 1463 1485 1507 1518 1522 1514 1505 1507 1515 1527 1539 1544 1548 1555 1562 1563 1559 1546 1530 1518 1505 1490 1476 1469 1470 1485 1507 1522 1532 1530 1525 1528 1535 1542 1547 1550 1550 1549 1549 1551 1556 1566 1574 1574 1570 1563 1557 1554 1552 1549 1547 1546 1546 1549 1553 1555 1551 1538 1521 1507 1491 1473 1450 1423 1395 1368 1338 1300 1260 1225 1190 1149 1103 1048 995 957 929 912 899 879 855 827 802 786 773 760 744 724 703 684 667 649 631 614 594 572 546 514 483 461 444 435 426 413 396 374 346 315 286 263 246 234 224 220 219 219 223 233 244 254 264 277 294 314 332 342 350 366 387 417 450 480 510 542 576 610 643 669 699 740 787 837 886 928 971 1018 1063 1105 1143 1170 1201 1248 1307 1381 1459 1528 1591 1647 1699 1754 1807 1849 1882 1912 1943 1989 2037 2074 2104 2131 2157 2183 2212 2249 2283
1185 1184 1181 1174 1164 1153 1140 1131 1129 1130 1134 1143 1155 1169 1183 1195 1204 1209 1206 1198 1195 1194 1200 1210 1221 1233 1245 1262 1284 1311 1343 1371 1385 1394 1395 1395 1399 1405 1413 1421 1429 1435 1440 1443 1446 1446 1443 1438 1435 1433 1433 1432 1427 1419 1408 1396 1385 1371 1354 1339 1333 1334 1346 1358 1361 1362 1363 1363 1363 1364 1367 1374 1384 1393 1397 1401 1412 1424 1433 1441 1450 1462 1482 1500 1507 1506 1495 1484 1485 1492 1506 1519 1527 1533 1541 1548 1549 1545 1533 1518 1506 1494 1479 1467 1463 1465 1482 1505 1522 1533 1534 1531 1535 1541 1548 1554 1556 1556 1555 1554 1556 1559 1566 1570 1566 1559 1551 1545 1542 1540 1538 1537 1538 1540 1543 1546 1546 1541 1528 1512 1498 1483 1466 1444 1418 1389 1361 1328 1289 1248 1212 1176 1135 1091 1038 988 952 924 907 892 872 848 822 800 785 773 760 744 724 702 683 664 646 627 609 590 568 543 511 481 459 442 432 423 409 393 370 342 311 282 259 243 232 222 216 213 212 214 224 236 246 256 268 282 299 315 325 333 348 369 397 430 463 497 533 568 602 633 658 687 728 773 821 868 910 953 998 1039 1075 1106 1129 1159 1207 1267 1342 1423 1497 1567 1628 1684 1740 1795 1842 1881 1915 1950 1997 2047 2087 2122 2153 2183 2211 2240 2272 2302
1177 1177 1177 1172 1160 1146 1130 1119 1118 1122 1130 1142 1158 1176 1196 1214 1224 1229 1224 1216 1212 1210 1212 1218 1228 1239 1255 1276 1301 1328 1356 1378 1391 1400 1406 1410 1413 1415 1417 1420 1426 1432 1439 1445 1447 1447 1445 1442 1440 1437 1436 1434 1431 1426 1417 1407 1396 1384 1369 1356 1351 1352 1360 1369 1371 1370 1366 1361 1358 1358 1363 1371 1381 1389 1394 1399 1410 1423 1432 1440 1448 1460 1478 1492 1496 1492 1477 1465 1466 1473 1488 1505 1514 1521 1527 1531 1530 1527 1519 1507 1497 1486 1472 1462 1459 1463 1480 1503 1521 1536 1544 1548 1554 1560 1567 1572 1574 1574 1571 1569 1570 1571 1569 1564 1556 1548 1541 1537 1534 1532 1532 1533 1535 1537 1538 1538 1536 1531 1519 1504 1491 1477 1463 1445 1419 1390 1356 1318 1277 1234 1195 1156 1116 1074 1031 990 956 928 906 885 863 841 821 806 793 781 767 749 728 706 683 662 642 624 607 589 567 543 511 480 458 441 430 419 404 387 364 334 304 275 255 241 229 218 208 201 198 201 214 230 241 250 260 271 285 301 315 328 344 362 381 406 438 475 517 557 590 620 645 674 713 756 798 838 879 922 967 1006 1036 1064 1089 1123 1172 1231 1305 1386 1464 1538 1603 1661 1719 1778 1837 1889 1929 1967 2009 2054 2096 2136 2176 2214 2246 2271 2285 2296
1163 1165 1168 1166 1155 1139 1122 1110 1112 1118 1130 1146 1164 1185 1212 1235 1246 1251 1245 1236 1230 1227 1225 1228 1235 1246 1265 1291 1317 1342 1364 1380 1391 1402 1414 1423 1426 1425 1422 1421 1425 1431 1441 1449 1451 1450 1450 1450 1447 1444 1441 1438 1437 1433 1425 1416 1406 1396 1383 1372 1369 1369 1374 1379 1380 1378 1370 1360 1354 1353 1360 1371 1380 1387 1392 1398 1409 1421 1430 1438 1446 1457 1473 1486 1487 1480 1465 1452 1451 1458 1475 1494 1504 1510 1513 1513 1512 1510 1505 1497 1489 1479 1466 1458 1458 1464 1482 1504 1524 1542 1558 1569 1576 1582 1589 1594 1595 1594 1590 1587 1587 1585 1576 1563 1551 1542 1537 1535 1534 1532 1533 1535 1537 1538 1536 1533 1528 1522 1511 1498 1485 1471 1460 1445 1420 1389 1351 1308 1265 1222 1180 1139 1099 1061 1026 994 963 935 907 881 857 836 823 813 802 790 774 754 732 709 684 660 639 621 605 589 568 544 512 481 459 443 429 417 401 384 359 329 298 270 251 239 228 217 203 191 187 190 207 228 240 249 256 264 278 293 312 331 348 363 372 387 417 455 501 545 577 604 629 658 696 736 771 806 845 888 932 971 1000 1026 1055 1094 1144 1203 1274 1354 1433 1509 1576 1636 1695 1757 1828 1892 1939 1978 2016 2056 2101 2147 2196 2242 2278 2301 2297 2289
1157 1159 1163 1163 1153 1139 1123 1114 1118 1127 1141 1160 1180 1203 1232 1256 1268 1273 1267 1256 1250 1246 1242 1243 1249 1258 1277 1302 1328 1352 1372 1387 1397 1408 1421 1431 1434 1432 1427 1424 1428 1434 1444 1452 1453 1453 1453 1453 1450 1446 1442 1440 1438 1436 1429 1421 1413 1405 1393 1384 1382 1383 1387 1391 1392 1390 1380 1368 1361 1359 1366 1376 1383 1388 1392 1397 1407 1418 1427 1434 1443 1454 1469 1481 1481 1474 1457 1443 1441 1447 1464 1482 1492 1498 1500 1498 1497 1495 1491 1485 1478 1471 1460 1455 1458 1467 1487 1511 1533 1553 1571 1584 1592 1598 1604 1609 1610 1608 1603 1599 1598 1595 1584 1568 1556 1546 1542 1541 1539 1537 1538 1540 1541 1541 1537 1532 1526 1517 1505 1492 1477 1463 1452 1438 1413 1382 1342 1298 1256 1213 1171 1131 1091 1055 1023 994 965 936 907 880 856 836 823 815 805 792 775 755 733 709 684 659 638 621 606 590 570 546 515 484 463 446 433 419 404 386 361 330 299 271 253 242 231 219 204 192 187 191 209 231 243 252 259 267 279 295 314 334 350 364 370 382 410 446 491 534 564 589 611 638 674 713 746 778 817 860 905 943 972 999 1029 1069 1120 1178 1248 1327 1406 1483 1550 1611 1671 1734 1808 1877 1927 1970 2009 2052 2101 2152 2207 2259 2300 2324 2318 2307
1156 1157 1162 1162 1153 1141 1128 1122 1130 1142 1158 1179 1201 1225 1255 1279 1291 1295 1289 1278 1271 1266 1263 1263 1268 1276 1292 1315 1339 1362 1381 1395 1405 1415 1428 1438 1441 1439 1433 1429 1432 1438 1446 1454 1454 1453 1453 1453 1450 1445 1441 1438 1437 1435 1430 1424 1417 1411 1401 1393 1392 1394 1399 1404 1405 1403 1392 1379 1371 1368 1372 1380 1385 1389 1392 1396 1405 1415 1424 1431 1439 1450 1465 1475 1475 1467 1451 1437 1435 1439 1454 1471 1480 1485 1485 1483 1482 1480 1476 1471 1466 1461 1455 1454 1461 1473 1495 1520 1544 1565 1583 1596 1604 1609 1615 1618 1619 1617 1613 1609 1607 1604 1592 1577 1564 1554 1548 1546 1544 1543 1545 1547 1548 1547 1542 1534 1526 1516 1502 1487 1471 1455 1444 1429 1404 1372 1332 1289 1247 1205 1163 1124 1086 1050 1019 991 962 935 907 882 858 837 823 813 802 790 773 753 731 708 683 659 640 622 606 590 570 548 519 492 471 454 439 425 409 391 366 336 305 278 260 249 239 227 212 200 195 199 215 234 246 255 263 272 285 300 319 337 353 366 373 385 410 444 486 524 551 574 595 621 655 692 723 755 793 836 881 920 950 977 1008 1048 1099 1157 1227 1306 1384 1460 1529 1591 1651 1714 1784 1849 1901 1947 1994 2044 2099 2155 2214 2269 2313 2342 2340 2334
1159 1160 1163 1162 1155 1147 1139 1138 1149 1163 1181 1202 1224 1249 1280 1305 1317 1321 1313 1301 1294 1290 1290 1295 1299 1305 1315 1331 1351 1371 1389 1401 1411 1421 1434 1444 1447 1444 1438 1433 1435 1439 1446 1451 1451 1449 1450 1451 1447 1442 1435 1429 1428 1428 1425 1421 1417 1411 1404 1397 1397 1400 1409 1418 1420 1417 1403 1387 1377 1372 1373 1377 1379 1382 1388 1395 1404 1413 1421 1428 1436 1446 1458 1465 1464 1457 1445 1435 1433 1435 1447 1460 1467 1470 1469 1464 1462 1460 1456 1453 1451 1451 1454 1461 1473 1487 1507 1531 1553 1574 1591 1603 1610 1615 1617 1617 1617 1617 1616 1616 1615 1612 1603 1590 1577 1566 1555 1548 1545 1545 1551 1558 1560 1558 1552 1542 1532 1520 1505 1487 1469 1451 1437 1420 1395 1363 1321 1276 1235 1194 1153 1113 1076 1041 1009 981 953 928 907 887 865 842 822 805 791 779 766 749 728 706 683 662 643 625 605 585 565 546 527 507 488 469 449 430 413 395 371 343 314 289 274 266 256 244 229 217 212 213 220 231 240 251 263 278 293 308 326 344 358 372 382 397 421 450 484 515 538 560 583 611 642 675 703 732 770 813 859 901 934 964 998 1041 1092 1150 1218 1295 1372 1447 1518 1582 1644 1703 1755 1804 1855 1910 1973 2039 2101 2161 2221 2277 2323 2356 2362 2364
1163 1164 1165 1165 1160 1156 1154 1159 1173 1189 1207 1227 1249 1274 1305 1330 1342 1346 1338 1324 1317 1314 1319 1327 1332 1335 1339 1347 1361 1378 1392 1403 1412 1422 1436 1447 1449 1447 1440 1433 1434 1438 1442 1445 1444 1443 1445 1446 1443 1436 1426 1418 1417 1418 1418 1416 1413 1409 1403 1398 1398 1402 1415 1426 1429 1425 1409 1390 1380 1374 1372 1371 1372 1375 1382 1393 1402 1411 1418 1424 1432 1442 1451 1456 1454 1448 1440 1434 1432 1433 1441 1451 1455 1456 1451 1444 1441 1439 1436 1435 1438 1445 1458 1474 1490 1506 1524 1543 1562 1580 1595 1605 1611 1615 1614 1612 1612 1613 1618 1621 1621 1618 1611 1600 1589 1576 1560 1548 1544 1545 1556 1568 1572 1571 1564 1553 1541 1527 1510 1489 1467 1445 1428 1409 1383 1351 1308 1262 1222 1184 1143 1103 1066 1032 1000 971 945 922 908 894 874 849 822 797 781 768 757 744 724 703 682 664 647 629 606 582 562 546 535 523 504 482 456 431 413 396 374 349 324 302 292 286 277 265 250 237 232 230 229 231 238 249 267 287 306 323 342 358 372 385 399 415 437 461 487 510 529 550 575 602 629 655 678 704 740 783 832 879 916 952 991 1037 1089 1146 1213 1286 1360 1435 1506 1573 1635 1690 1726 1761 1813 1877 1958 2040 2110 2173 2234 2289 2335 2370 2384 2394
1166 1167 1169 1171 1169 1169 1171 1179 1195 1213 1232 1252 1273 1297 1327 1352 1364 1368 1359 1346 1339 1336 1342 1351 1356 1357 1357 1360 1369 1381 1391 1401 1409 1419 1433 1444 1448 1446 1439 1432 1433 1436 1439 1441 1440 1438 1440 1441 1438 1430 1420 1411 1410 1412 1413 1412 1410 1408 1402 1397 1397 1401 1414 1427 1430 1426 1409 1390 1380 1375 1372 1370 1370 1371 1379 1390 1399 1408 1414 1421 1429 1438 1447 1451 1449 1444 1437 1431 1429 1429 1435 1442 1444 1442 1435 1427 1423 1421 1421 1424 1432 1445 1465 1486 1505 1522 1539 1555 1571 1584 1595 1604 1609 1613 1611 1609 1610 1613 1619 1624 1624 1621 1614 1604 1592 1579 1562 1548 1544 1546 1559 1573 1579 1578 1571 1560 1547 1532 1512 1487 1461 1435 1414 1394 1367 1335 1293 1248 1211 1175 1136 1097 1062 1028 997 969 944 924 913 901 881 856 826 799 780 765 754 741 722 701 682 665 649 632 610 586 567 552 543 532 511 485 456 429 411 394 375 353 332 315 309 305 297 285 270 256 250 246 242 242 248 260 280 303 325 345 365 382 395 407 420 434 451 470 491 510 527 545 567 590 610 629 646 668 704 747 798 848 892 935 979 1027 1079 1136 1201 1272 1343 1414 1484 1550 1612 1666 1701 1737 1795 1869 1959 2049 2123 2189 2252 2307 2353 2387 2403 2416
1172 1173 1177 1180 1182 1185 1190 1200 1218 1237 1256 1275 1296 1318 1345 1368 1379 1383 1376 1364 1358 1355 1361 1370 1373 1374 1371 1371 1375 1382 1389 1396 1404 1414 1428 1441 1445 1445 1439 1433 1433 1436 1438 1440 1438 1436 1437 1437 1432 1425 1414 1406 1406 1408 1409 1409 1407 1405 1401 1398 1398 1401 1412 1422 1425 1421 1405 1388 1381 1376 1373 1372 1370 1371 1379 1389 1398 1407 1413 1419 1427 1436 1444 1448 1445 1440 1435 1430 1428 1427 1430 1433 1432 1428 1421 1413 1410 1408 1409 1416 1429 1448 1473 1497 1517 1535 1553 1567 1579 1587 1594 1600 1605 1608 1607 1606 1609 1613 1620 1625 1624 1620 1614 1604 1592 1578 1561 1548 1544 1545 1557 1571 1578 1579 1573 1563 1549 1534 1512 1486 1456 1426 1400 1376 1349 1317 1277 1237 1203 1169 1132 1094 1059 1026 996 970 947 928 919 908 888 864 834 805 785 768 754 738 718 698 680 665 652 636 617 596 578 563 552 537 513 485 456 430 413 397 378 360 343 330 326 323 315 304 288 274 267 263 259 258 265 276 297 322 346 370 391 408 421 432 443 454 468 482 497 512 526 542 561 579 592 605 616 636 670 713 764 819 868 916 965 1015 1067 1123 1186 1254 1321 1389 1458 1524 1587 1642 1680 1722 1788 1869 1964 2058 2134 2202 2265 2320 2365 2399 2417 2433
1184 1185 1190 1196 1200 1205 1210 1221 1239 1259 1278 1298 1318 1337 1357 1372 1382 1387 1384 1377 1371 1369 1374 1382 1385 1385 1382 1379 1380 1384 1387 1392 1399 1409 1426 1441 1446 1447 1444 1441 1442 1443 1444 1443 1440 1437 1434 1431 1425 1418 1410 1404 1404 1406 1406 1404 1403 1402 1404 1405 1406 1407 1410 1413 1414 1411 1401 1389 1383 1380 1379 1378 1376 1377 1385 1396 1405 1413 1417 1420 1428 1436 1441 1442 1439 1436 1435 1435 1434 1431 1426 1420 1416 1412 1409 1406 1404 1402 1402 1410 1427 1450 1477 1503 1524 1544 1564 1580 1589 1593 1595 1597 1601 1604 1604 1604 1607 1612 1618 1621 1620 1617 1612 1604 1593 1579 1561 1548 1543 1543 1549 1557 1563 1566 1564 1557 1544 1529 1511 1488 1456 1421 1386 1354 1325 1295 1263 1230 1200 1168 1131 1092 1057 1024 995 969 948 931 924 916 897 873 845 819 797 777 754 731 709 690 676 665 653 641 628 614 599 583 563 538 510 483 460 442 427 411 391 372 359 348 342 336 327 316 302 289 281 277 276 278 285 296 316 342 368 393 416 433 444 455 466 478 488 497 503 509 520 536 556 573 582 589 596 613 647 688 738 792 845 897 947 995 1047 1101 1162 1225 1289 1356 1429 1501 1565 1621 1665 1714 1786 1871 1966 2058 2135 2204 2264 2316 2360 2395 2423 2449
1197 1199 1205 1212 1217 1223 1228 1238 1256 1276 1296 1316 1336 1352 1365 1373 1381 1387 1389 1386 1382 1380 1384 1391 1393 1393 1390 1386 1386 1388 1389 1392 1399 1409 1428 1445 1452 1453 1453 1452 1453 1454 1452 1449 1446 1441 1435 1428 1421 1414 1408 1405 1405 1406 1404 1401 1399 1400 1406 1413 1415 1414 1409 1405 1404 1402 1397 1390 1386 1383 1383 1384 1382 1383 1391 1403 1413 1420 1421 1423 1430 1437 1439 1437 1434 1431 1436 1441 1441 1436 1423 1410 1403 1399 1401 1404 1403 1401 1400 1406 1425 1450 1478 1504 1525 1547 1570 1589 1597 1598 1596 1594 1597 1600 1600 1601 1605 1610 1615 1617 1615 1612 1609 1603 1592 1578 1560 1546 1541 1539 1539 1541 1546 1550 1552 1547 1535 1521 1509 1489 1457 1419 1376 1336 1305 1278 1252 1227 1199 1168 1130 1090 1055 1023 993 968 947 931 927 921 902 879 854 829 808 785 755 723 701 683 673 665 655 646 640 633 620 604 575 542 511 485 470 461 449 433 411 390 378 368 359 349 339 329 316 305 297 293 294 300 307 317 336 362 388 413 436 453 463 473 485 497 506 511 509 507 516 531 552 570 577 582 587 603 636 676 724 776 830 883 932 978 1028 1082 1139 1200 1262 1328 1406 1484 1549 1606 1654 1709 1784 1870 1963 2052 2128 2196 2255 2303 2346 2384 2422 2459
1209 1210 1216 1224 1230 1236 1240 1250 1268 1288 1309 1328 1348 1364 1375 1382 1389 1395 1398 1396 1393 1390 1394 1401 1403 1403 1400 1396 1395 1396 1397 1399 1406 1417 1436 1453 1460 1461 1461 1461 1462 1462 1459 1455 1451 1446 1439 1431 1423 1415 1409 1406 1407 1407 1405 1401 1398 1399 1407 1415 1417 1415 1409 1402 1401 1400 1395 1390 1386 1384 1384 1385 1383 1384 1393 1405 1414 1421 1422 1423 1430 1437 1438 1436 1432 1430 1436 1443 1443 1437 1423 1407 1399 1396 1399 1403 1403 1400 1399 1405 1424 1449 1477 1503 1524 1546 1570 1589 1597 1598 1594 1591 1594 1597 1597 1598 1602 1607 1611 1612 1610 1607 1604 1599 1588 1574 1556 1542 1537 1535 1532 1533 1538 1543 1545 1541 1529 1516 1504 1486 1455 1416 1371 1329 1298 1270 1247 1224 1196 1165 1127 1087 1052 1019 990 965 944 929 925 919 901 878 853 830 809 786 754 721 698 682 673 667 658 651 648 643 632 616 587 552 522 497 485 479 468 453 431 410 398 389 379 368 358 348 336 325 317 314 315 321 328 337 356 381 406 430 452 467 476 485 497 508 516 519 514 510 517 532 553 571 577 581 586 602 634 674 720 772 826 878 926 972 1021 1074 1131 1190 1251 1317 1396 1475 1540 1597 1646 1701 1777 1863 1955 2042 2118 2187 2245 2293 2336 2376 2416 2457
1219 1220 1225 1231 1237 1243 1248 1258 1276 1297 1318 1339 1359 1375 1386 1394 1401 1407 1409 1407 1404 1401 1405 1411 1414 1413 1411 1408 1408 1409 1410 1413 1419 1429 1445 1459 1465 1466 1467 1467 1468 1467 1464 1459 1454 1449 1443 1435 1427 1419 1412 1408 1407 1408 1406 1403 1401 1401 1406 1412 1413 1411 1405 1400 1398 1398 1395 1391 1387 1384 1384 1383 1381 1382 1390 1402 1411 1419 1420 1422 1429 1436 1439 1437 1433 1432 1437 1444 1444 1438 1425 1410 1403 1399 1401 1403 1403 1400 1399 1405 1423 1448 1475 1501 1522 1543 1567 1586 1593 1594 1590 1587 1589 1592 1593 1593 1597 1601 1604 1605 1603 1600 1599 1594 1584 1571 1553 1538 1533 1531 1530 1531 1536 1540 1543 1539 1527 1513 1500 1481 1450 1412 1368 1328 1297 1270 1246 1222 1194 1162 1124 1084 1048 1016 986 961 940 925 919 912 894 871 849 827 807 785 754 724 702 686 676 669 661 654 652 650 641 626 599 567 539 515 502 495 484 470 450 431 420 411 403 394 384 374 361 348 340 337 339 345 352 360 377 400 424 446 465 478 485 493 504 514 521 524 518 514 520 534 554 571 577 582 586 602 634 674 721 774 827 880 926 971 1020 1073 1130 1190 1250 1315 1391 1467 1531 1588 1636 1691 1766 1851 1941 2028 2103 2172 2230 2280 2324 2365 2408 2451
1226 1226 1227 1228 1233 1241 1249 1261 1279 1301 1325 1349 1369 1386 1399 1409 1417 1423 1422 1418 1414 1412 1416 1422 1424 1425 1425 1427 1428 1431 1434 1439 1446 1453 1457 1460 1461 1463 1466 1469 1470 1469 1462 1455 1451 1447 1446 1443 1436 1426 1416 1409 1407 1408 1411 1413 1412 1410 1407 1403 1402 1400 1396 1392 1391 1392 1395 1397 1394 1390 1384 1378 1375 1376 1382 1393 1402 1411 1415 1418 1426 1434 1440 1442 1440 1439 1443 1449 1449 1444 1435 1425 1419 1415 1411 1408 1405 1403 1402 1408 1424 1446 1471 1495 1515 1535 1558 1575 1583 1585 1581 1578 1580 1583 1585 1586 1589 1591 1591 1589 1586 1584 1588 1590 1583 1571 1553 1538 1533 1532 1534 1537 1541 1543 1544 1539 1527 1512 1496 1473 1443 1408 1372 1338 1309 1281 1253 1226 1196 1163 1122 1081 1045 1013 983 958 937 919 907 894 874 853 837 823 806 786 761 736 716 698 682 667 656 650 651 652 645 633 612 587 563 540 521 506 494 482 466 452 442 436 432 428 420 409 391 374 365 362 367 377 383 391 404 422 442 460 471 476 481 488 499 511 518 521 518 515 521 534 553 569 575 580 586 601 633 674 727 785 840 891 934 977 1025 1078 1140 1204 1265 1327 1394 1460 1522 1578 1623 1676 1748 1831 1917 2001 2075 2143 2203 2255 2302 2348 2399 2449
1231 1230 1225 1223 1228 1237 1248 1262 1280 1301 1328 1354 1375 1391 1407 1419 1427 1433 1430 1424 1420 1419 1423 1429 1431 1433 1438 1444 1449 1454 1461 1468 1476 1479 1472 1463 1460 1460 1465 1471 1473 1471 1462 1454 1450 1449 1453 1455 1449 1439 1426 1415 1411 1412 1419 1426 1426 1421 1409 1397 1392 1390 1388 1386 1385 1388 1396 1403 1401 1394 1382 1372 1367 1367 1373 1382 1392 1402 1408 1414 1423 1432 1441 1448 1449 1449 1453 1458 1458 1455 1450 1445 1442 1438 1429 1421 1417 1414 1413 1417 1428 1445 1466 1487 1505 1524 1544 1561 1571 1575 1572 1569 1571 1574 1577 1578 1578 1577 1572 1567 1564 1564 1574 1583 1581 1573 1557 1542 1538 1537 1541 1545 1546 1544 1542 1535 1523 1507 1488 1464 1436 1408 1380 1354 1326 1297 1266 1233 1200 1164 1121 1077 1041 1009 979 953 931 911 892 873 851 832 824 817 804 788 769 749 731 712 688 664 649 641 644 648 643 633 619 602 583 563 539 518 505 494 484 474 466 461 463 464 458 445 423 402 391 389 397 409 416 422 431 443 458 469 471 468 470 476 489 502 511 517 516 515 521 534 552 568 576 583 590 606 638 680 738 802 857 906 947 987 1034 1088 1153 1221 1282 1341 1398 1455 1514 1569 1612 1660 1729 1808 1890 1969 2042 2109 2171 2227 2279 2332 2392 2450
1233 1231 1226 1224 1230 1240 1252 1266 1283 1302 1328 1354 1373 1389 1405 1417 1426 1431 1428 1423 1420 1420 1425 1432 1435 1438 1445 1455 1463 1471 1481 1490 1497 1500 1489 1475 1469 1468 1472 1478 1480 1478 1470 1462 1460 1462 1468 1472 1466 1455 1440 1428 1421 1420 1428 1435 1435 1429 1415 1399 1393 1390 1387 1385 1385 1388 1397 1404 1400 1391 1377 1365 1361 1361 1366 1376 1387 1398 1406 1413 1421 1431 1443 1451 1455 1457 1463 1469 1469 1468 1466 1464 1463 1461 1452 1443 1438 1436 1432 1431 1436 1446 1461 1478 1494 1511 1531 1549 1561 1568 1568 1566 1568 1571 1572 1571 1567 1562 1555 1548 1544 1545 1559 1573 1577 1573 1561 1548 1544 1543 1546 1547 1543 1537 1531 1522 1510 1494 1476 1455 1433 1410 1389 1366 1339 1310 1277 1241 1204 1164 1118 1073 1037 1005 974 947 923 902 880 859 837 819 813 810 800 787 772 754 737 718 691 663 644 633 635 639 634 627 617 605 593 577 555 535 523 513 504 497 490 486 490 492 487 474 451 428 417 415 424 436 443 447 453 460 469 474 469 462 462 467 480 496 507 515 516 517 524 537 556 574 585 595 604 621 652 694 753 817 871 920 959 998 1044 1098 1163 1230 1289 1344 1398 1452 1509 1563 1604 1650 1715 1790 1867 1943 2014 2080 2143 2204 2262 2322 2389 2452
1237 1236 1232 1231 1238 1249 1261 1275 1289 1306 1328 1351 1368 1383 1397 1409 1417 1423 1422 1419 1418 1420 1425 1432 1436 1439 1448 1459 1470 1482 1495 1505 1513 1516 1506 1491 1484 1481 1483 1487 1489 1487 1480 1473 1474 1477 1484 1488 1481 1470 1456 1443 1435 1432 1435 1440 1438 1433 1420 1406 1399 1394 1391 1389 1389 1391 1399 1404 1398 1388 1372 1360 1355 1356 1362 1372 1385 1397 1406 1413 1421 1431 1443 1454 1459 1464 1471 1477 1479 1479 1479 1481 1483 1483 1476 1468 1464 1461 1457 1452 1450 1452 1460 1471 1484 1498 1517 1536 1551 1561 1563 1562 1564 1567 1567 1563 1556 1548 1537 1530 1526 1529 1544 1561 1569 1571 1563 1552 1548 1547 1547 1545 1536 1525 1515 1506 1493 1478 1462 1445 1429 1412 1394 1373 1347 1317 1283 1244 1204 1162 1115 1071 1035 1003 972 943 918 895 872 850 828 810 803 800 792 782 769 754 737 719 693 665 644 629 626 628 624 618 611 604 597 587 569 552 541 533 525 518 512 509 513 515 510 497 475 452 441 439 446 457 463 467 472 476 479 479 470 460 458 462 474 489 502 513 518 522 530 544 566 586 601 613 624 643 674 715 772 833 885 932 973 1012 1058 1110 1170 1232 1288 1342 1394 1447 1504 1557 1599 1644 1706 1776 1852 1926 1995 2060 2122 2185 2249 2314 2386 2451
1247 1246 1245 1247 1254 1266 1280 1294 1306 1319 1333 1349 1363 1376 1387 1397 1405 1412 1418 1421 1423 1425 1427 1430 1434 1438 1445 1455 1469 1484 1500 1514 1523 1527 1521 1512 1504 1499 1498 1499 1501 1499 1491 1484 1485 1490 1495 1496 1488 1478 1468 1459 1451 1444 1438 1433 1429 1426 1421 1415 1409 1404 1402 1401 1401 1402 1406 1406 1399 1386 1370 1357 1353 1354 1360 1371 1384 1397 1406 1412 1421 1431 1443 1454 1462 1467 1472 1476 1478 1480 1486 1493 1498 1500 1498 1493 1489 1487 1485 1482 1475 1470 1466 1467 1475 1487 1504 1522 1538 1549 1554 1555 1557 1560 1561 1557 1547 1536 1524 1516 1514 1516 1529 1547 1558 1564 1559 1551 1547 1545 1542 1535 1522 1508 1498 1490 1478 1463 1447 1433 1421 1408 1391 1368 1341 1312 1277 1238 1195 1152 1113 1077 1044 1011 978 947 921 896 872 849 827 806 791 781 773 765 756 744 729 713 696 675 653 634 623 618 614 609 605 602 599 594 581 566 557 550 543 537 531 528 531 533 527 515 494 473 462 459 463 471 475 480 488 494 494 489 477 466 463 464 470 481 495 509 520 530 540 556 581 606 623 639 653 672 704 743 793 846 896 943 988 1033 1079 1128 1176 1225 1276 1328 1381 1435 1491 1545 1593 1643 1703 1772 1849 1926 1994 2057 2115 2175 2241 2310 2382 2445
1263 1263 1264 1268 1275 1286 1300 1314 1324 1331 1339 1347 1358 1369 1377 1384 1392 1401 1412 1422 1427 1428 1427 1426 1430 1434 1439 1449 1463 1480 1500 1517 1526 1532 1532 1527 1521 1514 1510 1509 1511 1509 1499 1492 1494 1498 1501 1499 1490 1481 1476 1472 1464 1454 1439 1424 1418 1416 1420 1422 1418 1413 1412 1412 1412 1413 1413 1409 1400 1387 1370 1357 1353 1354 1360 1372 1385 1399 1407 1413 1421 1431 1443 1454 1463 1470 1472 1473 1475 1480 1491 1503 1510 1515 1516 1513 1511 1510 1512 1510 1502 1490 1476 1469 1472 1480 1493 1509 1524 1536 1542 1544 1546 1549 1551 1548 1538 1525 1513 1505 1504 1506 1517 1533 1546 1555 1552 1545 1541 1539 1534 1523 1507 1492 1484 1477 1466 1452 1436 1422 1413 1401 1383 1358 1331 1301 1267 1228 1184 1142 1111 1084 1053 1019 985 952 925 900 875 851 829 806 782 764 754 749 743 733 719 706 697 685 665 643 625 614 609 605 603 602 602 600 590 578 571 565 558 553 548 545 547 547 541 530 511 491 481 476 477 481 484 490 502 512 511 504 490 477 473 473 473 479 492 509 526 540 554 572 600 628 648 665 681 702 733 770 813 860 906 954 1004 1054 1101 1146 1183 1220 1266 1316 1370 1426 1481 1536 1589 1645 1705 1772 1852 1932 1999 2058 2111 2166 2232 2302 2372 2434
1285 1285 1285 1289 1294 1303 1315 1326 1332 1336 1339 1343 1351 1359 1366 1372 1380 1389 1402 1414 1420 1422 1421 1420 1425 1430 1436 1445 1460 1479 1500 1518 1527 1532 1534 1531 1525 1518 1514 1513 1515 1513 1504 1496 1499 1503 1505 1502 1493 1483 1480 1476 1469 1458 1439 1423 1415 1414 1419 1424 1420 1415 1414 1415 1415 1415 1414 1409 1400 1387 1371 1358 1354 1355 1362 1373 1387 1401 1409 1415 1423 1433 1445 1457 1467 1474 1477 1478 1482 1489 1502 1516 1525 1531 1533 1532 1529 1528 1531 1530 1519 1504 1486 1473 1472 1476 1486 1499 1512 1522 1527 1529 1532 1535 1537 1534 1524 1512 1501 1494 1493 1496 1508 1524 1538 1547 1545 1538 1535 1532 1526 1515 1499 1484 1476 1471 1460 1445 1430 1417 1407 1396 1377 1352 1325 1296 1262 1222 1179 1137 1108 1083 1053 1019 985 952 924 899 874 850 828 805 779 758 748 743 738 729 715 703 697 688 668 646 627 615 610 608 607 607 609 608 600 589 583 578 572 568 564 561 563 563 557 547 528 509 499 494 493 496 498 503 516 527 525 517 502 489 484 483 481 485 499 517 535 553 568 588 618 648 670 688 704 725 756 793 833 877 923 970 1020 1070 1117 1160 1193 1226 1271 1320 1373 1428 1483 1538 1592 1648 1707 1772 1850 1929 1994 2051 2100 2153 2217 2286 2355 2415
1306 1306 1308 1310 1314 1320 1327 1333 1334 1334 1334 1336 1341 1348 1353 1358 1365 1374 1387 1399 1405 1409 1410 1413 1420 1427 1434 1444 1460 1478 1499 1516 1525 1531 1533 1530 1525 1518 1513 1512 1514 1513 1506 1501 1504 1508 1509 1505 1495 1485 1481 1477 1469 1458 1440 1424 1416 1415 1420 1423 1420 1414 1412 1412 1412 1413 1413 1409 1400 1387 1371 1358 1354 1355 1363 1375 1389 1402 1411 1417 1426 1436 1448 1461 1472 1481 1485 1487 1493 1501 1516 1532 1542 1548 1551 1550 1548 1547 1548 1544 1531 1514 1493 1477 1473 1474 1480 1490 1500 1509 1513 1515 1517 1520 1522 1519 1509 1498 1487 1481 1481 1485 1498 1516 1531 1540 1539 1533 1530 1528 1521 1510 1494 1479 1470 1464 1454 1440 1425 1413 1404 1393 1375 1352 1324 1295 1261 1220 1176 1135 1104 1078 1047 1014 980 947 920 895 870 846 825 802 777 757 747 742 737 728 714 701 695 685 666 645 627 616 612 611 610 612 614 614 608 599 593 590 587 584 582 579 579 578 571 561 544 527 517 512 512 515 517 521 530 537 534 526 513 502 497 495 494 498 512 531 551 569 586 607 638 669 691 709 726 746 777 812 851 894 938 985 1035 1085 1131 1173 1206 1239 1282 1331 1384 1439 1493 1546 1600 1655 1712 1775 1849 1922 1984 2039 2087 2138 2201 2267 2334 2393
1329 1330 1334 1338 1340 1340 1337 1332 1328 1326 1324 1325 1329 1333 1333 1335 1341 1350 1361 1371 1378 1384 1395 1407 1417 1425 1434 1446 1462 1479 1497 1510 1518 1524 1528 1528 1524 1517 1509 1504 1505 1507 1508 1510 1514 1517 1514 1505 1494 1484 1477 1471 1463 1452 1438 1426 1419 1416 1419 1422 1418 1413 1408 1404 1403 1405 1408 1409 1401 1389 1370 1355 1352 1354 1363 1376 1389 1402 1412 1420 1429 1440 1454 1469 1482 1493 1496 1498 1504 1515 1531 1548 1559 1565 1570 1571 1569 1567 1561 1551 1536 1518 1497 1480 1472 1469 1474 1482 1490 1497 1500 1501 1503 1506 1507 1504 1495 1484 1472 1465 1466 1472 1488 1509 1525 1536 1537 1533 1531 1528 1521 1508 1492 1477 1465 1455 1444 1431 1420 1411 1402 1391 1377 1357 1331 1301 1263 1220 1176 1135 1099 1068 1036 1003 970 939 912 888 863 840 818 797 774 757 747 741 735 725 711 698 688 675 657 638 623 615 612 611 611 612 614 615 610 603 600 599 603 607 607 603 596 586 578 570 558 546 537 532 535 541 543 543 541 538 533 528 525 522 520 518 517 523 537 556 577 596 615 637 664 692 713 731 746 765 795 829 865 904 946 992 1045 1097 1143 1184 1219 1255 1300 1350 1404 1461 1514 1568 1622 1677 1734 1792 1855 1917 1974 2027 2076 2128 2187 2249 2310 2364
1354 1355 1361 1366 1365 1358 1345 1330 1321 1316 1314 1314 1315 1316 1313 1311 1317 1325 1334 1342 1349 1360 1380 1401 1414 1424 1433 1445 1461 1477 1490 1500 1507 1514 1520 1522 1520 1513 1502 1494 1494 1499 1507 1516 1522 1523 1515 1502 1490 1479 1470 1462 1454 1445 1435 1426 1420 1417 1418 1420 1417 1413 1405 1399 1397 1399 1407 1411 1405 1393 1373 1357 1353 1356 1366 1379 1390 1400 1410 1419 1429 1440 1456 1475 1491 1504 1508 1509 1517 1528 1546 1564 1573 1578 1584 1587 1586 1581 1570 1555 1539 1521 1500 1482 1472 1467 1469 1475 1481 1487 1490 1491 1492 1495 1496 1492 1483 1472 1460 1452 1454 1461 1480 1504 1522 1534 1538 1536 1534 1531 1523 1510 1494 1478 1462 1449 1437 1426 1418 1411 1401 1388 1376 1359 1334 1303 1263 1218 1176 1135 1096 1060 1026 994 962 933 907 883 860 837 816 795 775 759 748 740 732 722 708 694 681 666 649 633 622 617 615 615 614 614 615 615 611 607 604 606 617 629 631 626 611 594 583 577 571 564 556 551 556 564 566 564 551 538 534 534 542 549 548 546 547 554 568 586 606 627 646 668 693 716 736 753 766 783 812 845 877 912 953 999 1054 1108 1153 1195 1232 1271 1318 1370 1427 1485 1539 1592 1647 1702 1758 1812 1864 1915 1967 2019 2068 2119 2174 2229 2283 2332
1380 1381 1386 1389 1383 1371 1351 1331 1319 1311 1307 1305 1304 1303 1297 1294 1299 1307 1316 1325 1333 1346 1369 1394 1408 1418 1428 1440 1454 1468 1479 1488 1495 1502 1509 1513 1512 1507 1496 1488 1489 1494 1503 1514 1520 1520 1510 1496 1483 1472 1463 1455 1448 1440 1432 1424 1418 1415 1417 1419 1419 1416 1409 1402 1401 1403 1412 1418 1413 1402 1383 1366 1362 1365 1374 1385 1392 1398 1405 1414 1423 1434 1452 1474 1494 1510 1516 1520 1528 1541 1559 1575 1582 1586 1590 1592 1591 1587 1575 1559 1543 1527 1506 1487 1474 1467 1467 1472 1476 1481 1483 1483 1485 1488 1488 1484 1476 1465 1452 1445 1447 1455 1476 1501 1521 1535 1540 1538 1537 1534 1525 1512 1497 1481 1465 1451 1439 1428 1420 1412 1398 1382 1369 1351 1327 1296 1256 1213 1173 1135 1097 1061 1027 995 964 936 911 887 864 842 821 800 780 763 751 740 731 720 706 692 679 665 651 638 630 627 626 626 625 623 622 621 616 612 610 613 627 641 645 641 625 605 595 589 584 578 569 563 568 576 578 575 561 548 547 553 566 577 577 575 575 581 594 610 630 651 671 694 718 739 758 774 785 801 829 861 892 926 965 1010 1064 1118 1163 1203 1241 1282 1331 1385 1444 1503 1556 1608 1662 1717 1770 1823 1870 1917 1967 2017 2063 2110 2158 2206 2253 2299
1400 1401 1405 1404 1394 1377 1353 1331 1317 1307 1302 1299 1296 1293 1287 1285 1290 1298 1306 1315 1324 1337 1361 1386 1401 1412 1422 1433 1446 1458 1467 1474 1480 1487 1496 1501 1502 1499 1490 1483 1485 1490 1500 1511 1516 1515 1505 1489 1476 1465 1457 1450 1444 1438 1431 1424 1418 1415 1416 1420 1422 1421 1417 1411 1410 1412 1421 1426 1422 1412 1394 1378 1375 1378 1385 1393 1395 1397 1400 1406 1415 1426 1446 1470 1493 1514 1525 1531 1542 1555 1571 1584 1588 1589 1591 1592 1590 1586 1574 1559 1546 1530 1511 1492 1479 1469 1467 1469 1473 1477 1480 1482 1484 1486 1486 1482 1473 1462 1450 1442 1445 1453 1475 1501 1522 1536 1541 1540 1538 1536 1529 1517 1503 1487 1471 1457 1445 1434 1425 1414 1397 1377 1359 1339 1314 1284 1246 1205 1169 1135 1101 1067 1034 1002 971 944 919 897 874 852 831 811 790 772 758 744 732 718 704 691 680 669 658 649 643 642 642 642 640 636 634 630 624 619 618 621 634 648 653 650 637 621 611 605 600 593 583 575 577 583 585 582 570 562 566 576 593 605 605 602 603 608 619 634 651 669 690 713 737 757 774 789 801 818 846 877 908 942 981 1024 1075 1126 1168 1208 1248 1292 1344 1399 1457 1513 1565 1615 1668 1722 1774 1825 1870 1914 1962 2010 2055 2098 2140 2181 2222 2263
1408 1409 1410 1406 1393 1373 1348 1325 1310 1300 1297 1295 1291 1288 1287 1288 1295 1302 1306 1311 1319 1333 1355 1377 1391 1403 1416 1428 1441 1450 1454 1456 1461 1469 1479 1488 1491 1490 1483 1478 1481 1487 1499 1512 1517 1515 1503 1485 1472 1461 1455 1450 1445 1441 1436 1432 1427 1423 1423 1425 1427 1429 1429 1427 1426 1428 1432 1434 1430 1421 1406 1393 1390 1393 1399 1403 1403 1400 1397 1398 1405 1417 1438 1464 1491 1516 1535 1550 1563 1574 1585 1591 1592 1591 1589 1588 1586 1582 1570 1555 1542 1529 1514 1499 1485 1474 1467 1466 1468 1473 1481 1488 1491 1493 1492 1486 1477 1465 1451 1442 1444 1453 1475 1502 1523 1538 1542 1539 1537 1536 1534 1528 1515 1499 1480 1464 1451 1440 1431 1420 1400 1376 1351 1324 1297 1268 1232 1196 1163 1132 1105 1077 1046 1014 985 958 935 912 889 867 846 826 808 791 775 759 739 719 703 691 684 679 671 664 660 660 660 660 657 652 647 642 635 630 629 631 638 647 651 652 648 642 635 629 623 615 604 594 588 586 586 584 578 576 584 598 616 629 629 627 629 635 645 657 666 678 697 721 743 762 777 793 810 833 862 893 928 964 1003 1043 1086 1129 1169 1209 1255 1307 1360 1414 1465 1512 1560 1610 1663 1716 1767 1815 1856 1896 1942 1990 2039 2085 2124 2158 2188 2220
1409 1409 1409 1402 1387 1366 1341 1319 1304 1294 1293 1294 1290 1288 1290 1296 1304 1310 1310 1310 1319 1332 1351 1370 1384 1397 1411 1426 1438 1446 1445 1442 1446 1455 1467 1478 1482 1482 1478 1476 1478 1485 1500 1515 1521 1518 1503 1484 1470 1460 1455 1453 1448 1445 1443 1441 1437 1432 1430 1430 1432 1436 1439 1440 1440 1440 1441 1439 1434 1426 1414 1404 1402 1404 1409 1412 1409 1404 1396 1392 1398 1411 1432 1460 1488 1516 1543 1565 1580 1590 1595 1596 1594 1591 1588 1585 1583 1578 1565 1550 1538 1526 1515 1504 1491 1478 1468 1463 1464 1470 1483 1496 1500 1502 1499 1491 1482 1470 1453 1442 1444 1453 1476 1503 1525 1540 1542 1538 1535 1536 1539 1537 1526 1509 1488 1469 1456 1445 1437 1425 1405 1378 1346 1313 1284 1256 1223 1190 1159 1131 1109 1087 1057 1026 997 972 949 926 903 880 860 841 824 810 794 775 748 722 704 693 691 689 683 678 676 676 677 677 673 667 661 655 648 643 642 642 644 647 650 653 659 662 658 652 646 638 626 614 601 592 590 589 587 590 601 616 636 649 649 647 651 658 668 677 680 684 702 724 745 763 777 793 817 845 876 908 945 984 1023 1061 1096 1131 1168 1208 1260 1318 1373 1425 1466 1504 1548 1597 1650 1703 1753 1798 1835 1872 1915 1963 2017 2067 2105 2135 2156 2180
